( pcb2gcode 1.3.2 )
( Software-independent Gcode )

G94 ( Millimeters per minute feed rate. )
G21 ( Units == Millimeters. )

G90 ( Absolute coordinates. )
S10000 ( RPM spindle speed. )
G64 P0.01000 ( set maximum deviation from commanded toolpath )
F600.00000 ( Feedrate. )

F600.00000 ( Feedrate. )
M3 ( Spindle on clockwise. )
G04 P0 ( dwell for no time -- G64 should not smooth over this point )
G00 Z5.00000 ( retract )

G00 X2.62351 Y4.53634 ( rapid move to begin. )
F300.00000
G01 Z-0.05000
G04 P0 ( dwell for no time -- G64 should not smooth over this point )
F600.00000
X2.62351 Y4.53634
X2.66938 Y4.12087
X2.79590 Y3.73331
X3.00497 Y3.37121
X3.29285 Y3.05391
X3.63230 Y2.81000
X4.00494 Y2.64470
X4.40357 Y2.55940
X4.82155 Y2.55722
X5.24101 Y2.64470
X5.61363 Y2.81000
X5.95307 Y3.05391
X6.23438 Y3.36308
X6.45002 Y3.73331
X6.57654 Y4.12087
X6.62241 Y4.55724
X6.57654 Y4.97271
X6.45002 Y5.36023
X6.24098 Y5.72234
X5.95307 Y6.03966
X5.61363 Y6.28358
X5.24101 Y6.44888
X4.83202 Y6.53582
X4.42435 Y6.53638
X4.00494 Y6.44888
X3.62298 Y6.27883
X3.29285 Y6.03966
X3.01155 Y5.73049
X2.79590 Y5.36026
X2.66938 Y4.97271
X2.62351 Y4.53634
G04 P0 ( dwell for no time -- G64 should not smooth over this point )
G00 Z5.00000 ( retract )

G00 X6.93056 Y5.00781 ( rapid move to begin. )
F300.00000
G01 Z-0.05000
G04 P0 ( dwell for no time -- G64 should not smooth over this point )
F600.00000
X6.93056 Y5.00781
X6.93145 Y4.08983
X6.58078 Y3.24111
X5.93156 Y2.59075
X5.78180 Y2.52399
X5.71982 Y2.46174
X5.68706 Y2.38465
X5.68713 Y2.28661
X5.73242 Y2.19443
X5.82645 Y2.12425
X5.90867 Y2.10878
X110.97338 Y2.11122
X111.07468 Y2.14701
X111.15411 Y2.24000
X111.17557 Y2.33578
X111.17557 Y60.88519
X111.14908 Y60.98933
X111.09396 Y61.05812
X111.03993 Y61.09291
X110.97336 Y61.10973
X5.52066 Y61.10973
X5.45409 Y61.09291
X5.38490 Y61.04565
X5.32516 Y60.93881
X5.32285 Y60.84074
X5.36270 Y60.75098
X5.45876 Y60.67536
X6.05564 Y60.42876
X6.70544 Y59.78007
X7.05756 Y58.93201
X7.05845 Y58.01403
X6.70778 Y57.16531
X6.05909 Y56.51550
X5.21104 Y56.16338
X4.29303 Y56.16250
X3.44434 Y56.51317
X2.79448 Y57.16191
X2.54541 Y57.76170
X2.45768 Y57.86610
X2.36044 Y57.89922
X2.24437 Y57.88235
X2.17878 Y57.83851
X2.14198 Y57.79231
X2.10878 Y57.67466
X2.11124 Y5.62478
X2.12806 Y5.55820
X2.16288 Y5.50415
X2.24452 Y5.44179
X2.36070 Y5.42503
X2.44005 Y5.44913
X2.49641 Y5.48914
X2.53636 Y5.54558
X2.66519 Y5.85241
X3.31388 Y6.50222
X4.16194 Y6.85434
X5.07992 Y6.85523
X5.92864 Y6.50456
X6.57844 Y5.85587
X6.93056 Y5.00781
G04 P0 ( dwell for no time -- G64 should not smooth over this point )
G00 Z5.00000 ( retract )

G00 X43.69856 Y9.85240 ( rapid move to begin. )
F300.00000
G01 Z-0.05000
G04 P0 ( dwell for no time -- G64 should not smooth over this point )
F600.00000
X43.69856 Y9.85240
X43.69856 Y42.42110
X43.79082 Y42.88495
X44.05360 Y43.27824
X44.09805 Y43.32269
X44.49135 Y43.58548
X44.93277 Y43.67334
X45.37418 Y43.58553
X45.74844 Y43.33547
X45.99851 Y42.96120
X46.08642 Y42.51950
X46.01456 Y42.13672
X46.01456 Y9.85217
X45.92236 Y9.38857
X45.67230 Y9.01430
X45.29803 Y8.76424
X44.85660 Y8.67638
X44.41520 Y8.76419
X44.04093 Y9.01425
X43.79087 Y9.38852
X43.69856 Y9.85240
G04 P0 ( dwell for no time -- G64 should not smooth over this point )
G00 Z5.00000 ( retract )

G00 X56.05124 Y6.49010 ( rapid move to begin. )
F300.00000
G01 Z-0.05000
G04 P0 ( dwell for no time -- G64 should not smooth over this point )
F600.00000
X56.05124 Y6.49010
X51.97635 Y10.56500
X51.97635 Y15.01160
X51.94963 Y15.25039
X51.88127 Y15.45897
X51.75968 Y15.66628
X51.60429 Y15.83563
X51.43515 Y15.95851
X51.22606 Y16.05399
X50.99136 Y16.10555
X50.77183 Y16.10611
X50.53647 Y16.05775
X50.32636 Y15.96420
X50.13294 Y15.82163
X49.98077 Y15.64937
X49.86772 Y15.44922
X49.80041 Y15.24028
X49.77691 Y15.02204
X49.77635 Y10.10940
X49.79990 Y9.88527
X49.86429 Y9.67953
X49.95672 Y9.50663
X50.09858 Y9.33158
X55.46524 Y3.96557
X55.63308 Y3.83029
X55.82409 Y3.73039
X56.03090 Y3.66966
X56.22600 Y3.65046
X56.44068 Y3.66966
X56.66562 Y3.73789
X56.85480 Y3.84121
X57.00631 Y3.96557
X57.14456 Y4.13098
X57.24786 Y4.32016
X57.31225 Y4.52587
X57.33529 Y4.74020
X57.33575 Y5.41040
X57.31337 Y5.62874
X57.24067 Y5.85777
X57.12569 Y6.05693
X56.97921 Y6.22043
X56.79455 Y6.35731
X56.57570 Y6.45655
X56.36110 Y6.50270
X56.13123 Y6.50491
X56.05124 Y6.49010
G04 P0 ( dwell for no time -- G64 should not smooth over this point )
G00 Z5.00000 ( retract )

G00 X56.77286 Y6.70712 ( rapid move to begin. )
F300.00000
G01 Z-0.05000
G04 P0 ( dwell for no time -- G64 should not smooth over this point )
F600.00000
X56.77286 Y6.70712
X57.22823 Y6.40285
X57.53250 Y5.94748
X57.64377 Y5.38820
X57.64377 Y4.77217
X57.53255 Y4.21289
X57.22828 Y3.75752
X56.77291 Y3.45325
X56.25383 Y3.34998
X55.69872 Y3.45320
X55.25841 Y3.74741
X55.08376 Y3.91076
X49.89667 Y9.09784
X49.57968 Y9.57224
X49.46835 Y10.13180
X49.46835 Y14.98912
X49.57963 Y15.54863
X49.88389 Y16.00400
X50.33927 Y16.30827
X50.87637 Y16.41515
X51.41346 Y16.30832
X51.86883 Y16.00405
X52.17310 Y15.54868
X52.28437 Y14.98940
X52.28437 Y10.78661
X52.30586 Y10.69088
X52.33505 Y10.64534
X56.10357 Y6.87407
X56.21253 Y6.81855
X56.77286 Y6.70712
G04 P0 ( dwell for no time -- G64 should not smooth over this point )
G00 Z5.00000 ( retract )

G00 X56.77695 Y16.70995 ( rapid move to begin. )
F300.00000
G01 Z-0.05000
G04 P0 ( dwell for no time -- G64 should not smooth over this point )
F600.00000
X56.77695 Y16.70995
X57.04979 Y16.98279
X57.19165 Y17.15787
X57.28408 Y17.33077
X57.34847 Y17.53651
X57.37197 Y17.76064
X57.37151 Y33.40511
X57.34847 Y33.61941
X57.28406 Y33.82515
X57.18076 Y34.01431
X57.04979 Y34.17313
X56.77164 Y34.45129
X56.75345 Y34.61588
X56.68904 Y34.82162
X56.58574 Y35.01077
X56.46138 Y35.16231
X56.29597 Y35.30054
X56.08868 Y35.41136
X55.88188 Y35.47209
X55.53951 Y35.49124
X55.32127 Y35.46774
X55.10255 Y35.39667
X54.90339 Y35.28169
X54.73992 Y35.13521
X54.59260 Y34.93246
X54.50380 Y34.73168
X54.45544 Y34.49632
X54.45600 Y34.27679
X54.50111 Y34.06198
X54.58752 Y33.86439
X54.60296 Y33.75401
X54.67103 Y33.54529
X54.79194 Y33.33757
X55.17197 Y32.93971
X55.17197 Y18.21624
X54.89918 Y17.94345
X54.75732 Y17.76836
X54.66489 Y17.59547
X54.60050 Y17.38973
X54.57695 Y17.16565
X54.57695 Y15.67200
X54.59938 Y15.45361
X54.67682 Y15.21523
X54.78709 Y15.02539
X54.93354 Y14.86192
X55.13628 Y14.71460
X55.33707 Y14.62580
X55.57243 Y14.57746
X55.79196 Y14.57800
X56.01690 Y14.62580
X56.23575 Y14.72504
X56.42041 Y14.86192
X56.56686 Y15.02539
X56.67712 Y15.21523
X56.75457 Y15.45361
X56.77695 Y15.67200
X56.77695 Y16.70995
G04 P0 ( dwell for no time -- G64 should not smooth over this point )
G00 Z5.00000 ( retract )

G00 X52.67195 Y20.08129 ( rapid move to begin. )
F300.00000
G01 Z-0.05000
G04 P0 ( dwell for no time -- G64 should not smooth over this point )
F600.00000
X52.67195 Y20.08129
X52.58938 Y20.02503
X52.44155 Y19.87720
X52.31452 Y19.68566
X52.22687 Y19.46191
X52.19088 Y19.23476
X52.20182 Y19.01550
X52.26243 Y18.78297
X52.37299 Y18.56963
X52.51158 Y18.39938
X52.89258 Y18.01838
X53.05138 Y17.88739
X53.24058 Y17.78409
X53.46550 Y17.71586
X53.77195 Y17.69620
X53.99608 Y17.71970
X54.20182 Y17.78411
X54.39097 Y17.88741
X54.54251 Y18.01177
X54.68074 Y18.17718
X54.78404 Y18.36633
X54.84845 Y18.57207
X54.87195 Y18.79620
X54.87195 Y32.35980
X54.85229 Y32.56465
X54.78406 Y32.78957
X54.69166 Y32.96247
X54.55638 Y33.13031
X52.92417 Y34.76317
X52.74909 Y34.90503
X52.55811 Y35.00493
X52.35128 Y35.06569
X52.13660 Y35.08489
X51.92227 Y35.06185
X51.71658 Y34.99746
X51.54368 Y34.90506
X51.36197 Y34.75591
X51.22674 Y34.58809
X51.12679 Y34.39708
X51.06606 Y34.19028
X51.04635 Y33.98540
X51.04635 Y33.40120
X51.06990 Y33.17707
X51.13429 Y32.97133
X51.23761 Y32.78215
X51.39398 Y32.59798
X51.56423 Y32.45939
X51.77759 Y32.34883
X52.01010 Y32.28822
X52.28981 Y32.28632
X52.67195 Y31.90420
X52.67195 Y20.08129
G04 P0 ( dwell for no time -- G64 should not smooth over this point )
G00 Z5.00000 ( retract )

G00 X56.66943 Y35.38425 ( rapid move to begin. )
F300.00000
G01 Z-0.05000
G04 P0 ( dwell for no time -- G64 should not smooth over this point )
F600.00000
X56.66943 Y35.38425
X56.97370 Y34.92888
X57.02089 Y34.69172
X57.05457 Y34.61024
X57.25147 Y34.40717
X57.56869 Y33.93242
X57.67997 Y33.37313
X57.67997 Y17.78282
X57.56874 Y17.22356
X57.25177 Y16.74916
X57.13905 Y16.63375
X57.09173 Y16.54213
X57.08505 Y15.69445
X56.97375 Y15.13489
X56.66948 Y14.67952
X56.21411 Y14.37525
X55.65907 Y14.27195
X55.13992 Y14.37520
X54.69951 Y14.66949
X54.38028 Y15.13484
X54.26895 Y15.69440
X54.27916 Y17.21871
X54.26194 Y17.30370
X54.21277 Y17.37736
X54.13911 Y17.42663
X54.07167 Y17.44197
X53.69257 Y17.38818
X53.13332 Y17.49940
X52.65892 Y17.81639
X52.30967 Y18.16564
X51.99268 Y18.64004
X51.88580 Y19.17717
X51.99258 Y19.71408
X52.33085 Y20.21822
X52.36395 Y20.33580
X52.36395 Y31.68256
X52.32290 Y31.81266
X52.18178 Y31.95259
X52.09992 Y31.98650
X51.63487 Y32.07895
X51.16116 Y32.39787
X50.84968 Y32.86404
X50.73835 Y33.42360
X50.73835 Y33.96292
X50.84963 Y34.52243
X51.15389 Y34.97780
X51.60927 Y35.28207
X52.14637 Y35.38895
X52.68346 Y35.28212
X53.15785 Y34.96513
X53.77726 Y34.34572
X53.85094 Y34.29650
X53.93288 Y34.27935
X54.06385 Y34.31745
X54.13156 Y34.38855
X54.15308 Y34.43767
X54.25308 Y34.92860
X54.55749 Y35.38420
X55.01287 Y35.68847
X55.57240 Y35.79980
X55.65452 Y35.79980
X56.21406 Y35.68852
X56.66943 Y35.38425
G04 P0 ( dwell for no time -- G64 should not smooth over this point )
G00 Z5.00000 ( retract )

G00 X45.70653 Y42.17515 ( rapid move to begin. )
F300.00000
G01 Z-0.05000
G04 P0 ( dwell for no time -- G64 should not smooth over this point )
F600.00000
X45.70653 Y42.17515
X45.77230 Y42.38678
X45.78159 Y42.55381
X45.75596 Y42.72955
X45.69013 Y42.90563
X45.59947 Y43.04621
X45.47545 Y43.17332
X45.31865 Y43.27710
X45.16272 Y43.33755
X44.97730 Y43.36859
X44.79981 Y43.35930
X44.63811 Y43.31652
X44.47890 Y43.23786
X44.24896 Y43.03732
X44.14479 Y42.90740
X44.06798 Y42.75960
X44.02150 Y42.59971
X44.00656 Y42.44360
X44.00656 Y9.83000
X44.02787 Y9.64313
X44.08007 Y9.48426
X44.16895 Y9.33036
X44.28043 Y9.20572
X44.44093 Y9.08911
X44.60402 Y9.01890
X44.77816 Y8.98410
X44.94542 Y8.98464
X45.12899 Y9.02535
X45.28157 Y9.09386
X45.43272 Y9.20572
X45.54420 Y9.33036
X45.63308 Y9.48426
X45.68527 Y9.64313
X45.70653 Y9.83000
X45.70653 Y42.17515
G04 P0 ( dwell for no time -- G64 should not smooth over this point )
G00 Z5.00000 ( retract )

G00 X40.89923 Y51.17338 ( rapid move to begin. )
F300.00000
G01 Z-0.05000
G04 P0 ( dwell for no time -- G64 should not smooth over this point )
F600.00000
X40.89923 Y51.17338
X40.99656 Y51.18326
X41.29610 Y51.31882
X41.43900 Y51.41303
X41.53878 Y51.53388
X41.67395 Y51.75367
X41.77568 Y51.86398
X41.79250 Y51.98409
X41.78429 Y52.14066
X41.74043 Y52.31277
X41.65038 Y52.48953
X41.54469 Y52.61909
X41.33913 Y52.82466
X41.24828 Y52.96654
X41.11444 Y53.10439
X40.97330 Y53.20263
X40.79753 Y53.28028
X40.59471 Y53.32285
X40.32245 Y53.30942
X40.13855 Y53.25389
X39.95298 Y53.15089
X39.80853 Y53.02420
X39.69255 Y52.87101
X39.60980 Y52.69766
X39.56362 Y52.51114
X39.55592 Y52.31920
X39.58704 Y52.12964
X39.64676 Y51.96835
X39.74668 Y51.80421
X39.89288 Y51.65036
X40.05173 Y51.54229
X40.20980 Y51.47447
X40.30736 Y51.45237
X40.47231 Y51.31137
X40.62953 Y51.22880
X40.81076 Y51.17856
X40.89923 Y51.17338
G04 P0 ( dwell for no time -- G64 should not smooth over this point )
G00 Z5.00000 ( retract )

G00 X41.77779 Y51.86578 ( rapid move to begin. )
F300.00000
G01 Z-0.05000
G04 P0 ( dwell for no time -- G64 should not smooth over this point )
F600.00000
X41.77779 Y51.86578
X41.67395 Y51.75367
X41.54091 Y51.53677
X41.43900 Y51.41303
X41.29610 Y51.31882
X40.99656 Y51.18326
X40.50367 Y51.09469
X40.02400 Y51.19009
X39.61729 Y51.46184
X39.40998 Y51.76863
X39.34254 Y51.82532
X39.24963 Y51.85191
X39.24102 Y52.06131
X39.20043 Y52.21277
X39.12176 Y52.37198
X39.01170 Y52.51135
X38.86949 Y52.65430
X38.81163 Y52.80459
X38.72065 Y52.95054
X38.58978 Y53.09120
X38.41559 Y53.21246
X38.23822 Y53.28633
X37.96873 Y53.32722
X37.78245 Y53.30942
X37.57996 Y53.24592
X37.41298 Y53.15089
X37.26853 Y53.02420
X37.16324 Y52.88821
X37.07683 Y52.71660
X37.02362 Y52.51114
X37.01592 Y52.31920
X37.04704 Y52.12964
X37.11570 Y51.95016
X37.21905 Y51.78821
X37.35288 Y51.65036
X37.49403 Y51.55212
X37.62679 Y51.49293
X37.80266 Y51.31706
X37.93231 Y51.21138
X38.10462 Y51.12275
X37.96367 Y51.09469
X37.48400 Y51.19009
X37.07729 Y51.46184
X36.85070 Y51.79121
X36.78506 Y51.83510
X36.70330 Y51.85191
X36.70102 Y52.10134
X36.66043 Y52.25278
X36.58174 Y52.41198
X36.46469 Y52.55915
X36.30594 Y52.71787
X36.27163 Y52.80459
X36.18065 Y52.95054
X36.04978 Y53.09120
X35.89330 Y53.20263
X35.71753 Y53.28028
X35.52977 Y53.32095
X35.41354 Y53.32684
X35.22263 Y53.30535
X35.03996 Y53.24592
X34.87298 Y53.15089
X34.72853 Y53.02420
X34.61255 Y52.87101
X34.52980 Y52.69766
X34.48362 Y52.51114
X34.47592 Y52.31920
X34.50704 Y52.12964
X34.56676 Y51.96835
X34.66668 Y51.80421
X34.79754 Y51.66355
X34.97173 Y51.54229
X35.15182 Y51.46789
X35.40983 Y51.23998
X35.55911 Y51.16454
X35.64981 Y51.13970
X35.42367 Y51.09469
X34.94400 Y51.19009
X34.53701 Y51.46205
X34.31403 Y51.78806
X34.24059 Y51.83710
X34.15591 Y51.85417
X34.04768 Y51.74142
X33.92093 Y51.53675
X33.81900 Y51.41305
X33.68207 Y51.32230
X33.36754 Y51.17998
X32.88367 Y51.09469
X32.40400 Y51.19009
X31.99701 Y51.46205
X31.77403 Y51.78806
X31.70059 Y51.83710
X31.62018 Y51.85374
X31.51096 Y51.73652
X31.37390 Y51.51135
X31.28655 Y51.40546
X31.13527 Y51.30276
X30.83346 Y51.16576
X30.63407 Y51.15245
X30.34367 Y51.09469
X29.86400 Y51.19009
X29.45729 Y51.46184
X29.24998 Y51.76863
X29.18254 Y51.82532
X29.08963 Y51.85191
X29.08320 Y52.05105
X29.03293 Y52.23228
X28.95038 Y52.38953
X28.70949 Y52.65430
X28.65163 Y52.80459
X28.54828 Y52.96654
X28.41444 Y53.10439
X28.25559 Y53.21246
X28.07822 Y53.28633
X27.90977 Y53.32095
X27.79354 Y53.32684
X27.60263 Y53.30535
X27.41996 Y53.24592
X27.25298 Y53.15089
X27.10853 Y53.02420
X26.99255 Y52.87101
X26.90980 Y52.69766
X26.86667 Y52.53116
X26.85491 Y52.33941
X26.88704 Y52.12964
X26.94676 Y51.96835
X27.04668 Y51.80421
X27.19288 Y51.65036
X27.33403 Y51.55212
X27.46679 Y51.49293
X27.64266 Y51.31706
X27.77231 Y51.21138
X27.94462 Y51.12275
X27.80367 Y51.09469
X27.32400 Y51.19009
X26.91729 Y51.46184
X26.70081 Y51.78056
X26.62059 Y51.83710
X26.54975 Y51.85278
X26.54320 Y52.05105
X26.49293 Y52.23228
X26.41038 Y52.38953
X26.16949 Y52.65430
X26.11163 Y52.80459
X26.00828 Y52.96654
X25.87444 Y53.10439
X25.71559 Y53.21246
X25.53822 Y53.28633
X25.36977 Y53.32095
X25.25354 Y53.32684
X25.06263 Y53.30535
X24.87996 Y53.24592
X24.71298 Y53.15089
X24.56853 Y53.02420
X24.45255 Y52.87101
X24.36980 Y52.69766
X24.32667 Y52.53116
X24.31491 Y52.33941
X24.34704 Y52.12964
X24.40676 Y51.96835
X24.50668 Y51.80421
X24.65288 Y51.65036
X24.79403 Y51.55212
X24.92679 Y51.49293
X25.10266 Y51.31706
X25.23231 Y51.21138
X25.40462 Y51.12275
X25.26367 Y51.09469
X24.78400 Y51.19009
X24.37729 Y51.46184
X24.16998 Y51.76863
X24.10254 Y51.82532
X24.01209 Y51.85191
X24.00320 Y52.01104
X23.95293 Y52.19227
X23.87038 Y52.34952
X23.64666 Y52.59712
X23.58057 Y52.78640
X23.46828 Y52.96654
X23.33444 Y53.10439
X23.17559 Y53.21246
X22.99822 Y53.28633
X22.82977 Y53.32095
X22.71354 Y53.32684
X22.52263 Y53.30535
X22.33996 Y53.24592
X22.17298 Y53.15089
X22.02853 Y53.02420
X21.91255 Y52.87101
X21.82980 Y52.69766
X21.78667 Y52.53116
X21.77491 Y52.33941
X21.80199 Y52.14919
X21.86676 Y51.96835
X21.97905 Y51.78821
X22.11288 Y51.65036
X22.31674 Y51.52298
X22.57044 Y51.27005
X22.69231 Y51.17137
X22.80584 Y51.11107
X22.72367 Y51.09469
X22.24400 Y51.19009
X21.83701 Y51.46205
X21.61403 Y51.78806
X21.54059 Y51.83710
X21.45367 Y51.85438
X21.39119 Y51.81468
X21.33917 Y51.75415
X21.11438 Y51.41770
X20.84296 Y51.22359
X20.63943 Y51.12849
X20.42345 Y51.09047
X20.18367 Y51.07543
X19.70400 Y51.19009
X19.29729 Y51.46184
X19.10242 Y51.75349
X19.02254 Y51.82532
X18.95805 Y51.84998
X18.86945 Y51.85003
X18.79173 Y51.81877
X18.74314 Y51.77589
X18.74311 Y52.38783
X18.71693 Y52.61617
X18.64858 Y52.82476
X18.53359 Y53.02392
X18.37159 Y53.20141
X18.18434 Y53.33474
X17.98360 Y53.42354
X17.74820 Y53.47190
X17.51835 Y53.46969
X17.30377 Y53.42354
X17.08487 Y53.32427
X16.90024 Y53.18742
X16.76036 Y53.03207
X16.63877 Y52.82478
X16.56771 Y52.60606
X16.54368 Y52.37729
X16.54419 Y51.77581
X16.46059 Y51.83710
X16.37367 Y51.85438
X16.28686 Y51.83710
X16.20365 Y51.77635
X16.20365 Y52.37739
X16.17693 Y52.61617
X16.10383 Y52.83410
X15.99359 Y53.02392
X15.84711 Y53.18742
X15.66245 Y53.32430
X15.43347 Y53.42623
X15.21866 Y53.47134
X14.99913 Y53.47190
X14.76377 Y53.42354
X14.55366 Y53.32999
X14.36024 Y53.18742
X14.21376 Y53.02394
X14.09877 Y52.82478
X14.02771 Y52.60606
X14.00421 Y52.38783
X14.00365 Y51.77642
X13.92059 Y51.83710
X13.83367 Y51.85438
X13.74686 Y51.83710
X13.66365 Y51.77637
X13.66365 Y52.37739
X13.64127 Y52.59573
X13.56858 Y52.82476
X13.45359 Y53.02392
X13.29159 Y53.20141
X13.10434 Y53.33474
X12.89347 Y53.42623
X12.67866 Y53.47134
X12.45913 Y53.47190
X12.22377 Y53.42354
X12.01366 Y53.32999
X11.82024 Y53.18742
X11.67376 Y53.02394
X11.55877 Y52.82478
X11.48771 Y52.60606
X11.46365 Y52.37739
X11.46365 Y51.77642
X11.39789 Y51.82783
X11.33317 Y51.85085
X11.24945 Y51.85003
X11.16759 Y51.81615
X11.10493 Y51.75351
X10.91006 Y51.46190
X10.87364 Y51.43754
X10.87364 Y51.96296
X10.91753 Y52.05709
X10.96066 Y52.22359
X10.97242 Y52.41534
X10.94534 Y52.60556
X10.88057 Y52.78640
X10.76828 Y52.96654
X10.63444 Y53.10439
X10.49330 Y53.20263
X10.29822 Y53.28633
X10.12977 Y53.32095
X10.01354 Y53.32684
X9.82263 Y53.30535
X9.65855 Y53.25389
X9.47298 Y53.15089
X9.32853 Y53.02420
X9.22324 Y52.88821
X9.13683 Y52.71660
X9.08667 Y52.53116
X9.07491 Y52.33941
X9.10199 Y52.14919
X9.17366 Y51.95427
X9.17366 Y51.43754
X9.13701 Y51.46205
X8.91403 Y51.78806
X8.82177 Y51.84279
X8.75367 Y51.85438
X8.68560 Y51.84279
X8.58108 Y51.77325
X8.37034 Y51.46207
X7.96338 Y51.19014
X7.48367 Y51.09469
X7.00400 Y51.19009
X6.59531 Y51.46319
X6.52208 Y51.53586
X6.40430 Y51.56911
X6.31743 Y51.55186
X6.24377 Y51.50264
X6.19455 Y51.42900
X6.13956 Y51.29626
X6.02658 Y51.18326
X6.08149 Y51.46121
X6.06945 Y51.69085
X6.04365 Y51.78923
X6.04311 Y52.38783
X6.01693 Y52.61617
X5.94858 Y52.82476
X5.89363 Y52.92100
X5.89173 Y53.24688
X5.86435 Y53.29806
X5.81317 Y53.32544
X5.49712 Y53.32737
X5.29765 Y53.41785
X5.29765 Y53.60959
X5.32346 Y53.63540
X5.87471 Y53.63540
X6.02480 Y53.57324
X6.13948 Y53.45856
X6.19455 Y53.32570
X6.24377 Y53.25206
X6.31746 Y53.20286
X6.40430 Y53.18562
X6.52195 Y53.21879
X6.59526 Y53.29148
X7.00395 Y53.56458
X7.48367 Y53.66004
X7.60430 Y53.63606
X7.45228 Y53.55615
X7.32266 Y53.45046
X7.12957 Y53.25737
X6.94959 Y53.16245
X6.78853 Y53.02420
X6.68324 Y52.88821
X6.59683 Y52.71660
X6.54362 Y52.51114
X6.53592 Y52.31920
X6.56704 Y52.12964
X6.63570 Y51.95016
X6.73905 Y51.78821
X6.87288 Y51.65036
X7.03173 Y51.54229
X7.20910 Y51.46842
X7.47859 Y51.42753
X7.68469 Y51.44940
X7.86737 Y51.50883
X8.03435 Y51.60386
X8.17880 Y51.73055
X8.29477 Y51.88374
X8.39294 Y52.11668
X8.63038 Y52.37805
X8.71293 Y52.53527
X8.76320 Y52.71645
X8.77148 Y52.90279
X8.86249 Y52.92933
X8.93000 Y52.98610
X9.13727 Y53.29283
X9.54395 Y53.56458
X10.02367 Y53.66004
X10.50333 Y53.56463
X10.91031 Y53.29268
X11.13340 Y52.96659
X11.20683 Y52.91759
X11.29370 Y52.90035
X11.38054 Y52.91759
X11.45397 Y52.96659
X11.67696 Y53.29263
X12.08395 Y53.56458
X12.56367 Y53.66004
X13.04333 Y53.56463
X13.45031 Y53.29268
X13.67340 Y52.96659
X13.74683 Y52.91759
X13.83370 Y52.90035
X13.92054 Y52.91759
X13.99397 Y52.96659
X14.21696 Y53.29263
X14.62395 Y53.56458
X15.10367 Y53.66004
X15.58333 Y53.56463
X15.99031 Y53.29268
X16.21340 Y52.96659
X16.28683 Y52.91759
X16.37370 Y52.90035
X16.46054 Y52.91759
X16.53397 Y52.96659
X16.75696 Y53.29263
X17.16395 Y53.56458
X17.64367 Y53.66004
X18.12333 Y53.56463
X18.53031 Y53.29268
X18.75340 Y52.96659
X18.82683 Y52.91759
X18.91370 Y52.90035
X19.00054 Y52.91759
X19.07397 Y52.96659
X19.29696 Y53.29263
X19.70395 Y53.56458
X20.18367 Y53.66004
X20.66333 Y53.56463
X21.07031 Y53.29268
X21.29340 Y52.96659
X21.36683 Y52.91759
X21.45370 Y52.90035
X21.54054 Y52.91759
X21.61397 Y52.96659
X21.83696 Y53.29263
X22.24395 Y53.56458
X22.72367 Y53.66004
X23.20333 Y53.56463
X23.61031 Y53.29268
X23.83340 Y52.96659
X23.90683 Y52.91759
X23.99370 Y52.90035
X24.08054 Y52.91759
X24.15397 Y52.96659
X24.37696 Y53.29263
X24.78395 Y53.56458
X25.26367 Y53.66004
X25.74333 Y53.56463
X26.15031 Y53.29268
X26.37340 Y52.96659
X26.44683 Y52.91759
X26.53370 Y52.90035
X26.62054 Y52.91759
X26.69397 Y52.96659
X26.91696 Y53.29263
X27.32395 Y53.56458
X27.80367 Y53.66004
X28.28333 Y53.56463
X28.69031 Y53.29268
X28.91340 Y52.96659
X28.98683 Y52.91759
X29.07370 Y52.90035
X29.16054 Y52.91759
X29.23397 Y52.96659
X29.45696 Y53.29263
X29.86395 Y53.56458
X30.34367 Y53.66004
X30.82333 Y53.56463
X31.23031 Y53.29268
X31.45340 Y52.96659
X31.52683 Y52.91759
X31.61370 Y52.90035
X31.70054 Y52.91759
X31.77397 Y52.96659
X31.99696 Y53.29263
X32.40395 Y53.56458
X32.88367 Y53.66004
X33.36333 Y53.56463
X33.77031 Y53.29268
X33.99340 Y52.96659
X34.06683 Y52.91759
X34.15370 Y52.90035
X34.24054 Y52.91759
X34.31397 Y52.96659
X34.53696 Y53.29263
X34.94395 Y53.56458
X35.42367 Y53.66004
X35.90333 Y53.56463
X36.31031 Y53.29268
X36.53340 Y52.96659
X36.60683 Y52.91759
X36.69370 Y52.90035
X36.78054 Y52.91759
X36.85397 Y52.96659
X37.07696 Y53.29263
X37.48395 Y53.56458
X37.96367 Y53.66004
X38.44333 Y53.56463
X38.85031 Y53.29268
X39.07340 Y52.96659
X39.14683 Y52.91759
X39.23370 Y52.90035
X39.32054 Y52.91759
X39.39397 Y52.96659
X39.61696 Y53.29263
X40.02395 Y53.56458
X40.50367 Y53.66004
X40.98333 Y53.56463
X41.39026 Y53.29273
X41.62041 Y52.95575
X41.69189 Y52.90718
X41.77667 Y52.88887
X41.86202 Y52.90362
X41.93568 Y52.94932
X42.03474 Y53.12138
X42.40019 Y53.45442
X42.67510 Y53.56834
X42.68965 Y53.56067
X42.68965 Y53.25740
X42.49298 Y53.15089
X42.34853 Y53.02420
X42.24324 Y52.88821
X42.14980 Y52.69766
X42.10667 Y52.53116
X42.09491 Y52.33941
X42.12704 Y52.12964
X42.18676 Y51.96835
X42.28668 Y51.80421
X42.43288 Y51.65036
X42.68965 Y51.49006
X42.68965 Y51.19408
X42.67515 Y51.18638
X42.40024 Y51.30025
X42.03479 Y51.63329
X41.93570 Y51.80535
X41.86204 Y51.85107
X41.77779 Y51.86578
G04 P0 ( dwell for no time -- G64 should not smooth over this point )
G00 Z5.00000 ( retract )

G00 X44.23176 Y52.73992 ( rapid move to begin. )
F300.00000
G01 Z-0.05000
G04 P0 ( dwell for no time -- G64 should not smooth over this point )
F600.00000
X44.23176 Y52.73992
X43.92097 Y52.73139
X43.80065 Y52.95054
X43.66978 Y53.09120
X43.51330 Y53.20263
X43.39765 Y53.25437
X43.39765 Y53.56060
X43.41223 Y53.56834
X43.68706 Y53.45447
X44.05256 Y53.12138
X44.23176 Y52.73992
G04 P0 ( dwell for no time -- G64 should not smooth over this point )
G00 Z5.00000 ( retract )

G00 X33.27923 Y51.17338 ( rapid move to begin. )
F300.00000
G01 Z-0.05000
G04 P0 ( dwell for no time -- G64 should not smooth over this point )
F600.00000
X33.27923 Y51.17338
X33.37656 Y51.18326
X33.67610 Y51.31882
X33.81900 Y51.41305
X33.91880 Y51.53385
X34.04768 Y51.74142
X34.15385 Y51.85245
X34.17250 Y51.98409
X34.16429 Y52.14066
X34.12043 Y52.31277
X34.03038 Y52.48953
X33.92469 Y52.61909
X33.71913 Y52.82466
X33.62828 Y52.96654
X33.49444 Y53.10439
X33.35330 Y53.20263
X33.17753 Y53.28028
X32.97471 Y53.32285
X32.70245 Y53.30942
X32.51855 Y53.25389
X32.33298 Y53.15089
X32.18853 Y53.02420
X32.07255 Y52.87101
X31.98980 Y52.69766
X31.94362 Y52.51114
X31.93592 Y52.31920
X31.96704 Y52.12964
X32.02676 Y51.96835
X32.12668 Y51.80421
X32.27288 Y51.65036
X32.43173 Y51.54229
X32.58980 Y51.47447
X32.68736 Y51.45237
X32.85231 Y51.31137
X33.00953 Y51.22880
X33.19076 Y51.17856
X33.27923 Y51.17338
G04 P0 ( dwell for no time -- G64 should not smooth over this point )
G00 Z5.00000 ( retract )

G00 X30.63405 Y51.15247 ( rapid move to begin. )
F300.00000
G01 Z-0.05000
G04 P0 ( dwell for no time -- G64 should not smooth over this point )
F600.00000
X30.63405 Y51.15247
X30.83453 Y51.16616
X31.13156 Y51.30061
X31.28655 Y51.40546
X31.37390 Y51.51135
X31.51096 Y51.73652
X31.61860 Y51.85242
X31.63250 Y51.95410
X31.62102 Y52.13131
X31.57293 Y52.30228
X31.49653 Y52.45105
X31.38469 Y52.58910
X31.20832 Y52.76547
X31.10065 Y52.95054
X30.95444 Y53.10439
X30.79559 Y53.21246
X30.61822 Y53.28633
X30.34873 Y53.32722
X30.14263 Y53.30535
X29.95996 Y53.24592
X29.79298 Y53.15089
X29.64853 Y53.02420
X29.54324 Y52.88821
X29.45683 Y52.71660
X29.40667 Y52.53116
X29.39491 Y52.33941
X29.42199 Y52.14919
X29.49570 Y51.95016
X29.59905 Y51.78821
X29.73288 Y51.65036
X29.89173 Y51.54229
X30.10961 Y51.46012
X30.32983 Y51.27000
X30.47911 Y51.19453
X30.63405 Y51.15247
G04 P0 ( dwell for no time -- G64 should not smooth over this point )
G00 Z5.00000 ( retract )

G00 X19.89978 Y51.15115 ( rapid move to begin. )
F300.00000
G01 Z-0.05000
G04 P0 ( dwell for no time -- G64 should not smooth over this point )
F600.00000
X19.89978 Y51.15115
X20.19704 Y51.07500
X20.43359 Y51.09172
X20.68378 Y51.14081
X20.84296 Y51.22359
X21.11438 Y51.41770
X21.33917 Y51.75415
X21.43526 Y51.85209
X21.47217 Y52.08054
X21.46013 Y52.31018
X21.39635 Y52.54188
X21.29622 Y52.73720
X21.11629 Y52.95107
X21.06699 Y53.03207
X20.91159 Y53.20141
X20.72434 Y53.33474
X20.52360 Y53.42354
X20.29866 Y53.47134
X20.07913 Y53.47190
X19.84377 Y53.42354
X19.63366 Y53.32999
X19.44024 Y53.18742
X19.29376 Y53.02394
X19.17877 Y52.82478
X19.11042 Y52.61617
X19.08365 Y52.37739
X19.10336 Y52.12318
X19.16409 Y51.91638
X19.26402 Y51.72534
X19.39927 Y51.55755
X19.59587 Y51.36030
X19.76612 Y51.22171
X19.89978 Y51.15115
G04 P0 ( dwell for no time -- G64 should not smooth over this point )
G00 Z5.00000 ( retract )

G00 X3.90786 Y52.73139 ( rapid move to begin. )
F300.00000
G01 Z-0.05000
G04 P0 ( dwell for no time -- G64 should not smooth over this point )
F600.00000
X3.90786 Y52.73139
X3.71139 Y52.73139
X3.68564 Y52.75714
X3.68564 Y53.30842
X3.74777 Y53.45846
X3.86252 Y53.57319
X4.01259 Y53.63540
X4.56389 Y53.63540
X4.58965 Y53.60964
X4.58965 Y53.41785
X4.38965 Y53.32737
X4.07416 Y53.32544
X4.01053 Y53.28292
X3.99366 Y53.22737
X3.99366 Y52.92095
X3.93877 Y52.82478
X3.90786 Y52.73139
G04 P0 ( dwell for no time -- G64 should not smooth over this point )
G00 Z5.00000 ( retract )

G00 X3.68564 Y51.44627 ( rapid move to begin. )
F300.00000
G01 Z-0.05000
G04 P0 ( dwell for no time -- G64 should not smooth over this point )
F600.00000
X3.68564 Y51.44627
X3.68564 Y51.99758
X3.71144 Y52.02339
X3.84365 Y52.02339
X3.84413 Y51.54828
X3.86336 Y51.35318
X3.92077 Y51.15735
X3.86255 Y51.18145
X3.74782 Y51.29619
X3.68564 Y51.44627
G04 P0 ( dwell for no time -- G64 should not smooth over this point )
G00 Z5.00000 ( retract )

G00 X2.75051 Y58.46054 ( rapid move to begin. )
F300.00000
G01 Z-0.05000
G04 P0 ( dwell for no time -- G64 should not smooth over this point )
F600.00000
X2.75051 Y58.46054
X2.79638 Y58.04507
X2.92290 Y57.65751
X3.13197 Y57.29541
X3.41985 Y56.97811
X3.75930 Y56.73420
X4.13194 Y56.56890
X4.53057 Y56.48360
X4.94855 Y56.48142
X5.36801 Y56.56890
X5.74063 Y56.73420
X6.08007 Y56.97811
X6.36138 Y57.28728
X6.57702 Y57.65751
X6.70354 Y58.04507
X6.74941 Y58.48144
X6.70354 Y58.89691
X6.57702 Y59.28443
X6.36798 Y59.64654
X6.08007 Y59.96386
X5.74063 Y60.20778
X5.36801 Y60.37308
X4.95902 Y60.46002
X4.55135 Y60.46058
X4.13194 Y60.37308
X3.74998 Y60.20303
X3.41985 Y59.96386
X3.13855 Y59.65469
X2.92290 Y59.28446
X2.79638 Y58.89691
X2.75051 Y58.46054
G04 P0 ( dwell for no time -- G64 should not smooth over this point )
G00 Z5.00000 ( retract )

G00 X75.78013 Y11.57053 ( rapid move to begin. )
F300.00000
G01 Z-0.05000
G04 P0 ( dwell for no time -- G64 should not smooth over this point )
F600.00000
X75.78013 Y11.57053
X75.86103 Y11.80183
X75.87960 Y11.99944
X75.85669 Y12.19659
X75.79802 Y12.37536
X75.69873 Y12.54734
X75.55771 Y12.70152
X75.39583 Y12.81646
X75.22375 Y12.89248
X75.02944 Y12.93378
X74.84133 Y12.93434
X74.63660 Y12.89248
X74.45517 Y12.81171
X74.28710 Y12.68755
X74.16160 Y12.54737
X74.06231 Y12.37538
X74.00092 Y12.18648
X73.98019 Y11.98897
X74.00363 Y11.78138
X74.08016 Y11.57059
X74.08016 Y10.33160
X74.09713 Y10.16518
X74.15164 Y9.99119
X74.06231 Y9.83538
X74.00092 Y9.64648
X73.98019 Y9.44897
X73.99929 Y9.26183
X74.06231 Y9.06259
X74.16820 Y8.88248
X74.28710 Y8.75042
X74.44638 Y8.63198
X74.63660 Y8.54550
X74.84133 Y8.50366
X75.02944 Y8.50420
X75.22375 Y8.54550
X75.39583 Y8.62152
X75.57323 Y8.75042
X75.69870 Y8.89061
X75.80178 Y9.07237
X75.86103 Y9.26183
X75.87960 Y9.45944
X75.85669 Y9.65659
X75.79802 Y9.83536
X75.70853 Y9.99139
X75.76322 Y10.16518
X75.78013 Y10.33160
X75.78013 Y11.57053
G04 P0 ( dwell for no time -- G64 should not smooth over this point )
G00 Z5.00000 ( retract )

G00 X78.32013 Y11.57053 ( rapid move to begin. )
F300.00000
G01 Z-0.05000
G04 P0 ( dwell for no time -- G64 should not smooth over this point )
F600.00000
X78.32013 Y11.57053
X78.40103 Y11.80183
X78.41960 Y11.99944
X78.39669 Y12.19659
X78.33802 Y12.37536
X78.23873 Y12.54734
X78.09771 Y12.70152
X77.93583 Y12.81646
X77.76375 Y12.89248
X77.56944 Y12.93378
X77.38133 Y12.93434
X77.17660 Y12.89248
X76.99517 Y12.81171
X76.82710 Y12.68755
X76.70160 Y12.54737
X76.60231 Y12.37538
X76.54092 Y12.18648
X76.52019 Y11.98897
X76.54363 Y11.78138
X76.62016 Y11.57059
X76.62072 Y10.37112
X76.64147 Y10.19472
X76.70632 Y10.01291
X76.60231 Y9.83538
X76.54092 Y9.64648
X76.52019 Y9.44897
X76.53929 Y9.26183
X76.60231 Y9.06259
X76.70820 Y8.88248
X76.82710 Y8.75042
X76.98638 Y8.63198
X77.17660 Y8.54550
X77.38133 Y8.50366
X77.56944 Y8.50420
X77.76375 Y8.54550
X77.93583 Y8.62152
X78.11323 Y8.75042
X78.23870 Y8.89061
X78.34178 Y9.07237
X78.40103 Y9.26183
X78.41960 Y9.43854
X78.40103 Y9.63615
X78.33802 Y9.83536
X78.23403 Y10.01288
X78.29887 Y10.19472
X78.31960 Y10.37112
X78.32013 Y11.57053
G04 P0 ( dwell for no time -- G64 should not smooth over this point )
G00 Z5.00000 ( retract )

G00 X80.86013 Y11.57053 ( rapid move to begin. )
F300.00000
G01 Z-0.05000
G04 P0 ( dwell for no time -- G64 should not smooth over this point )
F600.00000
X80.86013 Y11.57053
X80.94103 Y11.80183
X80.95960 Y11.99944
X80.93669 Y12.19659
X80.87802 Y12.37536
X80.77873 Y12.54734
X80.63771 Y12.70152
X80.47583 Y12.81646
X80.30375 Y12.89248
X80.10944 Y12.93378
X79.92133 Y12.93434
X79.71660 Y12.89248
X79.53517 Y12.81171
X79.36710 Y12.68755
X79.24160 Y12.54737
X79.14231 Y12.37538
X79.08092 Y12.18648
X79.06019 Y11.98897
X79.08363 Y11.78138
X79.16016 Y11.57059
X79.16016 Y10.33160
X79.17713 Y10.16518
X79.23164 Y9.99119
X79.14231 Y9.83538
X79.08092 Y9.64648
X79.06019 Y9.44897
X79.07929 Y9.26183
X79.14231 Y9.06259
X79.24820 Y8.88248
X79.36710 Y8.75042
X79.52638 Y8.63198
X79.71660 Y8.54550
X79.92133 Y8.50366
X80.10944 Y8.50420
X80.30375 Y8.54550
X80.47583 Y8.62152
X80.65323 Y8.75042
X80.77870 Y8.89061
X80.88178 Y9.07237
X80.94103 Y9.26183
X80.95960 Y9.45944
X80.93669 Y9.65659
X80.87802 Y9.83536
X80.78853 Y9.99139
X80.84322 Y10.16518
X80.86013 Y10.33160
X80.86013 Y11.57053
G04 P0 ( dwell for no time -- G64 should not smooth over this point )
G00 Z5.00000 ( retract )

G00 X81.94837 Y13.10884 ( rapid move to begin. )
F300.00000
G01 Z-0.05000
G04 P0 ( dwell for no time -- G64 should not smooth over this point )
F600.00000
X81.94837 Y13.10884
X82.35640 Y13.25689
X82.86165 Y13.23429
X83.15007 Y13.11483
X83.15622 Y13.09560
X82.91985 Y12.85918
X82.84375 Y12.89248
X82.63897 Y12.93434
X82.44055 Y12.93213
X82.25660 Y12.89248
X82.18055 Y12.85918
X81.94413 Y13.09558
X81.94837 Y13.10884
G04 P0 ( dwell for no time -- G64 should not smooth over this point )
G00 Z5.00000 ( retract )

G00 X83.94209 Y13.12885 ( rapid move to begin. )
F300.00000
G01 Z-0.05000
G04 P0 ( dwell for no time -- G64 should not smooth over this point )
F600.00000
X83.94209 Y13.12885
X84.07844 Y13.22204
X84.26302 Y13.25943
X85.91887 Y13.25943
X86.08992 Y13.22728
X86.23008 Y13.13705
X86.32327 Y13.00071
X86.36061 Y12.81638
X86.36061 Y11.16002
X86.32850 Y10.98923
X86.23828 Y10.84907
X86.10193 Y10.75588
X86.00336 Y10.72413
X85.95908 Y10.69317
X85.90285 Y10.61288
X85.88578 Y10.52606
X85.90315 Y10.43932
X85.93993 Y10.38095
X86.15606 Y10.16249
X86.34796 Y9.70031
X86.34847 Y9.19995
X86.15700 Y8.73658
X86.04509 Y8.61852
X86.01169 Y8.53732
X86.01174 Y8.44877
X86.04565 Y8.36696
X86.10831 Y8.30440
X86.17130 Y8.27623
X92.65658 Y8.26970
X92.70850 Y8.28543
X92.77766 Y8.33267
X94.13707 Y9.69208
X94.61147 Y10.00907
X95.14857 Y10.11595
X95.68566 Y10.00912
X96.14103 Y9.70485
X96.44530 Y9.24948
X96.55218 Y8.71237
X96.44535 Y8.17529
X96.12835 Y7.70090
X94.30590 Y5.87845
X93.83151 Y5.56145
X93.27220 Y5.45018
X72.84417 Y5.45018
X72.28492 Y5.56140
X71.81050 Y5.87842
X69.54278 Y8.14270
X69.49727 Y8.17189
X69.40153 Y8.19338
X66.51957 Y8.19338
X65.96032 Y8.30460
X65.50495 Y8.60887
X65.20068 Y9.06424
X65.09380 Y9.60137
X65.20063 Y10.13843
X65.50489 Y10.59380
X65.96027 Y10.89807
X66.51980 Y11.00940
X70.05632 Y11.00940
X70.61586 Y10.89812
X71.09025 Y10.58113
X73.33871 Y8.33267
X73.41237 Y8.28344
X73.47971 Y8.26810
X73.83041 Y8.27062
X73.91186 Y8.30445
X73.97450 Y8.36711
X74.00838 Y8.44898
X74.01026 Y8.51809
X73.97480 Y8.61878
X73.86464 Y8.73470
X73.67242 Y9.19762
X73.67191 Y9.69800
X73.80142 Y10.01141
X73.81859 Y10.09769
X73.77216 Y10.35347
X73.77216 Y11.45209
X73.75484 Y11.53912
X73.67242 Y11.73769
X73.67191 Y12.23797
X73.86307 Y12.70061
X74.21669 Y13.05483
X74.67884 Y13.24673
X75.17920 Y13.24724
X75.64183 Y13.05608
X76.04323 Y12.63927
X76.11343 Y12.59352
X76.20025 Y12.57643
X76.28707 Y12.59377
X76.35710 Y12.63967
X76.75669 Y13.05483
X77.21884 Y13.24673
X77.71920 Y13.24724
X78.18183 Y13.05608
X78.58323 Y12.63927
X78.65343 Y12.59352
X78.74025 Y12.57643
X78.82707 Y12.59377
X78.89710 Y12.63967
X79.29669 Y13.05483
X79.75884 Y13.24673
X80.25920 Y13.24724
X80.72183 Y13.05608
X81.07766 Y12.70086
X81.13854 Y12.61420
X81.19280 Y12.57764
X81.26948 Y12.55745
X81.44291 Y12.59563
X81.67718 Y12.36139
X81.62092 Y12.18648
X81.60019 Y11.98897
X81.61929 Y11.80183
X81.67718 Y11.61661
X81.44152 Y11.38092
X81.33443 Y11.37849
X81.25099 Y11.33498
X81.20563 Y11.28443
X81.17581 Y11.21720
X81.16499 Y10.21481
X81.19521 Y10.14836
X81.24065 Y10.09840
X81.34962 Y10.05009
X81.44185 Y10.05669
X81.67718 Y9.82139
X81.62092 Y9.64648
X81.60072 Y9.45944
X81.62363 Y9.24138
X81.68706 Y9.05327
X81.78162 Y8.89061
X81.90710 Y8.75042
X82.07517 Y8.62627
X82.26671 Y8.54280
X82.46133 Y8.50366
X82.64944 Y8.50420
X82.83361 Y8.54280
X83.02518 Y8.62627
X83.17771 Y8.73645
X83.31870 Y8.89061
X83.41802 Y9.06259
X83.47669 Y9.24138
X83.49960 Y9.43854
X83.48103 Y9.63615
X83.42315 Y9.82131
X83.65739 Y10.05560
X83.80247 Y10.01793
X83.86772 Y10.02378
X83.94387 Y10.05913
X84.02134 Y10.15888
X84.24857 Y10.39065
X84.28827 Y10.48087
X84.28786 Y10.56980
X84.24740 Y10.65969
X84.16780 Y10.72581
X84.09216 Y10.74956
X83.95030 Y10.84087
X83.85711 Y10.97722
X83.81804 Y11.17013
X83.78083 Y11.25583
X83.42320 Y11.61679
X83.48103 Y11.80183
X83.49960 Y11.97854
X83.48103 Y12.17615
X83.42322 Y12.36114
X83.77331 Y12.71356
X83.81631 Y12.80190
X83.85190 Y12.98874
X83.94209 Y13.12885
G04 P0 ( dwell for no time -- G64 should not smooth over this point )
G00 Z5.00000 ( retract )

G00 X86.04013 Y11.13901 ( rapid move to begin. )
F300.00000
G01 Z-0.05000
G04 P0 ( dwell for no time -- G64 should not smooth over this point )
F600.00000
X86.04013 Y11.13901
X86.04013 Y12.83899
X86.01085 Y12.90967
X85.94013 Y12.93899
X84.24016 Y12.93899
X84.16948 Y12.90967
X84.14016 Y12.83899
X84.14016 Y11.13901
X84.16948 Y11.06830
X84.24016 Y11.03901
X85.94013 Y11.03901
X86.01085 Y11.06830
X86.04013 Y11.13901
G04 P0 ( dwell for no time -- G64 should not smooth over this point )
G00 Z5.00000 ( retract )

G00 X84.14072 Y9.43854 ( rapid move to begin. )
F300.00000
G01 Z-0.05000
G04 P0 ( dwell for no time -- G64 should not smooth over this point )
F600.00000
X84.14072 Y9.43854
X84.16363 Y9.24138
X84.22231 Y9.06259
X84.32162 Y8.89061
X84.44710 Y8.75042
X84.61517 Y8.62627
X84.79660 Y8.54550
X84.98055 Y8.50585
X85.17897 Y8.50366
X85.38375 Y8.54550
X85.55583 Y8.62152
X85.73323 Y8.75042
X85.85870 Y8.89061
X85.95802 Y9.06259
X86.02103 Y9.26183
X86.03960 Y9.45944
X86.01669 Y9.65659
X85.95802 Y9.83536
X85.85873 Y10.00734
X85.73323 Y10.14755
X85.56518 Y10.27168
X85.38375 Y10.35248
X85.18944 Y10.39378
X85.00133 Y10.39434
X84.79660 Y10.35248
X84.62449 Y10.27646
X84.44710 Y10.14755
X84.32160 Y10.00737
X84.22231 Y9.83538
X84.16092 Y9.64648
X84.14072 Y9.43854
G04 P0 ( dwell for no time -- G64 should not smooth over this point )
G00 Z5.00000 ( retract )

G00 X92.83880 Y7.95820 ( rapid move to begin. )
F300.00000
G01 Z-0.05000
G04 P0 ( dwell for no time -- G64 should not smooth over this point )
F600.00000
X92.83880 Y7.95820
X73.27755 Y7.95820
X70.84931 Y10.38578
X70.68152 Y10.52103
X70.50862 Y10.61346
X70.30288 Y10.67785
X70.08858 Y10.70092
X66.49735 Y10.70140
X66.26867 Y10.67734
X66.04995 Y10.60627
X65.85958 Y10.49698
X65.67335 Y10.32929
X65.54475 Y10.15139
X65.45496 Y9.95106
X65.40284 Y9.70592
X65.40340 Y9.48639
X65.45120 Y9.26145
X65.54000 Y9.06071
X65.67332 Y8.87346
X65.85958 Y8.70577
X66.04998 Y8.59647
X66.25856 Y8.52812
X66.49735 Y8.50140
X69.62315 Y8.50140
X72.05144 Y6.07377
X72.21928 Y5.93849
X72.41029 Y5.83859
X72.61710 Y5.77786
X72.82195 Y5.75820
X93.29435 Y5.75820
X93.49925 Y5.77786
X93.72422 Y5.84611
X93.91337 Y5.94941
X94.06491 Y6.07377
X95.93338 Y7.94235
X96.06496 Y8.10481
X96.17125 Y8.30862
X96.23285 Y8.53008
X96.24707 Y8.76993
X96.20786 Y9.00704
X96.12345 Y9.22081
X96.00346 Y9.40460
X95.84083 Y9.56724
X95.63841 Y9.69673
X95.43331 Y9.77488
X95.20616 Y9.81087
X94.98690 Y9.79993
X94.76435 Y9.74255
X94.55853 Y9.64013
X94.37078 Y9.49017
X92.83880 Y7.95820
G04 P0 ( dwell for no time -- G64 should not smooth over this point )
G00 Z5.00000 ( retract )

G00 X97.60983 Y18.24870 ( rapid move to begin. )
F300.00000
G01 Z-0.05000
G04 P0 ( dwell for no time -- G64 should not smooth over this point )
F600.00000
X97.60983 Y18.24870
X97.10918 Y18.24817
X96.64623 Y18.43948
X96.29178 Y18.79330
X96.09973 Y19.25591
X96.09919 Y19.75657
X96.29051 Y20.21951
X96.66409 Y20.59376
X96.71321 Y20.66739
X96.73041 Y20.75418
X96.71316 Y20.84103
X96.67636 Y20.89952
X96.46137 Y21.05502
X96.15629 Y21.51164
X96.04941 Y22.04877
X96.15624 Y22.58583
X96.46051 Y23.04120
X96.91588 Y23.34547
X97.46914 Y23.45553
X97.97384 Y23.45974
X98.31827 Y23.59807
X98.93541 Y23.59870
X99.50577 Y23.36302
X99.94247 Y22.92710
X100.17910 Y22.35715
X100.17973 Y21.74034
X99.94404 Y21.16998
X99.50813 Y20.73328
X98.93785 Y20.49650
X98.60602 Y20.49190
X98.52459 Y20.45799
X98.46203 Y20.39533
X98.42677 Y20.30372
X98.43554 Y20.20110
X98.61705 Y19.75881
X98.61758 Y19.25815
X98.42627 Y18.79521
X98.07244 Y18.44078
X97.60983 Y18.24870
G04 P0 ( dwell for no time -- G64 should not smooth over this point )
G00 Z5.00000 ( retract )

G00 X98.05832 Y20.94740 ( rapid move to begin. )
F300.00000
G01 Z-0.05000
G04 P0 ( dwell for no time -- G64 should not smooth over this point )
F600.00000
X98.05832 Y20.94740
X98.24428 Y20.86523
X98.50889 Y20.81067
X98.75827 Y20.81121
X99.01247 Y20.86523
X99.24051 Y20.96617
X99.45194 Y21.11707
X99.63394 Y21.31677
X99.75913 Y21.53249
X99.84148 Y21.77885
X99.87082 Y22.03694
X99.84148 Y22.31593
X99.76388 Y22.55294
X99.63396 Y22.77798
X99.46746 Y22.96370
X99.24989 Y23.12383
X99.00234 Y23.23223
X98.75827 Y23.28357
X98.50889 Y23.28413
X98.24428 Y23.22954
X98.05845 Y23.14740
X97.40587 Y23.14727
X97.17852 Y23.11346
X96.95363 Y23.02888
X96.76922 Y22.90978
X96.60516 Y22.74880
X96.47814 Y22.55725
X96.38830 Y22.32327
X96.35449 Y22.10635
X96.36544 Y21.88710
X96.43031 Y21.64501
X96.53049 Y21.44964
X96.66963 Y21.27727
X96.85170 Y21.12769
X97.02459 Y21.03529
X97.23028 Y20.97090
X97.45436 Y20.94740
X98.05832 Y20.94740
G04 P0 ( dwell for no time -- G64 should not smooth over this point )
G00 Z5.00000 ( retract )

G00 X103.61826 Y23.79949 ( rapid move to begin. )
F300.00000
G01 Z-0.05000
G04 P0 ( dwell for no time -- G64 should not smooth over this point )
F600.00000
X103.61826 Y23.79949
X103.41859 Y24.32680
X103.43771 Y24.94714
X103.61437 Y25.37361
X103.66895 Y25.39616
X103.87835 Y25.18679
X103.87835 Y25.15557
X103.83908 Y25.08318
X103.76253 Y24.84582
X103.73537 Y24.58737
X103.76525 Y24.31885
X103.84284 Y24.08181
X103.88983 Y23.99939
X103.66903 Y23.77856
X103.61826 Y23.79949
G04 P0 ( dwell for no time -- G64 should not smooth over this point )
G00 Z5.00000 ( retract )

G00 X104.61861 Y23.04669 ( rapid move to begin. )
F300.00000
G01 Z-0.05000
G04 P0 ( dwell for no time -- G64 should not smooth over this point )
F600.00000
X104.61861 Y23.04669
X104.19214 Y23.22334
X104.16959 Y23.27795
X104.38805 Y23.49644
X104.59428 Y23.40523
X104.85889 Y23.35067
X105.11861 Y23.35286
X105.36247 Y23.40523
X105.56865 Y23.49644
X105.78719 Y23.27798
X105.76626 Y23.22723
X105.23895 Y23.02756
X104.61861 Y23.04669
G04 P0 ( dwell for no time -- G64 should not smooth over this point )
G00 Z5.00000 ( retract )

G00 X106.51906 Y24.22758 ( rapid move to begin. )
F300.00000
G01 Z-0.05000
G04 P0 ( dwell for no time -- G64 should not smooth over this point )
F600.00000
X106.51906 Y24.22758
X106.34241 Y23.80112
X106.28780 Y23.77856
X106.06692 Y23.99939
X106.11388 Y24.08181
X106.19148 Y24.31885
X106.22082 Y24.57694
X106.19148 Y24.85593
X106.11764 Y25.08318
X106.07835 Y25.15560
X106.07835 Y25.18669
X106.28777 Y25.39616
X106.33852 Y25.37523
X106.53819 Y24.84793
X106.51906 Y24.22758
G04 P0 ( dwell for no time -- G64 should not smooth over this point )
G00 Z5.00000 ( retract )

G00 X106.45051 Y20.21951 ( rapid move to begin. )
F300.00000
G01 Z-0.05000
G04 P0 ( dwell for no time -- G64 should not smooth over this point )
F600.00000
X106.45051 Y20.21951
X106.80433 Y20.57397
X107.26694 Y20.76602
X107.76760 Y20.76655
X108.23054 Y20.57524
X108.58497 Y20.22142
X108.77705 Y19.75881
X108.77758 Y19.25815
X108.58627 Y18.79521
X108.23244 Y18.44078
X107.76983 Y18.24870
X107.26918 Y18.24817
X106.80623 Y18.43948
X106.45178 Y18.79330
X106.25973 Y19.25591
X106.25919 Y19.75657
X106.45051 Y20.21951
G04 P0 ( dwell for no time -- G64 should not smooth over this point )
G00 Z5.00000 ( retract )

G00 X104.47584 Y18.14860 ( rapid move to begin. )
F300.00000
G01 Z-0.05000
G04 P0 ( dwell for no time -- G64 should not smooth over this point )
F600.00000
X104.47584 Y18.14860
X103.80075 Y17.47235
X102.91818 Y17.10591
X101.96284 Y17.10499
X101.07963 Y17.46991
X100.40338 Y18.14499
X100.03693 Y19.02757
X100.03602 Y19.98291
X100.40094 Y20.86612
X101.07602 Y21.54237
X101.95859 Y21.90882
X102.91394 Y21.90973
X103.79715 Y21.54481
X104.47340 Y20.86973
X104.83984 Y19.98716
X104.84076 Y19.03181
X104.47584 Y18.14860
G04 P0 ( dwell for no time -- G64 should not smooth over this point )
G00 Z5.00000 ( retract )

G00 X104.63956 Y15.82572 ( rapid move to begin. )
F300.00000
G01 Z-0.05000
G04 P0 ( dwell for no time -- G64 should not smooth over this point )
F600.00000
X104.63956 Y15.82572
X104.81068 Y15.79354
X104.95082 Y15.70337
X105.04393 Y15.56707
X105.08130 Y15.38267
X105.08130 Y14.62905
X105.11637 Y14.43129
X105.11637 Y13.76329
X105.16666 Y13.48925
X105.05973 Y12.95169
X104.75549 Y12.49634
X104.30009 Y12.19207
X103.76298 Y12.08519
X103.22593 Y12.19202
X102.72867 Y12.53185
X102.41148 Y13.00652
X102.31061 Y13.44244
X102.23990 Y13.51823
X102.15740 Y13.55562
X102.04701 Y13.55326
X101.94704 Y13.49532
X101.89680 Y13.41971
X101.83573 Y13.24884
X101.38537 Y13.08267
X100.84000 Y13.10409
X100.50289 Y13.24371
X100.49164 Y13.27536
X100.56906 Y13.35280
X101.16835 Y13.35280
X101.38674 Y13.37518
X101.61580 Y13.44787
X101.81496 Y13.56289
X101.99243 Y13.72486
X102.12575 Y13.91211
X102.21455 Y14.11285
X102.26070 Y14.32745
X102.26289 Y14.55732
X102.21455 Y14.79268
X102.12100 Y15.00279
X101.97843 Y15.19621
X101.80617 Y15.34838
X101.61580 Y15.45767
X101.38674 Y15.53037
X101.16835 Y15.55280
X100.56896 Y15.55280
X100.49162 Y15.63012
X100.50104 Y15.65668
X100.95141 Y15.82285
X101.49677 Y15.80144
X101.83446 Y15.66156
X101.93342 Y15.42498
X102.02296 Y15.36034
X102.11224 Y15.34429
X102.20071 Y15.36451
X102.26954 Y15.41256
X102.33439 Y15.48282
X102.45778 Y15.69519
X102.59408 Y15.78831
X102.77873 Y15.82572
X103.53210 Y15.82572
X103.70835 Y15.85661
X103.88463 Y15.82572
X104.63956 Y15.82572
G04 P0 ( dwell for no time -- G64 should not smooth over this point )
G00 Z5.00000 ( retract )

G00 X104.80835 Y13.81623 ( rapid move to begin. )
F300.00000
G01 Z-0.05000
G04 P0 ( dwell for no time -- G64 should not smooth over this point )
F600.00000
X104.80835 Y13.81623
X104.80835 Y14.45280
X104.78597 Y14.67114
X104.76085 Y14.75552
X104.76085 Y15.40530
X104.75325 Y15.44355
X104.71642 Y15.48843
X104.66085 Y15.50530
X104.02097 Y15.50530
X103.82336 Y15.54675
X103.60383 Y15.54731
X103.39583 Y15.50530
X102.75585 Y15.50530
X102.70030 Y15.48843
X102.67271 Y15.46085
X102.65585 Y15.40530
X102.65585 Y14.75539
X102.63078 Y14.67114
X102.60835 Y14.45280
X102.60835 Y13.54338
X102.62806 Y13.33840
X102.68884 Y13.13152
X102.79971 Y12.92420
X102.98534 Y12.71077
X103.15565 Y12.57223
X103.37901 Y12.45849
X103.60157 Y12.40119
X103.82085 Y12.39029
X104.03774 Y12.42415
X104.25305 Y12.50452
X104.45546 Y12.63406
X104.61101 Y12.78897
X104.73799 Y12.98057
X104.82557 Y13.20431
X104.86148 Y13.44196
X104.85049 Y13.65072
X104.80835 Y13.81623
G04 P0 ( dwell for no time -- G64 should not smooth over this point )
G00 Z5.00000 ( retract )

G00 X105.54431 Y5.47614 ( rapid move to begin. )
F300.00000
G01 Z-0.05000
G04 P0 ( dwell for no time -- G64 should not smooth over this point )
F600.00000
X105.54431 Y5.47614
X105.59018 Y5.06067
X105.71670 Y4.67311
X105.92577 Y4.31101
X106.21365 Y3.99371
X106.55310 Y3.74980
X106.92574 Y3.58450
X107.32437 Y3.49920
X107.74235 Y3.49702
X108.16181 Y3.58450
X108.53443 Y3.74980
X108.87387 Y3.99371
X109.15518 Y4.30288
X109.37082 Y4.67311
X109.49734 Y5.06067
X109.54321 Y5.49704
X109.49734 Y5.91251
X109.37082 Y6.30003
X109.16178 Y6.66214
X108.87387 Y6.97946
X108.53443 Y7.22338
X108.16181 Y7.38868
X107.75282 Y7.47562
X107.34515 Y7.47618
X106.92574 Y7.38868
X106.54378 Y7.21863
X106.21365 Y6.97946
X105.93235 Y6.67029
X105.71670 Y6.30006
X105.59018 Y5.91251
X105.54431 Y5.47614
G04 P0 ( dwell for no time -- G64 should not smooth over this point )
G00 Z5.00000 ( retract )

G00 X105.23621 Y5.02551 ( rapid move to begin. )
F300.00000
G01 Z-0.05000
G04 P0 ( dwell for no time -- G64 should not smooth over this point )
F600.00000
X105.23621 Y5.02551
X105.23532 Y5.94352
X105.58599 Y6.79221
X106.23468 Y7.44202
X107.08274 Y7.79414
X108.00072 Y7.79503
X108.84944 Y7.44436
X109.49924 Y6.79567
X109.85136 Y5.94761
X109.85225 Y5.02963
X109.50158 Y4.18091
X108.85289 Y3.53110
X108.00484 Y3.17898
X107.08683 Y3.17810
X106.23814 Y3.52877
X105.58833 Y4.17746
X105.23621 Y5.02551
G04 P0 ( dwell for no time -- G64 should not smooth over this point )
G00 Z5.00000 ( retract )

G00 X104.61444 Y32.91923 ( rapid move to begin. )
F300.00000
G01 Z-0.05000
G04 P0 ( dwell for no time -- G64 should not smooth over this point )
F600.00000
X104.61444 Y32.91923
X104.05991 Y33.14837
X103.63530 Y33.57224
X103.40525 Y34.12627
X103.40467 Y34.72609
X103.63380 Y35.28062
X104.05762 Y35.70521
X104.61178 Y35.93528
X105.21152 Y35.93589
X105.76605 Y35.70676
X106.19064 Y35.28291
X106.42071 Y34.72878
X106.42132 Y34.12896
X106.19222 Y33.57453
X105.76834 Y33.14992
X105.21419 Y32.91984
X104.61444 Y32.91923
G04 P0 ( dwell for no time -- G64 should not smooth over this point )
G00 Z5.00000 ( retract )

G00 X103.71353 Y34.41712 ( rapid move to begin. )
F300.00000
G01 Z-0.05000
G04 P0 ( dwell for no time -- G64 should not smooth over this point )
F600.00000
X103.71353 Y34.41712
X103.74193 Y34.16798
X103.81676 Y33.93950
X103.94218 Y33.72223
X104.11005 Y33.53579
X104.30423 Y33.39406
X104.54218 Y33.28632
X104.77723 Y33.23580
X105.02793 Y33.23364
X105.29356 Y33.29007
X105.52173 Y33.39406
X105.72333 Y33.54321
X105.88378 Y33.72223
X106.00921 Y33.93950
X106.08838 Y34.18842
X106.11243 Y34.43803
X106.08404 Y34.68718
X106.00921 Y34.91562
X105.88381 Y35.13290
X105.71594 Y35.31933
X105.52173 Y35.46109
X105.28381 Y35.56884
X105.03839 Y35.62098
X104.79801 Y35.62154
X104.53240 Y35.56508
X104.30423 Y35.46109
X104.10263 Y35.31194
X103.94216 Y35.13292
X103.81676 Y34.91565
X103.73921 Y34.67707
X103.71353 Y34.41712
G04 P0 ( dwell for no time -- G64 should not smooth over this point )
G00 Z5.00000 ( retract )

G00 X100.97025 Y34.98418 ( rapid move to begin. )
F300.00000
G01 Z-0.05000
G04 P0 ( dwell for no time -- G64 should not smooth over this point )
F600.00000
X100.97025 Y34.98418
X101.19248 Y35.20648
X101.23787 Y35.18834
X101.42999 Y34.67824
X101.41031 Y34.07486
X101.24198 Y33.66846
X101.19250 Y33.64865
X100.97023 Y33.87090
X101.01295 Y33.94928
X101.08402 Y34.16798
X101.11242 Y34.41712
X101.08402 Y34.68718
X101.01295 Y34.90587
X100.97025 Y34.98418
G04 P0 ( dwell for no time -- G64 should not smooth over this point )
G00 Z5.00000 ( retract )

G00 X99.35504 Y35.48608 ( rapid move to begin. )
F300.00000
G01 Z-0.05000
G04 P0 ( dwell for no time -- G64 should not smooth over this point )
F600.00000
X99.35504 Y35.48608
X99.13406 Y35.70704
X99.15222 Y35.75245
X99.66233 Y35.94455
X100.26571 Y35.92489
X100.67208 Y35.75657
X100.69190 Y35.70709
X100.47092 Y35.48608
X100.28379 Y35.56884
X100.02791 Y35.62154
X99.77722 Y35.61936
X99.54216 Y35.56884
X99.35504 Y35.48608
G04 P0 ( dwell for no time -- G64 should not smooth over this point )
G00 Z5.00000 ( retract )

G00 X98.39599 Y34.17689 ( rapid move to begin. )
F300.00000
G01 Z-0.05000
G04 P0 ( dwell for no time -- G64 should not smooth over this point )
F600.00000
X98.39599 Y34.17689
X98.41565 Y34.78024
X98.58400 Y35.18667
X98.63345 Y35.20648
X98.85570 Y34.98425
X98.81298 Y34.90587
X98.73757 Y34.66673
X98.71298 Y34.42756
X98.75738 Y34.12045
X98.51032 Y33.87336
X98.39599 Y34.17689
G04 P0 ( dwell for no time -- G64 should not smooth over this point )
G00 Z5.00000 ( retract )

G00 X99.35088 Y33.01695 ( rapid move to begin. )
F300.00000
G01 Z-0.05000
G04 P0 ( dwell for no time -- G64 should not smooth over this point )
F600.00000
X99.35088 Y33.01695
X99.60605 Y33.27217
X99.79799 Y33.23364
X100.03838 Y33.23417
X100.28377 Y33.28632
X100.47089 Y33.36907
X100.69192 Y33.14806
X100.67376 Y33.10267
X100.16365 Y32.91055
X99.56028 Y32.93023
X99.35088 Y33.01695
G04 P0 ( dwell for no time -- G64 should not smooth over this point )
G00 Z5.00000 ( retract )

G00 X98.09152 Y39.79872 ( rapid move to begin. )
F300.00000
G01 Z-0.05000
G04 P0 ( dwell for no time -- G64 should not smooth over this point )
F600.00000
X98.09152 Y39.79872
X97.34418 Y39.29936
X96.44047 Y39.11958
X96.38553 Y39.11958
X95.48185 Y39.29931
X94.73450 Y39.79867
X94.23514 Y40.54602
X94.05975 Y41.42757
X94.23509 Y42.30906
X94.73445 Y43.05640
X95.48180 Y43.55576
X96.38576 Y43.73560
X96.44019 Y43.73560
X97.34413 Y43.55582
X98.09147 Y43.05645
X98.59083 Y42.30911
X98.76622 Y41.42757
X98.59088 Y40.54607
X98.09152 Y39.79872
G04 P0 ( dwell for no time -- G64 should not smooth over this point )
G00 Z5.00000 ( retract )

G00 X96.42310 Y39.42811 ( rapid move to begin. )
F300.00000
G01 Z-0.05000
G04 P0 ( dwell for no time -- G64 should not smooth over this point )
F600.00000
X96.42310 Y39.42811
X96.82536 Y39.47109
X97.21078 Y39.59415
X97.56350 Y39.79227
X97.86914 Y40.05735
X98.11517 Y40.37853
X98.29149 Y40.74266
X98.38786 Y41.11482
X98.41037 Y41.51874
X98.35116 Y41.91894
X98.21255 Y42.29905
X98.00031 Y42.64347
X97.72304 Y42.93811
X97.39218 Y43.17090
X97.02119 Y43.33232
X96.62531 Y43.41578
X96.41804 Y43.42744
X96.02040 Y43.38815
X95.63377 Y43.26900
X95.27905 Y43.07446
X94.97075 Y42.81248
X94.72147 Y42.49384
X94.54149 Y42.13148
X94.43809 Y41.74035
X94.41558 Y41.33644
X94.47479 Y40.93624
X94.61340 Y40.55613
X94.82564 Y40.21170
X95.10291 Y39.91706
X95.43377 Y39.68427
X95.80476 Y39.52285
X96.20064 Y39.43939
X96.42310 Y39.42811
G04 P0 ( dwell for no time -- G64 should not smooth over this point )
G00 Z5.00000 ( retract )

G00 X98.91351 Y48.91712 ( rapid move to begin. )
F300.00000
G01 Z-0.05000
G04 P0 ( dwell for no time -- G64 should not smooth over this point )
F600.00000
X98.91351 Y48.91712
X98.93754 Y48.70958
X98.99944 Y48.52085
X99.10399 Y48.33980
X99.25197 Y48.17785
X99.42230 Y48.05682
X99.60396 Y47.97653
X99.79812 Y47.93472
X100.00701 Y47.93254
X100.23175 Y47.98029
X100.42174 Y48.06726
X100.58948 Y48.19185
X100.72194 Y48.33980
X100.82649 Y48.52085
X100.89273 Y48.73002
X100.91242 Y48.93802
X100.88839 Y49.14557
X100.82649 Y49.33426
X100.72197 Y49.51532
X100.57396 Y49.67729
X100.40363 Y49.79832
X100.22200 Y49.87861
X100.01748 Y49.92207
X99.81890 Y49.92263
X99.59418 Y49.87485
X99.41298 Y49.79357
X99.23645 Y49.66330
X99.10396 Y49.51534
X98.99944 Y49.33429
X98.93483 Y49.13546
X98.91351 Y48.91712
G04 P0 ( dwell for no time -- G64 should not smooth over this point )
G00 Z5.00000 ( retract )

G00 X99.17107 Y50.03576 ( rapid move to begin. )
F300.00000
G01 Z-0.05000
G04 P0 ( dwell for no time -- G64 should not smooth over this point )
F600.00000
X99.17107 Y50.03576
X99.65174 Y50.23533
X100.17191 Y50.23586
X100.65275 Y50.03716
X101.08702 Y49.60328
X101.17287 Y49.56683
X101.27028 Y49.56965
X101.50155 Y49.33843
X101.43482 Y49.13546
X101.41298 Y48.92756
X101.43754 Y48.70958
X101.50155 Y48.51674
X101.27030 Y48.28547
X101.18765 Y48.28977
X101.08361 Y48.24880
X100.65486 Y47.81933
X100.17424 Y47.61982
X99.65405 Y47.61928
X99.17305 Y47.81804
X98.80480 Y48.18565
X98.60524 Y48.66630
X98.60470 Y49.18649
X98.80346 Y49.66749
X99.17107 Y50.03576
G04 P0 ( dwell for no time -- G64 should not smooth over this point )
G00 Z5.00000 ( retract )

G00 X101.77249 Y50.06863 ( rapid move to begin. )
F300.00000
G01 Z-0.05000
G04 P0 ( dwell for no time -- G64 should not smooth over this point )
F600.00000
X101.77249 Y50.06863
X101.78755 Y50.09151
X101.78755 Y50.05359
X101.77249 Y50.06863
G04 P0 ( dwell for no time -- G64 should not smooth over this point )
G00 Z5.00000 ( retract )

G00 X103.04683 Y47.76668 ( rapid move to begin. )
F300.00000
G01 Z-0.05000
G04 P0 ( dwell for no time -- G64 should not smooth over this point )
F600.00000
X103.04683 Y47.76668
X102.61808 Y47.60976
X102.09329 Y47.63180
X101.78102 Y47.76114
X101.77249 Y47.78641
X102.00571 Y48.01969
X102.10396 Y47.97653
X102.29812 Y47.93472
X102.50701 Y47.93254
X102.72199 Y47.97653
X102.82021 Y48.01971
X103.05349 Y47.78646
X103.04683 Y47.76668
G04 P0 ( dwell for no time -- G64 should not smooth over this point )
G00 Z5.00000 ( retract )

G00 X106.32943 Y42.27078 ( rapid move to begin. )
F300.00000
G01 Z-0.05000
G04 P0 ( dwell for no time -- G64 should not smooth over this point )
F600.00000
X106.32943 Y42.27078
X106.80712 Y42.98566
X107.52201 Y43.46336
X108.38771 Y43.63560
X109.30389 Y43.46341
X110.01883 Y42.98571
X110.49650 Y42.27083
X110.66427 Y41.42757
X110.49655 Y40.58435
X110.01888 Y39.86946
X109.30394 Y39.39176
X108.43851 Y39.21958
X107.52206 Y39.39171
X106.80717 Y39.86941
X106.32948 Y40.58429
X106.16171 Y41.42757
X106.32943 Y42.27078
G04 P0 ( dwell for no time -- G64 should not smooth over this point )
G00 Z5.00000 ( retract )

G00 X108.42310 Y39.52811 ( rapid move to begin. )
F300.00000
G01 Z-0.05000
G04 P0 ( dwell for no time -- G64 should not smooth over this point )
F600.00000
X108.42310 Y39.52811
X108.80524 Y39.56903
X109.17133 Y39.68605
X109.50638 Y39.87434
X109.78273 Y40.11158
X110.01961 Y40.41427
X110.19068 Y40.75841
X110.28901 Y41.12996
X110.31052 Y41.51368
X110.25434 Y41.89389
X110.12276 Y42.25500
X109.92124 Y42.58226
X109.65792 Y42.86224
X109.34362 Y43.08348
X108.99124 Y43.23692
X108.61520 Y43.31629
X108.41804 Y43.32744
X108.04052 Y43.29021
X107.67321 Y43.17710
X107.33618 Y42.99239
X107.04322 Y42.74360
X106.80634 Y42.44091
X106.63527 Y42.09676
X106.53694 Y41.72521
X106.51543 Y41.34149
X106.57161 Y40.96128
X106.70319 Y40.60017
X106.90471 Y40.27292
X107.16803 Y39.99293
X107.48233 Y39.77170
X107.83471 Y39.61826
X108.21075 Y39.53888
X108.42310 Y39.52811
G04 P0 ( dwell for no time -- G64 should not smooth over this point )
G00 Z5.00000 ( retract )

G00 X102.95514 Y55.19879 ( rapid move to begin. )
F300.00000
G01 Z-0.05000
G04 P0 ( dwell for no time -- G64 should not smooth over this point )
F600.00000
X102.95514 Y55.19879
X104.36298 Y53.79097
X104.36298 Y50.78138
X104.16956 Y50.63881
X104.02308 Y50.47533
X103.90809 Y50.27617
X103.83703 Y50.05745
X103.81297 Y49.82878
X103.81297 Y48.92758
X103.83974 Y48.68875
X103.90809 Y48.48014
X104.02311 Y48.28098
X104.16956 Y48.11750
X104.36298 Y47.97493
X104.57309 Y47.88138
X104.80845 Y47.83305
X105.02798 Y47.83358
X105.26268 Y47.88514
X105.47177 Y47.98062
X105.64091 Y48.10351
X105.80288 Y48.28098
X105.92165 Y48.48992
X105.99059 Y48.70920
X106.01297 Y48.92758
X106.01297 Y49.82878
X105.98625 Y50.06756
X105.91790 Y50.27615
X105.80291 Y50.47531
X105.65643 Y50.63881
X105.46296 Y50.78138
X105.46296 Y54.01879
X105.45003 Y54.13558
X105.37535 Y54.31589
X105.30189 Y54.40766
X103.57187 Y56.13765
X103.40230 Y56.25269
X103.28059 Y56.28960
X92.30296 Y56.29877
X92.18617 Y56.28579
X92.08366 Y56.25269
X91.91409 Y56.13765
X90.69410 Y54.91767
X90.62064 Y54.82590
X90.57157 Y54.72999
X90.53299 Y54.52879
X90.53299 Y51.22877
X90.28900 Y51.20525
X90.08338 Y51.14092
X89.91056 Y51.04859
X89.70548 Y50.87691
X89.56068 Y50.69824
X89.45295 Y50.48344
X89.39550 Y50.26086
X89.38557 Y50.03121
X89.42357 Y49.80455
X89.49840 Y49.60932
X89.63484 Y49.39909
X89.79885 Y49.23805
X89.97411 Y49.12410
X90.19784 Y49.03635
X90.43543 Y49.00028
X90.64419 Y49.01115
X90.71856 Y49.02878
X91.08297 Y49.02878
X91.30136 Y49.05116
X91.52064 Y49.12009
X91.72958 Y49.23886
X91.89306 Y49.38532
X92.04038 Y49.58809
X92.12917 Y49.78882
X92.17698 Y50.01377
X92.17751 Y50.23330
X92.12917 Y50.46865
X92.03563 Y50.67876
X91.90703 Y50.85666
X91.72958 Y51.01864
X91.63296 Y51.07505
X91.63296 Y54.30093
X92.53083 Y55.19879
X102.95514 Y55.19879
G04 P0 ( dwell for no time -- G64 should not smooth over this point )
G00 Z5.00000 ( retract )

G00 X103.16052 Y56.60679 ( rapid move to begin. )
F300.00000
G01 Z-0.05000
G04 P0 ( dwell for no time -- G64 should not smooth over this point )
F600.00000
X103.16052 Y56.60679
X103.50957 Y56.53737
X103.80555 Y56.33961
X105.50380 Y54.64137
X105.70156 Y54.34540
X105.77098 Y53.99643
X105.77451 Y50.99294
X105.82508 Y50.88699
X105.90459 Y50.82248
X106.20969 Y50.36589
X106.32097 Y49.80658
X106.32097 Y48.94976
X106.20974 Y48.39050
X105.90547 Y47.93513
X105.45010 Y47.63086
X104.91299 Y47.52398
X104.37591 Y47.63081
X103.92029 Y47.93528
X103.73410 Y48.20833
X103.63959 Y48.26731
X103.56326 Y48.27790
X103.32415 Y48.51699
X103.39273 Y48.73002
X103.41241 Y48.91712
X103.39273 Y49.12512
X103.32649 Y49.33426
X103.22196 Y49.51532
X103.08948 Y49.66330
X102.98755 Y49.74005
X102.98755 Y50.11778
X103.04498 Y50.09398
X103.11277 Y49.90259
X103.15133 Y49.84945
X103.20812 Y49.80709
X103.27007 Y49.78527
X103.34096 Y49.78273
X103.40418 Y49.79992
X103.46403 Y49.83815
X103.50632 Y49.88831
X103.53380 Y49.95377
X103.61622 Y50.36583
X103.92133 Y50.82242
X103.98950 Y50.87292
X104.04104 Y50.95484
X104.05252 Y51.00754
X104.05496 Y53.56926
X104.03771 Y53.65618
X103.98849 Y53.72984
X102.89408 Y54.82427
X102.82047 Y54.87347
X102.75308 Y54.88886
X92.75239 Y54.89079
X92.66552 Y54.87350
X92.59191 Y54.82427
X92.00748 Y54.23984
X91.95826 Y54.16623
X91.94099 Y54.07926
X91.94452 Y51.29293
X91.99509 Y51.18699
X92.07459 Y51.12248
X92.37970 Y50.66588
X92.48658 Y50.12875
X92.37975 Y49.59169
X92.07548 Y49.13632
X91.62011 Y48.83206
X91.06083 Y48.72078
X90.63378 Y48.72078
X90.48384 Y48.69502
X89.94592 Y48.80201
X89.49055 Y49.10627
X89.18628 Y49.56165
X89.07940 Y50.09875
X89.18623 Y50.63584
X89.50251 Y51.10919
X89.97581 Y51.42542
X90.12407 Y51.47256
X90.18674 Y51.53517
X90.22062 Y51.61699
X90.22494 Y54.50626
X90.29438 Y54.85536
X90.49212 Y55.15132
X91.68038 Y56.33956
X91.97634 Y56.53732
X92.32544 Y56.60679
X103.16052 Y56.60679
G04 P0 ( dwell for no time -- G64 should not smooth over this point )
G00 Z5.00000 ( retract )

G00 X106.12173 Y56.85706 ( rapid move to begin. )
F300.00000
G01 Z-0.05000
G04 P0 ( dwell for no time -- G64 should not smooth over this point )
F600.00000
X106.12173 Y56.85706
X105.76961 Y57.70511
X105.76872 Y58.62312
X106.11939 Y59.47181
X106.76808 Y60.12162
X107.61614 Y60.47374
X108.53412 Y60.47463
X109.38284 Y60.12396
X110.03264 Y59.47527
X110.38476 Y58.62721
X110.38565 Y57.70923
X110.03498 Y56.86051
X109.38629 Y56.21070
X108.53824 Y55.85858
X107.62023 Y55.85770
X106.77154 Y56.20837
X106.12173 Y56.85706
G04 P0 ( dwell for no time -- G64 should not smooth over this point )
G00 Z5.00000 ( retract )

G00 X106.07771 Y58.15574 ( rapid move to begin. )
F300.00000
G01 Z-0.05000
G04 P0 ( dwell for no time -- G64 should not smooth over this point )
F600.00000
X106.07771 Y58.15574
X106.12358 Y57.74027
X106.25010 Y57.35271
X106.45917 Y56.99061
X106.74705 Y56.67331
X107.08650 Y56.42940
X107.45914 Y56.26410
X107.85777 Y56.17880
X108.27575 Y56.17662
X108.69521 Y56.26410
X109.06783 Y56.42940
X109.40727 Y56.67331
X109.68858 Y56.98248
X109.90422 Y57.35271
X110.03074 Y57.74027
X110.07661 Y58.17664
X110.03074 Y58.59211
X109.90422 Y58.97963
X109.69518 Y59.34174
X109.40727 Y59.65906
X109.06783 Y59.90298
X108.69521 Y60.06828
X108.28622 Y60.15522
X107.87855 Y60.15578
X107.45914 Y60.06828
X107.07718 Y59.89823
X106.74705 Y59.65906
X106.46575 Y59.34989
X106.25010 Y58.97966
X106.12358 Y58.59211
X106.07771 Y58.15574

G04 P0 ( dwell for no time -- G64 should not smooth over this point )
G00 Z10.000 ( retract )

M5 ( Spindle off. )
M9 ( Coolant off. )
M2 ( Program end. )

