( pcb2gcode 1.3.2 )
( Software-independent Gcode )

G94 ( Millimeters per minute feed rate. )
G21 ( Units == Millimeters. )

G90 ( Absolute coordinates. )
S10000 ( RPM spindle speed. )
G64 P0.01000 ( set maximum deviation from commanded toolpath )
F600.00000 ( Feedrate. )

F600.00000 ( Feedrate. )
M3 ( Spindle on clockwise. )
G04 P0 ( dwell for no time -- G64 should not smooth over this point )
G00 Z5.00000 ( retract )

G00 X2.62351 Y4.53634 ( rapid move to begin. )
F300.00000
G01 Z-0.05000
G04 P0 ( dwell for no time -- G64 should not smooth over this point )
F600.00000
X2.62351 Y4.53634
X2.66938 Y4.12087
X2.79590 Y3.73331
X3.00497 Y3.37121
X3.29285 Y3.05391
X3.63230 Y2.81000
X4.00494 Y2.64470
X4.40357 Y2.55940
X4.82155 Y2.55722
X5.24101 Y2.64470
X5.61363 Y2.81000
X5.95307 Y3.05391
X6.23438 Y3.36308
X6.45002 Y3.73331
X6.57654 Y4.12087
X6.62241 Y4.55724
X6.57654 Y4.97271
X6.45002 Y5.36023
X6.24098 Y5.72234
X5.95307 Y6.03966
X5.61363 Y6.28358
X5.24101 Y6.44888
X4.83202 Y6.53582
X4.42435 Y6.53638
X4.00494 Y6.44888
X3.62298 Y6.27883
X3.29285 Y6.03966
X3.01155 Y5.73049
X2.79590 Y5.36026
X2.66938 Y4.97271
X2.62351 Y4.53634
G04 P0 ( dwell for no time -- G64 should not smooth over this point )
G00 Z5.00000 ( retract )

G00 X43.69856 Y9.85240 ( rapid move to begin. )
F300.00000
G01 Z-0.05000
G04 P0 ( dwell for no time -- G64 should not smooth over this point )
F600.00000
X43.69856 Y9.85240
X43.69856 Y42.42110
X43.79082 Y42.88495
X44.05360 Y43.27824
X44.09805 Y43.32269
X44.49135 Y43.58548
X44.93277 Y43.67334
X45.37418 Y43.58553
X45.74844 Y43.33547
X45.99851 Y42.96120
X46.08642 Y42.51950
X46.01456 Y42.13672
X46.01456 Y9.85217
X45.92236 Y9.38857
X45.67230 Y9.01430
X45.29803 Y8.76424
X44.85660 Y8.67638
X44.41520 Y8.76419
X44.04093 Y9.01425
X43.79087 Y9.38852
X43.69856 Y9.85240
G04 P0 ( dwell for no time -- G64 should not smooth over this point )
G00 Z5.00000 ( retract )

G00 X56.05124 Y6.49010 ( rapid move to begin. )
F300.00000
G01 Z-0.05000
G04 P0 ( dwell for no time -- G64 should not smooth over this point )
F600.00000
X56.05124 Y6.49010
X51.97635 Y10.56500
X51.97635 Y15.01160
X51.94963 Y15.25039
X51.88127 Y15.45897
X51.75968 Y15.66628
X51.60429 Y15.83563
X51.43515 Y15.95851
X51.22606 Y16.05399
X50.99136 Y16.10555
X50.77183 Y16.10611
X50.53647 Y16.05775
X50.32636 Y15.96420
X50.13294 Y15.82163
X49.98077 Y15.64937
X49.86772 Y15.44922
X49.80041 Y15.24028
X49.77691 Y15.02204
X49.77635 Y10.10940
X49.79990 Y9.88527
X49.86429 Y9.67953
X49.95672 Y9.50663
X50.09858 Y9.33158
X55.46524 Y3.96557
X55.63308 Y3.83029
X55.82409 Y3.73039
X56.03090 Y3.66966
X56.22600 Y3.65046
X56.44068 Y3.66966
X56.66562 Y3.73789
X56.85480 Y3.84121
X57.00631 Y3.96557
X57.14456 Y4.13098
X57.24786 Y4.32016
X57.31225 Y4.52587
X57.33529 Y4.74020
X57.33575 Y5.41040
X57.31337 Y5.62874
X57.24067 Y5.85777
X57.12569 Y6.05693
X56.97921 Y6.22043
X56.79455 Y6.35731
X56.57570 Y6.45655
X56.36110 Y6.50270
X56.13123 Y6.50491
X56.05124 Y6.49010
G04 P0 ( dwell for no time -- G64 should not smooth over this point )
G00 Z5.00000 ( retract )

G00 X56.77286 Y6.70712 ( rapid move to begin. )
F300.00000
G01 Z-0.05000
G04 P0 ( dwell for no time -- G64 should not smooth over this point )
F600.00000
X56.77286 Y6.70712
X57.22823 Y6.40285
X57.53250 Y5.94748
X57.64377 Y5.38820
X57.64377 Y4.77217
X57.53255 Y4.21289
X57.22828 Y3.75752
X56.77291 Y3.45325
X56.25383 Y3.34998
X55.69872 Y3.45320
X55.25841 Y3.74741
X55.08376 Y3.91076
X49.89667 Y9.09784
X49.57968 Y9.57224
X49.46835 Y10.13180
X49.46835 Y14.98912
X49.57963 Y15.54863
X49.88389 Y16.00400
X50.33927 Y16.30827
X50.87637 Y16.41515
X51.41346 Y16.30832
X51.86883 Y16.00405
X52.17310 Y15.54868
X52.28437 Y14.98940
X52.28437 Y10.78661
X52.30586 Y10.69088
X52.33505 Y10.64534
X56.10357 Y6.87407
X56.21253 Y6.81855
X56.77286 Y6.70712
G04 P0 ( dwell for no time -- G64 should not smooth over this point )
G00 Z5.00000 ( retract )

G00 X56.77695 Y16.70995 ( rapid move to begin. )
F300.00000
G01 Z-0.05000
G04 P0 ( dwell for no time -- G64 should not smooth over this point )
F600.00000
X56.77695 Y16.70995
X57.04979 Y16.98279
X57.19165 Y17.15787
X57.28408 Y17.33077
X57.34847 Y17.53651
X57.37197 Y17.76064
X57.37151 Y33.40511
X57.34847 Y33.61941
X57.28406 Y33.82515
X57.18076 Y34.01431
X57.04979 Y34.17313
X56.77164 Y34.45129
X56.75345 Y34.61588
X56.68904 Y34.82162
X56.58574 Y35.01077
X56.46138 Y35.16231
X56.29597 Y35.30054
X56.08868 Y35.41136
X55.88188 Y35.47209
X55.53951 Y35.49124
X55.32127 Y35.46774
X55.10255 Y35.39667
X54.90339 Y35.28169
X54.73992 Y35.13521
X54.59260 Y34.93246
X54.50380 Y34.73168
X54.45544 Y34.49632
X54.45600 Y34.27679
X54.50111 Y34.06198
X54.58752 Y33.86439
X54.60296 Y33.75401
X54.67103 Y33.54529
X54.79194 Y33.33757
X55.17197 Y32.93971
X55.17197 Y18.21624
X54.89918 Y17.94345
X54.75732 Y17.76836
X54.66489 Y17.59547
X54.60050 Y17.38973
X54.57695 Y17.16565
X54.57695 Y15.67200
X54.59938 Y15.45361
X54.67682 Y15.21523
X54.78709 Y15.02539
X54.93354 Y14.86192
X55.13628 Y14.71460
X55.33707 Y14.62580
X55.57243 Y14.57746
X55.79196 Y14.57800
X56.01690 Y14.62580
X56.23575 Y14.72504
X56.42041 Y14.86192
X56.56686 Y15.02539
X56.67712 Y15.21523
X56.75457 Y15.45361
X56.77695 Y15.67200
X56.77695 Y16.70995
G04 P0 ( dwell for no time -- G64 should not smooth over this point )
G00 Z5.00000 ( retract )

G00 X52.67195 Y20.08129 ( rapid move to begin. )
F300.00000
G01 Z-0.05000
G04 P0 ( dwell for no time -- G64 should not smooth over this point )
F600.00000
X52.67195 Y20.08129
X52.58938 Y20.02503
X52.44155 Y19.87720
X52.31452 Y19.68566
X52.22687 Y19.46191
X52.19088 Y19.23476
X52.20182 Y19.01550
X52.26243 Y18.78297
X52.37299 Y18.56963
X52.51158 Y18.39938
X52.89258 Y18.01838
X53.05138 Y17.88739
X53.24058 Y17.78409
X53.46550 Y17.71586
X53.77195 Y17.69620
X53.99608 Y17.71970
X54.20182 Y17.78411
X54.39097 Y17.88741
X54.54251 Y18.01177
X54.68074 Y18.17718
X54.78404 Y18.36633
X54.84845 Y18.57207
X54.87195 Y18.79620
X54.87195 Y32.35980
X54.85229 Y32.56465
X54.78406 Y32.78957
X54.69166 Y32.96247
X54.55638 Y33.13031
X52.92417 Y34.76317
X52.74909 Y34.90503
X52.55811 Y35.00493
X52.35128 Y35.06569
X52.13660 Y35.08489
X51.92227 Y35.06185
X51.71658 Y34.99746
X51.54368 Y34.90506
X51.36197 Y34.75591
X51.22674 Y34.58809
X51.12679 Y34.39708
X51.06606 Y34.19028
X51.04635 Y33.98540
X51.04635 Y33.40120
X51.06990 Y33.17707
X51.13429 Y32.97133
X51.23761 Y32.78215
X51.39398 Y32.59798
X51.56423 Y32.45939
X51.77759 Y32.34883
X52.01010 Y32.28822
X52.28981 Y32.28632
X52.67195 Y31.90420
X52.67195 Y20.08129
G04 P0 ( dwell for no time -- G64 should not smooth over this point )
G00 Z5.00000 ( retract )

G00 X56.66943 Y35.38425 ( rapid move to begin. )
F300.00000
G01 Z-0.05000
G04 P0 ( dwell for no time -- G64 should not smooth over this point )
F600.00000
X56.66943 Y35.38425
X56.97370 Y34.92888
X57.02089 Y34.69172
X57.05457 Y34.61024
X57.25147 Y34.40717
X57.56869 Y33.93242
X57.67997 Y33.37313
X57.67997 Y17.78282
X57.56874 Y17.22356
X57.25177 Y16.74916
X57.13905 Y16.63375
X57.09173 Y16.54213
X57.08505 Y15.69445
X56.97375 Y15.13489
X56.66948 Y14.67952
X56.21411 Y14.37525
X55.65907 Y14.27195
X55.13992 Y14.37520
X54.69951 Y14.66949
X54.38028 Y15.13484
X54.26895 Y15.69440
X54.27916 Y17.21871
X54.26194 Y17.30370
X54.21277 Y17.37736
X54.13911 Y17.42663
X54.07167 Y17.44197
X53.69257 Y17.38818
X53.13332 Y17.49940
X52.65892 Y17.81639
X52.30967 Y18.16564
X51.99268 Y18.64004
X51.88580 Y19.17717
X51.99258 Y19.71408
X52.33085 Y20.21822
X52.36395 Y20.33580
X52.36395 Y31.68256
X52.32290 Y31.81266
X52.18178 Y31.95259
X52.09992 Y31.98650
X51.63487 Y32.07895
X51.16116 Y32.39787
X50.84968 Y32.86404
X50.73835 Y33.42360
X50.73835 Y33.96292
X50.84963 Y34.52243
X51.15389 Y34.97780
X51.60927 Y35.28207
X52.14637 Y35.38895
X52.68346 Y35.28212
X53.15785 Y34.96513
X53.77726 Y34.34572
X53.85094 Y34.29650
X53.93288 Y34.27935
X54.06385 Y34.31745
X54.13156 Y34.38855
X54.15308 Y34.43767
X54.25308 Y34.92860
X54.55749 Y35.38420
X55.01287 Y35.68847
X55.57240 Y35.79980
X55.65452 Y35.79980
X56.21406 Y35.68852
X56.66943 Y35.38425
G04 P0 ( dwell for no time -- G64 should not smooth over this point )
G00 Z5.00000 ( retract )

G00 X45.70653 Y42.17515 ( rapid move to begin. )
F300.00000
G01 Z-0.05000
G04 P0 ( dwell for no time -- G64 should not smooth over this point )
F600.00000
X45.70653 Y42.17515
X45.77230 Y42.38678
X45.78159 Y42.55381
X45.75596 Y42.72955
X45.69013 Y42.90563
X45.59947 Y43.04621
X45.47545 Y43.17332
X45.31865 Y43.27710
X45.16272 Y43.33755
X44.97730 Y43.36859
X44.79981 Y43.35930
X44.63811 Y43.31652
X44.47890 Y43.23786
X44.24896 Y43.03732
X44.14479 Y42.90740
X44.06798 Y42.75960
X44.02150 Y42.59971
X44.00656 Y42.44360
X44.00656 Y9.83000
X44.02787 Y9.64313
X44.08007 Y9.48426
X44.16895 Y9.33036
X44.28043 Y9.20572
X44.44093 Y9.08911
X44.60402 Y9.01890
X44.77816 Y8.98410
X44.94542 Y8.98464
X45.12899 Y9.02535
X45.28157 Y9.09386
X45.43272 Y9.20572
X45.54420 Y9.33036
X45.63308 Y9.48426
X45.68527 Y9.64313
X45.70653 Y9.83000
X45.70653 Y42.17515
G04 P0 ( dwell for no time -- G64 should not smooth over this point )
G00 Z5.00000 ( retract )

G00 X44.05261 Y51.63340 ( rapid move to begin. )
F300.00000
G01 Z-0.05000
G04 P0 ( dwell for no time -- G64 should not smooth over this point )
F600.00000
X44.05261 Y51.63340
X43.68711 Y51.30030
X43.41223 Y51.18638
X43.39765 Y51.19408
X43.39765 Y51.49735
X43.57774 Y51.59230
X43.72485 Y51.71590
X43.84408 Y51.86654
X43.92325 Y52.02339
X44.22724 Y52.02339
X44.05261 Y51.63340
G04 P0 ( dwell for no time -- G64 should not smooth over this point )
G00 Z5.00000 ( retract )

G00 X44.23176 Y52.73992 ( rapid move to begin. )
F300.00000
G01 Z-0.05000
G04 P0 ( dwell for no time -- G64 should not smooth over this point )
F600.00000
X44.23176 Y52.73992
X43.92097 Y52.73139
X43.80065 Y52.95054
X43.66978 Y53.09120
X43.51330 Y53.20263
X43.39765 Y53.25437
X43.39765 Y53.56060
X43.41223 Y53.56834
X43.68706 Y53.45447
X44.05256 Y53.12138
X44.23176 Y52.73992
G04 P0 ( dwell for no time -- G64 should not smooth over this point )
G00 Z5.00000 ( retract )

G00 X40.51378 Y51.42791 ( rapid move to begin. )
F300.00000
G01 Z-0.05000
G04 P0 ( dwell for no time -- G64 should not smooth over this point )
F600.00000
X40.51378 Y51.42791
X40.70469 Y51.44940
X40.88737 Y51.50883
X41.05435 Y51.60386
X41.19880 Y51.73055
X41.31477 Y51.88374
X41.39753 Y52.05709
X41.44066 Y52.22359
X41.45242 Y52.41534
X41.42534 Y52.60556
X41.36057 Y52.78640
X41.26065 Y52.95054
X41.12978 Y53.09120
X40.97330 Y53.20263
X40.79753 Y53.28028
X40.60977 Y53.32095
X40.50873 Y53.32722
X40.32245 Y53.30942
X40.13855 Y53.25389
X39.96959 Y53.16245
X39.82247 Y53.03885
X39.70324 Y52.88821
X39.61683 Y52.71660
X39.56667 Y52.53116
X39.55491 Y52.33941
X39.58199 Y52.14919
X39.64676 Y51.96835
X39.74668 Y51.80421
X39.87754 Y51.66355
X40.03403 Y51.55212
X40.20980 Y51.47447
X40.39755 Y51.43380
X40.51378 Y51.42791
G04 P0 ( dwell for no time -- G64 should not smooth over this point )
G00 Z5.00000 ( retract )

G00 X37.97378 Y51.42791 ( rapid move to begin. )
F300.00000
G01 Z-0.05000
G04 P0 ( dwell for no time -- G64 should not smooth over this point )
F600.00000
X37.97378 Y51.42791
X38.16469 Y51.44940
X38.34737 Y51.50883
X38.51435 Y51.60386
X38.65880 Y51.73055
X38.77477 Y51.88374
X38.85753 Y52.05709
X38.90066 Y52.22359
X38.91242 Y52.41534
X38.88534 Y52.60556
X38.82057 Y52.78640
X38.72065 Y52.95054
X38.58978 Y53.09120
X38.43330 Y53.20263
X38.25753 Y53.28028
X38.06977 Y53.32095
X37.96873 Y53.32722
X37.78245 Y53.30942
X37.59855 Y53.25389
X37.42959 Y53.16245
X37.28247 Y53.03885
X37.16324 Y52.88821
X37.07683 Y52.71660
X37.02667 Y52.53116
X37.01491 Y52.33941
X37.04199 Y52.14919
X37.10676 Y51.96835
X37.20668 Y51.80421
X37.33754 Y51.66355
X37.49403 Y51.55212
X37.66980 Y51.47447
X37.85755 Y51.43380
X37.97378 Y51.42791
G04 P0 ( dwell for no time -- G64 should not smooth over this point )
G00 Z5.00000 ( retract )

G00 X35.43378 Y51.42791 ( rapid move to begin. )
F300.00000
G01 Z-0.05000
G04 P0 ( dwell for no time -- G64 should not smooth over this point )
F600.00000
X35.43378 Y51.42791
X35.62469 Y51.44940
X35.80737 Y51.50883
X35.97435 Y51.60386
X36.11880 Y51.73055
X36.23477 Y51.88374
X36.31753 Y52.05709
X36.36066 Y52.22359
X36.37242 Y52.41534
X36.34534 Y52.60556
X36.28057 Y52.78640
X36.18065 Y52.95054
X36.04978 Y53.09120
X35.89330 Y53.20263
X35.71753 Y53.28028
X35.52977 Y53.32095
X35.42873 Y53.32722
X35.24245 Y53.30942
X35.05855 Y53.25389
X34.88959 Y53.16245
X34.74247 Y53.03885
X34.62324 Y52.88821
X34.53683 Y52.71660
X34.48667 Y52.53116
X34.47491 Y52.33941
X34.50199 Y52.14919
X34.56676 Y51.96835
X34.66668 Y51.80421
X34.79754 Y51.66355
X34.95403 Y51.55212
X35.12980 Y51.47447
X35.31755 Y51.43380
X35.43378 Y51.42791
G04 P0 ( dwell for no time -- G64 should not smooth over this point )
G00 Z5.00000 ( retract )

G00 X32.89378 Y51.42791 ( rapid move to begin. )
F300.00000
G01 Z-0.05000
G04 P0 ( dwell for no time -- G64 should not smooth over this point )
F600.00000
X32.89378 Y51.42791
X33.08469 Y51.44940
X33.26737 Y51.50883
X33.43435 Y51.60386
X33.57880 Y51.73055
X33.69477 Y51.88374
X33.77753 Y52.05709
X33.82066 Y52.22359
X33.83242 Y52.41534
X33.80534 Y52.60556
X33.74057 Y52.78640
X33.64065 Y52.95054
X33.50978 Y53.09120
X33.35330 Y53.20263
X33.17753 Y53.28028
X32.98977 Y53.32095
X32.88873 Y53.32722
X32.70245 Y53.30942
X32.51855 Y53.25389
X32.34959 Y53.16245
X32.20247 Y53.03885
X32.08324 Y52.88821
X31.99683 Y52.71660
X31.94667 Y52.53116
X31.93491 Y52.33941
X31.96199 Y52.14919
X32.02676 Y51.96835
X32.12668 Y51.80421
X32.25754 Y51.66355
X32.41403 Y51.55212
X32.58980 Y51.47447
X32.77755 Y51.43380
X32.89378 Y51.42791
G04 P0 ( dwell for no time -- G64 should not smooth over this point )
G00 Z5.00000 ( retract )

G00 X30.35378 Y51.42791 ( rapid move to begin. )
F300.00000
G01 Z-0.05000
G04 P0 ( dwell for no time -- G64 should not smooth over this point )
F600.00000
X30.35378 Y51.42791
X30.54469 Y51.44940
X30.72737 Y51.50883
X30.89435 Y51.60386
X31.03880 Y51.73055
X31.15477 Y51.88374
X31.23753 Y52.05709
X31.28066 Y52.22359
X31.29242 Y52.41534
X31.26534 Y52.60556
X31.20057 Y52.78640
X31.10065 Y52.95054
X30.96978 Y53.09120
X30.81330 Y53.20263
X30.63753 Y53.28028
X30.44977 Y53.32095
X30.34873 Y53.32722
X30.16245 Y53.30942
X29.97855 Y53.25389
X29.80959 Y53.16245
X29.66247 Y53.03885
X29.54324 Y52.88821
X29.45683 Y52.71660
X29.40667 Y52.53116
X29.39491 Y52.33941
X29.42199 Y52.14919
X29.48676 Y51.96835
X29.58668 Y51.80421
X29.71754 Y51.66355
X29.87403 Y51.55212
X30.04980 Y51.47447
X30.23755 Y51.43380
X30.35378 Y51.42791
G04 P0 ( dwell for no time -- G64 should not smooth over this point )
G00 Z5.00000 ( retract )

G00 X29.45701 Y51.46205 ( rapid move to begin. )
F300.00000
G01 Z-0.05000
G04 P0 ( dwell for no time -- G64 should not smooth over this point )
F600.00000
X29.45701 Y51.46205
X29.23403 Y51.78806
X29.14177 Y51.84279
X29.07367 Y51.85438
X29.00560 Y51.84279
X28.90108 Y51.77325
X28.69034 Y51.46207
X28.28338 Y51.19014
X27.80367 Y51.09469
X27.32400 Y51.19009
X26.91701 Y51.46205
X26.69403 Y51.78806
X26.62059 Y51.83710
X26.53367 Y51.85438
X26.44686 Y51.83710
X26.37340 Y51.78811
X26.15034 Y51.46207
X25.74338 Y51.19014
X25.26367 Y51.09469
X24.78400 Y51.19009
X24.37701 Y51.46205
X24.15403 Y51.78806
X24.08059 Y51.83710
X23.99367 Y51.85438
X23.90686 Y51.83710
X23.83340 Y51.78811
X23.61034 Y51.46207
X23.20338 Y51.19014
X22.72367 Y51.09469
X22.24400 Y51.19009
X21.83701 Y51.46205
X21.61403 Y51.78806
X21.54059 Y51.83710
X21.45367 Y51.85438
X21.36686 Y51.83710
X21.29340 Y51.78811
X21.07034 Y51.46207
X20.66338 Y51.19014
X20.18367 Y51.09469
X19.70400 Y51.19009
X19.29701 Y51.46205
X19.07403 Y51.78806
X19.00059 Y51.83710
X18.91367 Y51.85438
X18.82686 Y51.83710
X18.75340 Y51.78811
X18.53034 Y51.46207
X18.12338 Y51.19014
X17.64367 Y51.09469
X17.16400 Y51.19009
X16.75701 Y51.46205
X16.53403 Y51.78806
X16.46059 Y51.83710
X16.37367 Y51.85438
X16.28686 Y51.83710
X16.21340 Y51.78811
X15.99034 Y51.46207
X15.58338 Y51.19014
X15.10367 Y51.09469
X14.62400 Y51.19009
X14.21701 Y51.46205
X13.99403 Y51.78806
X13.92059 Y51.83710
X13.83367 Y51.85438
X13.74686 Y51.83710
X13.67340 Y51.78811
X13.45034 Y51.46207
X13.04338 Y51.19014
X12.56367 Y51.09469
X12.08400 Y51.19009
X11.67701 Y51.46205
X11.45403 Y51.78806
X11.38059 Y51.83710
X11.29367 Y51.85438
X11.20686 Y51.83710
X11.13340 Y51.78811
X10.91034 Y51.46207
X10.50338 Y51.19014
X10.02367 Y51.09469
X9.54400 Y51.19009
X9.13701 Y51.46205
X8.91403 Y51.78806
X8.84059 Y51.83710
X8.75367 Y51.85438
X8.66686 Y51.83710
X8.59340 Y51.78811
X8.37034 Y51.46207
X7.96338 Y51.19014
X7.48367 Y51.09469
X7.00400 Y51.19009
X6.59531 Y51.46319
X6.52208 Y51.53586
X6.40430 Y51.56911
X6.31743 Y51.55186
X6.24377 Y51.50264
X6.19455 Y51.42900
X6.13956 Y51.29626
X6.02480 Y51.18150
X5.87489 Y51.11938
X5.32340 Y51.11938
X5.29765 Y51.14513
X5.29765 Y51.42740
X5.81317 Y51.42931
X5.86435 Y51.45669
X5.89173 Y51.50787
X5.89363 Y53.22737
X5.87679 Y53.28292
X5.81317 Y53.32544
X5.29765 Y53.32737
X5.29765 Y53.60959
X5.32346 Y53.63540
X5.87471 Y53.63540
X6.02480 Y53.57324
X6.13948 Y53.45856
X6.19455 Y53.32570
X6.24377 Y53.25206
X6.31746 Y53.20286
X6.40430 Y53.18562
X6.52195 Y53.21879
X6.59526 Y53.29148
X7.00395 Y53.56458
X7.48367 Y53.66004
X7.96333 Y53.56463
X8.37031 Y53.29268
X8.59340 Y52.96659
X8.66683 Y52.91759
X8.75370 Y52.90035
X8.84054 Y52.91759
X8.91397 Y52.96659
X9.13696 Y53.29263
X9.54395 Y53.56458
X10.02367 Y53.66004
X10.50333 Y53.56463
X10.91031 Y53.29268
X11.13340 Y52.96659
X11.20683 Y52.91759
X11.29370 Y52.90035
X11.38054 Y52.91759
X11.45397 Y52.96659
X11.67696 Y53.29263
X12.08395 Y53.56458
X12.56367 Y53.66004
X13.04333 Y53.56463
X13.45031 Y53.29268
X13.67340 Y52.96659
X13.74683 Y52.91759
X13.83370 Y52.90035
X13.92054 Y52.91759
X13.99397 Y52.96659
X14.21696 Y53.29263
X14.62395 Y53.56458
X15.10367 Y53.66004
X15.58333 Y53.56463
X15.99031 Y53.29268
X16.21340 Y52.96659
X16.28683 Y52.91759
X16.37370 Y52.90035
X16.46054 Y52.91759
X16.53397 Y52.96659
X16.75696 Y53.29263
X17.16395 Y53.56458
X17.64367 Y53.66004
X18.12333 Y53.56463
X18.53031 Y53.29268
X18.75340 Y52.96659
X18.82683 Y52.91759
X18.91370 Y52.90035
X19.00054 Y52.91759
X19.07397 Y52.96659
X19.29696 Y53.29263
X19.70395 Y53.56458
X20.18367 Y53.66004
X20.66333 Y53.56463
X21.07031 Y53.29268
X21.29340 Y52.96659
X21.36683 Y52.91759
X21.45370 Y52.90035
X21.54054 Y52.91759
X21.61397 Y52.96659
X21.83696 Y53.29263
X22.24395 Y53.56458
X22.72367 Y53.66004
X23.20333 Y53.56463
X23.61031 Y53.29268
X23.83340 Y52.96659
X23.90683 Y52.91759
X23.99370 Y52.90035
X24.08054 Y52.91759
X24.15397 Y52.96659
X24.37696 Y53.29263
X24.78395 Y53.56458
X25.26367 Y53.66004
X25.74333 Y53.56463
X26.15031 Y53.29268
X26.37340 Y52.96659
X26.44683 Y52.91759
X26.53370 Y52.90035
X26.62054 Y52.91759
X26.69397 Y52.96659
X26.91696 Y53.29263
X27.32395 Y53.56458
X27.80367 Y53.66004
X28.28333 Y53.56463
X28.69031 Y53.29268
X28.91340 Y52.96659
X28.98683 Y52.91759
X29.07370 Y52.90035
X29.16054 Y52.91759
X29.23397 Y52.96659
X29.45696 Y53.29263
X29.86395 Y53.56458
X30.34367 Y53.66004
X30.82333 Y53.56463
X31.23031 Y53.29268
X31.45340 Y52.96659
X31.52683 Y52.91759
X31.61370 Y52.90035
X31.70054 Y52.91759
X31.77397 Y52.96659
X31.99696 Y53.29263
X32.40395 Y53.56458
X32.88367 Y53.66004
X33.36333 Y53.56463
X33.77031 Y53.29268
X33.99340 Y52.96659
X34.06683 Y52.91759
X34.15370 Y52.90035
X34.24054 Y52.91759
X34.31397 Y52.96659
X34.53696 Y53.29263
X34.94395 Y53.56458
X35.42367 Y53.66004
X35.90333 Y53.56463
X36.31031 Y53.29268
X36.53340 Y52.96659
X36.60683 Y52.91759
X36.69370 Y52.90035
X36.78054 Y52.91759
X36.85397 Y52.96659
X37.07696 Y53.29263
X37.48395 Y53.56458
X37.96367 Y53.66004
X38.44333 Y53.56463
X38.85003 Y53.29288
X39.09243 Y52.95102
X39.17066 Y52.91038
X39.23860 Y52.90045
X39.32054 Y52.91759
X39.39397 Y52.96659
X39.61696 Y53.29263
X40.02395 Y53.56458
X40.50367 Y53.66004
X40.98333 Y53.56463
X41.39026 Y53.29273
X41.62041 Y52.95575
X41.69189 Y52.90718
X41.77667 Y52.88887
X41.86202 Y52.90362
X41.93568 Y52.94932
X42.03474 Y53.12138
X42.40019 Y53.45442
X42.67510 Y53.56834
X42.68965 Y53.56067
X42.68965 Y53.25740
X42.49298 Y53.15089
X42.34853 Y53.02420
X42.24324 Y52.88821
X42.14980 Y52.69766
X42.10667 Y52.53116
X42.09491 Y52.33941
X42.12704 Y52.12964
X42.18676 Y51.96835
X42.28668 Y51.80421
X42.43288 Y51.65036
X42.57403 Y51.55212
X42.68965 Y51.50038
X42.68965 Y51.19408
X42.67515 Y51.18638
X42.40024 Y51.30025
X42.03479 Y51.63329
X41.93570 Y51.80535
X41.86204 Y51.85107
X41.77662 Y51.86586
X41.69189 Y51.84752
X41.62039 Y51.79895
X41.39031 Y51.46205
X40.98338 Y51.19014
X40.50367 Y51.09469
X40.02400 Y51.19009
X39.61701 Y51.46205
X39.39403 Y51.78806
X39.32059 Y51.83710
X39.23367 Y51.85438
X39.14686 Y51.83710
X39.07340 Y51.78811
X38.85034 Y51.46207
X38.44338 Y51.19014
X37.96367 Y51.09469
X37.48400 Y51.19009
X37.07701 Y51.46205
X36.85403 Y51.78806
X36.78059 Y51.83710
X36.69367 Y51.85438
X36.60686 Y51.83710
X36.53340 Y51.78811
X36.31034 Y51.46207
X35.90338 Y51.19014
X35.42367 Y51.09469
X34.94400 Y51.19009
X34.53701 Y51.46205
X34.31403 Y51.78806
X34.24059 Y51.83710
X34.15367 Y51.85438
X34.06686 Y51.83710
X33.99340 Y51.78811
X33.77034 Y51.46207
X33.36338 Y51.19014
X32.88367 Y51.09469
X32.40400 Y51.19009
X31.99701 Y51.46205
X31.77403 Y51.78806
X31.70059 Y51.83710
X31.63316 Y51.85245
X31.52686 Y51.83710
X31.46834 Y51.80032
X31.23034 Y51.46207
X30.82338 Y51.19014
X30.34367 Y51.09469
X29.86400 Y51.19009
X29.45701 Y51.46205
G04 P0 ( dwell for no time -- G64 should not smooth over this point )
G00 Z5.00000 ( retract )

G00 X27.81378 Y51.42791 ( rapid move to begin. )
F300.00000
G01 Z-0.05000
G04 P0 ( dwell for no time -- G64 should not smooth over this point )
F600.00000
X27.81378 Y51.42791
X28.00469 Y51.44940
X28.18737 Y51.50883
X28.35435 Y51.60386
X28.49880 Y51.73055
X28.61477 Y51.88374
X28.69753 Y52.05709
X28.74066 Y52.22359
X28.75242 Y52.41534
X28.72534 Y52.60556
X28.66057 Y52.78640
X28.56065 Y52.95054
X28.42978 Y53.09120
X28.27330 Y53.20263
X28.09753 Y53.28028
X27.90977 Y53.32095
X27.80873 Y53.32722
X27.62245 Y53.30942
X27.43855 Y53.25389
X27.26959 Y53.16245
X27.12247 Y53.03885
X27.00324 Y52.88821
X26.91683 Y52.71660
X26.86667 Y52.53116
X26.85491 Y52.33941
X26.88199 Y52.14919
X26.94676 Y51.96835
X27.04668 Y51.80421
X27.17754 Y51.66355
X27.33403 Y51.55212
X27.50980 Y51.47447
X27.69755 Y51.43380
X27.81378 Y51.42791
G04 P0 ( dwell for no time -- G64 should not smooth over this point )
G00 Z5.00000 ( retract )

G00 X25.27378 Y51.42791 ( rapid move to begin. )
F300.00000
G01 Z-0.05000
G04 P0 ( dwell for no time -- G64 should not smooth over this point )
F600.00000
X25.27378 Y51.42791
X25.46469 Y51.44940
X25.64737 Y51.50883
X25.81435 Y51.60386
X25.95880 Y51.73055
X26.07477 Y51.88374
X26.15753 Y52.05709
X26.20066 Y52.22359
X26.21242 Y52.41534
X26.18534 Y52.60556
X26.12057 Y52.78640
X26.02065 Y52.95054
X25.88978 Y53.09120
X25.73330 Y53.20263
X25.55753 Y53.28028
X25.36977 Y53.32095
X25.26873 Y53.32722
X25.08245 Y53.30942
X24.89855 Y53.25389
X24.72959 Y53.16245
X24.58247 Y53.03885
X24.46324 Y52.88821
X24.37683 Y52.71660
X24.32667 Y52.53116
X24.31491 Y52.33941
X24.34199 Y52.14919
X24.40676 Y51.96835
X24.50668 Y51.80421
X24.63754 Y51.66355
X24.79403 Y51.55212
X24.96980 Y51.47447
X25.15755 Y51.43380
X25.27378 Y51.42791
G04 P0 ( dwell for no time -- G64 should not smooth over this point )
G00 Z5.00000 ( retract )

G00 X22.73378 Y51.42791 ( rapid move to begin. )
F300.00000
G01 Z-0.05000
G04 P0 ( dwell for no time -- G64 should not smooth over this point )
F600.00000
X22.73378 Y51.42791
X22.92469 Y51.44940
X23.10737 Y51.50883
X23.27435 Y51.60386
X23.41880 Y51.73055
X23.53477 Y51.88374
X23.61753 Y52.05709
X23.66066 Y52.22359
X23.67242 Y52.41534
X23.64534 Y52.60556
X23.58057 Y52.78640
X23.48065 Y52.95054
X23.34978 Y53.09120
X23.19330 Y53.20263
X23.01753 Y53.28028
X22.82977 Y53.32095
X22.72873 Y53.32722
X22.54245 Y53.30942
X22.35855 Y53.25389
X22.18959 Y53.16245
X22.04247 Y53.03885
X21.92324 Y52.88821
X21.83683 Y52.71660
X21.78667 Y52.53116
X21.77491 Y52.33941
X21.80199 Y52.14919
X21.86676 Y51.96835
X21.96668 Y51.80421
X22.09754 Y51.66355
X22.25403 Y51.55212
X22.42980 Y51.47447
X22.61755 Y51.43380
X22.73378 Y51.42791
G04 P0 ( dwell for no time -- G64 should not smooth over this point )
G00 Z5.00000 ( retract )

G00 X20.19378 Y51.42791 ( rapid move to begin. )
F300.00000
G01 Z-0.05000
G04 P0 ( dwell for no time -- G64 should not smooth over this point )
F600.00000
X20.19378 Y51.42791
X20.38469 Y51.44940
X20.56737 Y51.50883
X20.73435 Y51.60386
X20.87880 Y51.73055
X20.99477 Y51.88374
X21.07753 Y52.05709
X21.12066 Y52.22359
X21.13242 Y52.41534
X21.10534 Y52.60556
X21.04057 Y52.78640
X20.94065 Y52.95054
X20.80978 Y53.09120
X20.65330 Y53.20263
X20.47753 Y53.28028
X20.28977 Y53.32095
X20.18873 Y53.32722
X20.00245 Y53.30942
X19.81855 Y53.25389
X19.64959 Y53.16245
X19.50247 Y53.03885
X19.38324 Y52.88821
X19.29683 Y52.71660
X19.24667 Y52.53116
X19.23491 Y52.33941
X19.26199 Y52.14919
X19.32676 Y51.96835
X19.42668 Y51.80421
X19.55754 Y51.66355
X19.71403 Y51.55212
X19.88980 Y51.47447
X20.07755 Y51.43380
X20.19378 Y51.42791
G04 P0 ( dwell for no time -- G64 should not smooth over this point )
G00 Z5.00000 ( retract )

G00 X17.65378 Y51.42791 ( rapid move to begin. )
F300.00000
G01 Z-0.05000
G04 P0 ( dwell for no time -- G64 should not smooth over this point )
F600.00000
X17.65378 Y51.42791
X17.84469 Y51.44940
X18.02737 Y51.50883
X18.19435 Y51.60386
X18.33880 Y51.73055
X18.45477 Y51.88374
X18.53753 Y52.05709
X18.58066 Y52.22359
X18.59242 Y52.41534
X18.56534 Y52.60556
X18.50057 Y52.78640
X18.40065 Y52.95054
X18.26978 Y53.09120
X18.11330 Y53.20263
X17.93753 Y53.28028
X17.74977 Y53.32095
X17.64873 Y53.32722
X17.46245 Y53.30942
X17.27855 Y53.25389
X17.10959 Y53.16245
X16.96247 Y53.03885
X16.84324 Y52.88821
X16.75683 Y52.71660
X16.70667 Y52.53116
X16.69491 Y52.33941
X16.72199 Y52.14919
X16.78676 Y51.96835
X16.88668 Y51.80421
X17.01754 Y51.66355
X17.17403 Y51.55212
X17.34980 Y51.47447
X17.53755 Y51.43380
X17.65378 Y51.42791
G04 P0 ( dwell for no time -- G64 should not smooth over this point )
G00 Z5.00000 ( retract )

G00 X15.11378 Y51.42791 ( rapid move to begin. )
F300.00000
G01 Z-0.05000
G04 P0 ( dwell for no time -- G64 should not smooth over this point )
F600.00000
X15.11378 Y51.42791
X15.30469 Y51.44940
X15.48737 Y51.50883
X15.65435 Y51.60386
X15.79880 Y51.73055
X15.91477 Y51.88374
X15.99753 Y52.05709
X16.04066 Y52.22359
X16.05242 Y52.41534
X16.02534 Y52.60556
X15.96057 Y52.78640
X15.86065 Y52.95054
X15.72978 Y53.09120
X15.57330 Y53.20263
X15.39753 Y53.28028
X15.20977 Y53.32095
X15.10873 Y53.32722
X14.92245 Y53.30942
X14.73855 Y53.25389
X14.56959 Y53.16245
X14.42247 Y53.03885
X14.30324 Y52.88821
X14.21683 Y52.71660
X14.16667 Y52.53116
X14.15491 Y52.33941
X14.18199 Y52.14919
X14.24676 Y51.96835
X14.34668 Y51.80421
X14.47754 Y51.66355
X14.63403 Y51.55212
X14.80980 Y51.47447
X14.99755 Y51.43380
X15.11378 Y51.42791
G04 P0 ( dwell for no time -- G64 should not smooth over this point )
G00 Z5.00000 ( retract )

G00 X12.57378 Y51.42791 ( rapid move to begin. )
F300.00000
G01 Z-0.05000
G04 P0 ( dwell for no time -- G64 should not smooth over this point )
F600.00000
X12.57378 Y51.42791
X12.76469 Y51.44940
X12.94737 Y51.50883
X13.11435 Y51.60386
X13.25880 Y51.73055
X13.37477 Y51.88374
X13.45753 Y52.05709
X13.50066 Y52.22359
X13.51242 Y52.41534
X13.48534 Y52.60556
X13.42057 Y52.78640
X13.32065 Y52.95054
X13.18978 Y53.09120
X13.03330 Y53.20263
X12.85753 Y53.28028
X12.66977 Y53.32095
X12.56873 Y53.32722
X12.38245 Y53.30942
X12.19855 Y53.25389
X12.02959 Y53.16245
X11.88247 Y53.03885
X11.76324 Y52.88821
X11.67683 Y52.71660
X11.62667 Y52.53116
X11.61491 Y52.33941
X11.64199 Y52.14919
X11.70676 Y51.96835
X11.80668 Y51.80421
X11.93754 Y51.66355
X12.09403 Y51.55212
X12.26980 Y51.47447
X12.45755 Y51.43380
X12.57378 Y51.42791
G04 P0 ( dwell for no time -- G64 should not smooth over this point )
G00 Z5.00000 ( retract )

G00 X10.03378 Y51.42791 ( rapid move to begin. )
F300.00000
G01 Z-0.05000
G04 P0 ( dwell for no time -- G64 should not smooth over this point )
F600.00000
X10.03378 Y51.42791
X10.22469 Y51.44940
X10.40737 Y51.50883
X10.57435 Y51.60386
X10.71880 Y51.73055
X10.83477 Y51.88374
X10.91753 Y52.05709
X10.96066 Y52.22359
X10.97242 Y52.41534
X10.94534 Y52.60556
X10.88057 Y52.78640
X10.78065 Y52.95054
X10.64978 Y53.09120
X10.49330 Y53.20263
X10.31753 Y53.28028
X10.12977 Y53.32095
X10.02873 Y53.32722
X9.84245 Y53.30942
X9.65855 Y53.25389
X9.48959 Y53.16245
X9.34247 Y53.03885
X9.22324 Y52.88821
X9.13683 Y52.71660
X9.08667 Y52.53116
X9.07491 Y52.33941
X9.10199 Y52.14919
X9.16676 Y51.96835
X9.26668 Y51.80421
X9.39754 Y51.66355
X9.55403 Y51.55212
X9.72980 Y51.47447
X9.91755 Y51.43380
X10.03378 Y51.42791
G04 P0 ( dwell for no time -- G64 should not smooth over this point )
G00 Z5.00000 ( retract )

G00 X7.49378 Y51.42791 ( rapid move to begin. )
F300.00000
G01 Z-0.05000
G04 P0 ( dwell for no time -- G64 should not smooth over this point )
F600.00000
X7.49378 Y51.42791
X7.68469 Y51.44940
X7.86737 Y51.50883
X8.03435 Y51.60386
X8.17880 Y51.73055
X8.29477 Y51.88374
X8.37753 Y52.05709
X8.42066 Y52.22359
X8.43242 Y52.41534
X8.40534 Y52.60556
X8.34057 Y52.78640
X8.24065 Y52.95054
X8.10978 Y53.09120
X7.95330 Y53.20263
X7.77753 Y53.28028
X7.58977 Y53.32095
X7.48873 Y53.32722
X7.30245 Y53.30942
X7.11855 Y53.25389
X6.94959 Y53.16245
X6.80247 Y53.03885
X6.68324 Y52.88821
X6.59683 Y52.71660
X6.54667 Y52.53116
X6.53491 Y52.33941
X6.56199 Y52.14919
X6.62676 Y51.96835
X6.72668 Y51.80421
X6.85754 Y51.66355
X7.01403 Y51.55212
X7.18980 Y51.47447
X7.37755 Y51.43380
X7.49378 Y51.42791
G04 P0 ( dwell for no time -- G64 should not smooth over this point )
G00 Z5.00000 ( retract )

G00 X3.99366 Y52.73139 ( rapid move to begin. )
F300.00000
G01 Z-0.05000
G04 P0 ( dwell for no time -- G64 should not smooth over this point )
F600.00000
X3.99366 Y52.73139
X3.71139 Y52.73139
X3.68564 Y52.75714
X3.68564 Y53.30842
X3.74777 Y53.45846
X3.86252 Y53.57319
X4.01259 Y53.63540
X4.56389 Y53.63540
X4.58965 Y53.60964
X4.58965 Y53.32737
X4.09366 Y53.32737
X4.03811 Y53.31051
X4.01053 Y53.28292
X3.99366 Y53.22737
X3.99366 Y52.73139
G04 P0 ( dwell for no time -- G64 should not smooth over this point )
G00 Z5.00000 ( retract )

G00 X3.68564 Y51.44627 ( rapid move to begin. )
F300.00000
G01 Z-0.05000
G04 P0 ( dwell for no time -- G64 should not smooth over this point )
F600.00000
X3.68564 Y51.44627
X3.68564 Y51.99758
X3.71144 Y52.02339
X3.99366 Y52.02339
X3.99366 Y51.52740
X4.01053 Y51.47183
X4.05541 Y51.43500
X4.09366 Y51.42740
X4.58965 Y51.42740
X4.58965 Y51.14508
X4.56394 Y51.11938
X4.01249 Y51.11938
X3.86255 Y51.18145
X3.74782 Y51.29619
X3.68564 Y51.44627
G04 P0 ( dwell for no time -- G64 should not smooth over this point )
G00 Z5.00000 ( retract )

G00 X2.75051 Y58.46054 ( rapid move to begin. )
F300.00000
G01 Z-0.05000
G04 P0 ( dwell for no time -- G64 should not smooth over this point )
F600.00000
X2.75051 Y58.46054
X2.79638 Y58.04507
X2.92290 Y57.65751
X3.13197 Y57.29541
X3.41985 Y56.97811
X3.75930 Y56.73420
X4.13194 Y56.56890
X4.53057 Y56.48360
X4.94855 Y56.48142
X5.36801 Y56.56890
X5.74063 Y56.73420
X6.08007 Y56.97811
X6.36138 Y57.28728
X6.57702 Y57.65751
X6.70354 Y58.04507
X6.74941 Y58.48144
X6.70354 Y58.89691
X6.57702 Y59.28443
X6.36798 Y59.64654
X6.08007 Y59.96386
X5.74063 Y60.20778
X5.36801 Y60.37308
X4.95902 Y60.46002
X4.55135 Y60.46058
X4.13194 Y60.37308
X3.74998 Y60.20303
X3.41985 Y59.96386
X3.13855 Y59.65469
X2.92290 Y59.28446
X2.79638 Y58.89691
X2.75051 Y58.46054
G04 P0 ( dwell for no time -- G64 should not smooth over this point )
G00 Z5.00000 ( retract )

G00 X75.78013 Y9.86744 ( rapid move to begin. )
F300.00000
G01 Z-0.05000
G04 P0 ( dwell for no time -- G64 should not smooth over this point )
F600.00000
X75.78013 Y9.86744
X75.78013 Y11.57053
X75.85669 Y11.78138
X75.87960 Y11.97854
X75.86103 Y12.17615
X75.80178 Y12.36561
X75.69873 Y12.54734
X75.57323 Y12.68755
X75.39583 Y12.81646
X75.22375 Y12.89248
X75.02944 Y12.93378
X74.84133 Y12.93434
X74.63660 Y12.89248
X74.44638 Y12.80599
X74.28710 Y12.68755
X74.16820 Y12.55550
X74.06231 Y12.37538
X73.99929 Y12.17615
X73.98019 Y11.98897
X73.99929 Y11.80183
X74.08016 Y11.57059
X74.08016 Y9.86741
X74.00092 Y9.64648
X73.98019 Y9.44897
X74.00363 Y9.24138
X74.06231 Y9.06259
X74.16162 Y8.89061
X74.28710 Y8.75042
X74.45517 Y8.62627
X74.63660 Y8.54550
X74.84133 Y8.50366
X75.02944 Y8.50420
X75.22375 Y8.54550
X75.39583 Y8.62152
X75.55771 Y8.73645
X75.69870 Y8.89061
X75.79802 Y9.06259
X75.85669 Y9.24138
X75.87960 Y9.43854
X75.86103 Y9.63615
X75.78013 Y9.86744
G04 P0 ( dwell for no time -- G64 should not smooth over this point )
G00 Z5.00000 ( retract )

G00 X78.32013 Y9.86744 ( rapid move to begin. )
F300.00000
G01 Z-0.05000
G04 P0 ( dwell for no time -- G64 should not smooth over this point )
F600.00000
X78.32013 Y9.86744
X78.32013 Y11.57053
X78.39669 Y11.78138
X78.41960 Y11.97854
X78.40103 Y12.17615
X78.34178 Y12.36561
X78.23873 Y12.54734
X78.11323 Y12.68755
X77.93583 Y12.81646
X77.76375 Y12.89248
X77.56944 Y12.93378
X77.38133 Y12.93434
X77.17660 Y12.89248
X76.98638 Y12.80599
X76.82710 Y12.68755
X76.70820 Y12.55550
X76.60231 Y12.37538
X76.53929 Y12.17615
X76.52019 Y11.98897
X76.53929 Y11.80183
X76.62016 Y11.57059
X76.62016 Y9.86741
X76.54092 Y9.64648
X76.52019 Y9.44897
X76.54363 Y9.24138
X76.60231 Y9.06259
X76.70162 Y8.89061
X76.82710 Y8.75042
X76.99517 Y8.62627
X77.17660 Y8.54550
X77.38133 Y8.50366
X77.56944 Y8.50420
X77.76375 Y8.54550
X77.93583 Y8.62152
X78.09771 Y8.73645
X78.23870 Y8.89061
X78.33802 Y9.06259
X78.39669 Y9.24138
X78.41960 Y9.43854
X78.40103 Y9.63615
X78.32013 Y9.86744
G04 P0 ( dwell for no time -- G64 should not smooth over this point )
G00 Z5.00000 ( retract )

G00 X80.86013 Y9.86744 ( rapid move to begin. )
F300.00000
G01 Z-0.05000
G04 P0 ( dwell for no time -- G64 should not smooth over this point )
F600.00000
X80.86013 Y9.86744
X80.86013 Y11.57053
X80.93669 Y11.78138
X80.95960 Y11.97854
X80.94103 Y12.17615
X80.88178 Y12.36561
X80.77873 Y12.54734
X80.65323 Y12.68755
X80.47583 Y12.81646
X80.30375 Y12.89248
X80.10944 Y12.93378
X79.92133 Y12.93434
X79.71660 Y12.89248
X79.52638 Y12.80599
X79.36710 Y12.68755
X79.24820 Y12.55550
X79.14231 Y12.37538
X79.07929 Y12.17615
X79.06019 Y11.98897
X79.07929 Y11.80183
X79.16016 Y11.57059
X79.16016 Y9.86741
X79.08092 Y9.64648
X79.06019 Y9.44897
X79.08363 Y9.24138
X79.14231 Y9.06259
X79.24162 Y8.89061
X79.36710 Y8.75042
X79.53517 Y8.62627
X79.71660 Y8.54550
X79.92133 Y8.50366
X80.10944 Y8.50420
X80.30375 Y8.54550
X80.47583 Y8.62152
X80.63771 Y8.73645
X80.77870 Y8.89061
X80.87802 Y9.06259
X80.93669 Y9.24138
X80.95960 Y9.43854
X80.94103 Y9.63615
X80.86013 Y9.86744
G04 P0 ( dwell for no time -- G64 should not smooth over this point )
G00 Z5.00000 ( retract )

G00 X84.14072 Y9.43854 ( rapid move to begin. )
F300.00000
G01 Z-0.05000
G04 P0 ( dwell for no time -- G64 should not smooth over this point )
F600.00000
X84.14072 Y9.43854
X84.16363 Y9.24138
X84.22231 Y9.06259
X84.32162 Y8.89061
X84.44710 Y8.75042
X84.61517 Y8.62627
X84.79660 Y8.54550
X84.98055 Y8.50585
X85.17897 Y8.50366
X85.38375 Y8.54550
X85.55583 Y8.62152
X85.73323 Y8.75042
X85.85870 Y8.89061
X85.95802 Y9.06259
X86.02103 Y9.26183
X86.03960 Y9.45944
X86.01669 Y9.65659
X85.95802 Y9.83536
X85.85873 Y10.00734
X85.73323 Y10.14755
X85.56518 Y10.27168
X85.38375 Y10.35248
X85.18944 Y10.39378
X85.00133 Y10.39434
X84.79660 Y10.35248
X84.62449 Y10.27646
X84.44710 Y10.14755
X84.32160 Y10.00737
X84.22231 Y9.83538
X84.16092 Y9.64648
X84.14072 Y9.43854
G04 P0 ( dwell for no time -- G64 should not smooth over this point )
G00 Z5.00000 ( retract )

G00 X86.04013 Y11.13901 ( rapid move to begin. )
F300.00000
G01 Z-0.05000
G04 P0 ( dwell for no time -- G64 should not smooth over this point )
F600.00000
X86.04013 Y11.13901
X86.04013 Y12.83899
X86.01085 Y12.90967
X85.94013 Y12.93899
X84.24016 Y12.93899
X84.16948 Y12.90967
X84.14016 Y12.83899
X84.14016 Y11.13901
X84.16948 Y11.06830
X84.24016 Y11.03901
X85.94013 Y11.03901
X86.01085 Y11.06830
X86.04013 Y11.13901
G04 P0 ( dwell for no time -- G64 should not smooth over this point )
G00 Z5.00000 ( retract )

G00 X83.94209 Y13.12885 ( rapid move to begin. )
F300.00000
G01 Z-0.05000
G04 P0 ( dwell for no time -- G64 should not smooth over this point )
F600.00000
X83.94209 Y13.12885
X84.07844 Y13.22204
X84.26302 Y13.25943
X85.91887 Y13.25943
X86.08992 Y13.22728
X86.23008 Y13.13705
X86.32327 Y13.00071
X86.36061 Y12.81638
X86.36061 Y11.16002
X86.32850 Y10.98923
X86.23828 Y10.84907
X86.10193 Y10.75588
X86.00336 Y10.72413
X85.95908 Y10.69317
X85.90285 Y10.61288
X85.88578 Y10.52606
X85.90315 Y10.43932
X85.93993 Y10.38095
X86.15606 Y10.16249
X86.34796 Y9.70031
X86.34847 Y9.19995
X86.15700 Y8.73658
X86.04509 Y8.61852
X86.01169 Y8.53732
X86.01174 Y8.44877
X86.04565 Y8.36696
X86.10831 Y8.30440
X86.17130 Y8.27623
X92.65658 Y8.26970
X92.70850 Y8.28543
X92.77766 Y8.33267
X94.13707 Y9.69208
X94.61147 Y10.00907
X95.14857 Y10.11595
X95.68566 Y10.00912
X96.14103 Y9.70485
X96.44530 Y9.24948
X96.55218 Y8.71237
X96.44535 Y8.17529
X96.12835 Y7.70090
X94.30590 Y5.87845
X93.83151 Y5.56145
X93.27220 Y5.45018
X72.84417 Y5.45018
X72.28492 Y5.56140
X71.81050 Y5.87842
X69.54278 Y8.14270
X69.49727 Y8.17189
X69.40153 Y8.19338
X66.51957 Y8.19338
X65.96032 Y8.30460
X65.50495 Y8.60887
X65.20068 Y9.06424
X65.09380 Y9.60137
X65.20063 Y10.13843
X65.50489 Y10.59380
X65.96027 Y10.89807
X66.51980 Y11.00940
X70.05632 Y11.00940
X70.61586 Y10.89812
X71.09025 Y10.58113
X73.33871 Y8.33267
X73.41237 Y8.28344
X73.47971 Y8.26810
X73.83041 Y8.27062
X73.91186 Y8.30445
X73.97450 Y8.36711
X74.00838 Y8.44898
X74.01026 Y8.51809
X73.97480 Y8.61878
X73.86464 Y8.73470
X73.67242 Y9.19762
X73.67191 Y9.69797
X73.75499 Y9.89901
X73.77216 Y9.98573
X73.77216 Y11.45209
X73.75484 Y11.53912
X73.67242 Y11.73769
X73.67191 Y12.23797
X73.86307 Y12.70061
X74.21669 Y13.05483
X74.67884 Y13.24673
X75.17920 Y13.24724
X75.64183 Y13.05608
X76.04323 Y12.63927
X76.11343 Y12.59352
X76.20025 Y12.57643
X76.28707 Y12.59377
X76.35710 Y12.63967
X76.75669 Y13.05483
X77.21884 Y13.24673
X77.71920 Y13.24724
X78.18183 Y13.05608
X78.58323 Y12.63927
X78.65343 Y12.59352
X78.74025 Y12.57643
X78.82707 Y12.59377
X78.89710 Y12.63967
X79.29669 Y13.05483
X79.75884 Y13.24673
X80.25920 Y13.24724
X80.72183 Y13.05608
X81.07766 Y12.70086
X81.13854 Y12.61420
X81.19280 Y12.57764
X81.26948 Y12.55745
X81.44291 Y12.59563
X81.67718 Y12.36139
X81.62092 Y12.18648
X81.60019 Y11.98897
X81.61929 Y11.80183
X81.67718 Y11.61661
X81.44152 Y11.38092
X81.33443 Y11.37849
X81.25099 Y11.33498
X81.20563 Y11.28443
X81.17581 Y11.21720
X81.17581 Y10.22073
X81.20563 Y10.15349
X81.25107 Y10.10285
X81.33433 Y10.05949
X81.44152 Y10.05700
X81.67718 Y9.82139
X81.62092 Y9.64648
X81.60072 Y9.45944
X81.62363 Y9.24138
X81.68706 Y9.05327
X81.78162 Y8.89061
X81.90710 Y8.75042
X82.07517 Y8.62627
X82.26671 Y8.54280
X82.46133 Y8.50366
X82.64944 Y8.50420
X82.83361 Y8.54280
X83.02518 Y8.62627
X83.17771 Y8.73645
X83.31870 Y8.89061
X83.41802 Y9.06259
X83.47669 Y9.24138
X83.49960 Y9.43854
X83.48103 Y9.63615
X83.42315 Y9.82131
X83.65739 Y10.05560
X83.80247 Y10.01793
X83.86772 Y10.02378
X83.94387 Y10.05913
X84.02134 Y10.15888
X84.24857 Y10.39065
X84.28827 Y10.48087
X84.28786 Y10.56980
X84.24740 Y10.65969
X84.16780 Y10.72581
X84.09216 Y10.74956
X83.95030 Y10.84087
X83.85711 Y10.97722
X83.81804 Y11.17013
X83.78083 Y11.25583
X83.42320 Y11.61679
X83.48103 Y11.80183
X83.49960 Y11.97854
X83.48103 Y12.17615
X83.42322 Y12.36114
X83.77331 Y12.71356
X83.81631 Y12.80190
X83.85190 Y12.98874
X83.94209 Y13.12885
G04 P0 ( dwell for no time -- G64 should not smooth over this point )
G00 Z5.00000 ( retract )

G00 X81.94837 Y13.10884 ( rapid move to begin. )
F300.00000
G01 Z-0.05000
G04 P0 ( dwell for no time -- G64 should not smooth over this point )
F600.00000
X81.94837 Y13.10884
X82.35640 Y13.25689
X82.86165 Y13.23429
X83.15007 Y13.11483
X83.15622 Y13.09560
X82.91985 Y12.85918
X82.84375 Y12.89248
X82.63897 Y12.93434
X82.44055 Y12.93213
X82.25660 Y12.89248
X82.18055 Y12.85918
X81.94413 Y13.09558
X81.94837 Y13.10884
G04 P0 ( dwell for no time -- G64 should not smooth over this point )
G00 Z5.00000 ( retract )

G00 X92.83880 Y7.95820 ( rapid move to begin. )
F300.00000
G01 Z-0.05000
G04 P0 ( dwell for no time -- G64 should not smooth over this point )
F600.00000
X92.83880 Y7.95820
X73.27755 Y7.95820
X70.84931 Y10.38578
X70.68152 Y10.52103
X70.50862 Y10.61346
X70.30288 Y10.67785
X70.08858 Y10.70092
X66.49735 Y10.70140
X66.26867 Y10.67734
X66.04995 Y10.60627
X65.85958 Y10.49698
X65.67335 Y10.32929
X65.54475 Y10.15139
X65.45496 Y9.95106
X65.40284 Y9.70592
X65.40340 Y9.48639
X65.45120 Y9.26145
X65.54000 Y9.06071
X65.67332 Y8.87346
X65.85958 Y8.70577
X66.04998 Y8.59647
X66.25856 Y8.52812
X66.49735 Y8.50140
X69.62315 Y8.50140
X72.05144 Y6.07377
X72.21928 Y5.93849
X72.41029 Y5.83859
X72.61710 Y5.77786
X72.82195 Y5.75820
X93.29435 Y5.75820
X93.49925 Y5.77786
X93.72422 Y5.84611
X93.91337 Y5.94941
X94.06491 Y6.07377
X95.93338 Y7.94235
X96.06496 Y8.10481
X96.17125 Y8.30862
X96.23285 Y8.53008
X96.24707 Y8.76993
X96.20786 Y9.00704
X96.12345 Y9.22081
X96.00346 Y9.40460
X95.84083 Y9.56724
X95.63841 Y9.69673
X95.43331 Y9.77488
X95.20616 Y9.81087
X94.98690 Y9.79993
X94.76435 Y9.74255
X94.55853 Y9.64013
X94.37078 Y9.49017
X92.83880 Y7.95820
G04 P0 ( dwell for no time -- G64 should not smooth over this point )
G00 Z5.00000 ( retract )

G00 X99.81971 Y14.78115 ( rapid move to begin. )
F300.00000
G01 Z-0.05000
G04 P0 ( dwell for no time -- G64 should not smooth over this point )
F600.00000
X99.81971 Y14.78115
X99.95933 Y15.11825
X99.99101 Y15.12951
X100.21847 Y14.90208
X100.13886 Y14.67160
X100.11587 Y14.45277
X100.14158 Y14.22387
X100.21849 Y14.00350
X99.99103 Y13.77599
X99.96447 Y13.78541
X99.79830 Y14.23578
X99.81971 Y14.78115
G04 P0 ( dwell for no time -- G64 should not smooth over this point )
G00 Z5.00000 ( retract )

G00 X97.60983 Y18.24870 ( rapid move to begin. )
F300.00000
G01 Z-0.05000
G04 P0 ( dwell for no time -- G64 should not smooth over this point )
F600.00000
X97.60983 Y18.24870
X97.10918 Y18.24817
X96.64623 Y18.43948
X96.29178 Y18.79330
X96.09973 Y19.25591
X96.09919 Y19.75657
X96.29051 Y20.21951
X96.64433 Y20.57397
X97.10694 Y20.76602
X97.25487 Y20.78345
X97.32845 Y20.83270
X97.37763 Y20.90641
X97.39480 Y20.99333
X97.37925 Y21.07549
X97.31507 Y21.16579
X97.07768 Y21.73757
X97.07704 Y22.35441
X97.31273 Y22.92477
X97.74865 Y23.36144
X98.31860 Y23.59807
X98.93541 Y23.59870
X99.50577 Y23.36302
X99.94247 Y22.92710
X100.17910 Y22.35715
X100.17973 Y21.74034
X99.94404 Y21.16998
X99.50813 Y20.73328
X98.93785 Y20.49650
X98.60602 Y20.49190
X98.52459 Y20.45799
X98.46203 Y20.39533
X98.42677 Y20.30372
X98.43554 Y20.20110
X98.61705 Y19.75881
X98.61758 Y19.25815
X98.42627 Y18.79521
X98.07244 Y18.44078
X97.60983 Y18.24870
G04 P0 ( dwell for no time -- G64 should not smooth over this point )
G00 Z5.00000 ( retract )

G00 X97.38591 Y22.03694 ( rapid move to begin. )
F300.00000
G01 Z-0.05000
G04 P0 ( dwell for no time -- G64 should not smooth over this point )
F600.00000
X97.38591 Y22.03694
X97.41525 Y21.77885
X97.49284 Y21.54181
X97.62279 Y21.31677
X97.78926 Y21.13107
X98.00686 Y20.97092
X98.24428 Y20.86523
X98.48812 Y20.81286
X98.74781 Y20.81067
X99.01247 Y20.86523
X99.24051 Y20.96617
X99.46746 Y21.13107
X99.63394 Y21.31677
X99.76388 Y21.54181
X99.84582 Y21.79929
X99.87082 Y22.05784
X99.84148 Y22.31593
X99.76388 Y22.55294
X99.63396 Y22.77798
X99.46746 Y22.96370
X99.24989 Y23.12383
X99.01247 Y23.22954
X98.75827 Y23.28357
X98.50889 Y23.28413
X98.24428 Y23.22954
X98.00689 Y23.12385
X97.80478 Y22.97770
X97.62937 Y22.78613
X97.48908 Y22.54318
X97.41253 Y22.30582
X97.38591 Y22.03694
G04 P0 ( dwell for no time -- G64 should not smooth over this point )
G00 Z5.00000 ( retract )

G00 X103.61826 Y23.79949 ( rapid move to begin. )
F300.00000
G01 Z-0.05000
G04 P0 ( dwell for no time -- G64 should not smooth over this point )
F600.00000
X103.61826 Y23.79949
X103.41859 Y24.32680
X103.43771 Y24.94714
X103.61437 Y25.37361
X103.66898 Y25.39616
X103.88981 Y25.17538
X103.84284 Y25.09296
X103.76253 Y24.84582
X103.73537 Y24.58737
X103.76525 Y24.31885
X103.84284 Y24.08181
X103.88983 Y23.99939
X103.66903 Y23.77856
X103.61826 Y23.79949
G04 P0 ( dwell for no time -- G64 should not smooth over this point )
G00 Z5.00000 ( retract )

G00 X104.61861 Y23.04669 ( rapid move to begin. )
F300.00000
G01 Z-0.05000
G04 P0 ( dwell for no time -- G64 should not smooth over this point )
F600.00000
X104.61861 Y23.04669
X104.19214 Y23.22334
X104.16959 Y23.27795
X104.38805 Y23.49644
X104.59428 Y23.40523
X104.85889 Y23.35067
X105.11861 Y23.35286
X105.36247 Y23.40523
X105.56865 Y23.49644
X105.78719 Y23.27798
X105.76626 Y23.22723
X105.23895 Y23.02756
X104.61861 Y23.04669
G04 P0 ( dwell for no time -- G64 should not smooth over this point )
G00 Z5.00000 ( retract )

G00 X106.51906 Y24.22758 ( rapid move to begin. )
F300.00000
G01 Z-0.05000
G04 P0 ( dwell for no time -- G64 should not smooth over this point )
F600.00000
X106.51906 Y24.22758
X106.34241 Y23.80112
X106.28780 Y23.77856
X106.06692 Y23.99939
X106.11388 Y24.08181
X106.19148 Y24.31885
X106.22082 Y24.57694
X106.19148 Y24.85593
X106.11388 Y25.09294
X106.06694 Y25.17531
X106.28774 Y25.39616
X106.33852 Y25.37523
X106.53819 Y24.84793
X106.51906 Y24.22758
G04 P0 ( dwell for no time -- G64 should not smooth over this point )
G00 Z5.00000 ( retract )

G00 X104.38805 Y25.67830 ( rapid move to begin. )
F300.00000
G01 Z-0.05000
G04 P0 ( dwell for no time -- G64 should not smooth over this point )
F600.00000
X104.38805 Y25.67830
X104.16959 Y25.89672
X104.19052 Y25.94749
X104.71782 Y26.14716
X105.33817 Y26.12804
X105.76463 Y25.95138
X105.78719 Y25.89677
X105.56875 Y25.67830
X105.36247 Y25.76954
X105.09781 Y25.82413
X104.83812 Y25.82192
X104.59428 Y25.76954
X104.38805 Y25.67830
G04 P0 ( dwell for no time -- G64 should not smooth over this point )
G00 Z5.00000 ( retract )

G00 X106.45051 Y20.21951 ( rapid move to begin. )
F300.00000
G01 Z-0.05000
G04 P0 ( dwell for no time -- G64 should not smooth over this point )
F600.00000
X106.45051 Y20.21951
X106.80433 Y20.57397
X107.26694 Y20.76602
X107.76760 Y20.76655
X108.23054 Y20.57524
X108.58497 Y20.22142
X108.77705 Y19.75881
X108.77758 Y19.25815
X108.58627 Y18.79521
X108.23244 Y18.44078
X107.76983 Y18.24870
X107.26918 Y18.24817
X106.80623 Y18.43948
X106.45178 Y18.79330
X106.25973 Y19.25591
X106.25919 Y19.75657
X106.45051 Y20.21951
G04 P0 ( dwell for no time -- G64 should not smooth over this point )
G00 Z5.00000 ( retract )

G00 X104.47584 Y18.14860 ( rapid move to begin. )
F300.00000
G01 Z-0.05000
G04 P0 ( dwell for no time -- G64 should not smooth over this point )
F600.00000
X104.47584 Y18.14860
X103.80075 Y17.47235
X102.91818 Y17.10591
X101.96284 Y17.10499
X101.07963 Y17.46991
X100.40338 Y18.14499
X100.03693 Y19.02757
X100.03602 Y19.98291
X100.40094 Y20.86612
X101.07602 Y21.54237
X101.95859 Y21.90882
X102.91394 Y21.90973
X103.79715 Y21.54481
X104.47340 Y20.86973
X104.83984 Y19.98716
X104.84076 Y19.03181
X104.47584 Y18.14860
G04 P0 ( dwell for no time -- G64 should not smooth over this point )
G00 Z5.00000 ( retract )

G00 X104.63956 Y15.82572 ( rapid move to begin. )
F300.00000
G01 Z-0.05000
G04 P0 ( dwell for no time -- G64 should not smooth over this point )
F600.00000
X104.63956 Y15.82572
X104.81068 Y15.79354
X104.95082 Y15.70337
X105.04393 Y15.56707
X105.08130 Y15.38267
X105.08130 Y13.52133
X105.04916 Y13.35047
X104.95899 Y13.21033
X104.82270 Y13.11722
X104.63827 Y13.07985
X102.77693 Y13.07985
X102.60609 Y13.11198
X102.46596 Y13.20215
X102.30927 Y13.45323
X102.22334 Y13.52915
X102.11224 Y13.56123
X102.00454 Y13.53688
X101.93345 Y13.48054
X101.83634 Y13.24907
X101.38537 Y13.08267
X100.84000 Y13.10409
X100.50289 Y13.24371
X100.49164 Y13.27538
X100.72156 Y13.50535
X100.84313 Y13.45181
X101.04803 Y13.40772
X101.26789 Y13.40553
X101.49362 Y13.45181
X101.70335 Y13.54701
X101.87261 Y13.67063
X102.01325 Y13.82603
X102.12509 Y14.01539
X102.19514 Y14.22387
X102.22032 Y14.46324
X102.19514 Y14.68170
X102.12984 Y14.88084
X102.02555 Y15.06263
X101.88001 Y15.22753
X101.70340 Y15.35856
X101.49362 Y15.45376
X101.26789 Y15.50007
X101.04803 Y15.49786
X100.84313 Y15.45376
X100.72156 Y15.40019
X100.49162 Y15.63012
X100.50104 Y15.65668
X100.95141 Y15.82285
X101.49677 Y15.80144
X101.83446 Y15.66156
X101.93342 Y15.42498
X102.02296 Y15.36034
X102.11224 Y15.34429
X102.22334 Y15.37637
X102.30543 Y15.44845
X102.45778 Y15.69519
X102.59408 Y15.78831
X102.77873 Y15.82572
X104.63956 Y15.82572
G04 P0 ( dwell for no time -- G64 should not smooth over this point )
G00 Z5.00000 ( retract )

G00 X104.76085 Y13.50030 ( rapid move to begin. )
F300.00000
G01 Z-0.05000
G04 P0 ( dwell for no time -- G64 should not smooth over this point )
F600.00000
X104.76085 Y13.50030
X104.76085 Y15.40530
X104.73156 Y15.47599
X104.66085 Y15.50530
X102.75585 Y15.50530
X102.68516 Y15.47599
X102.65585 Y15.40530
X102.65585 Y13.50030
X102.68516 Y13.42959
X102.75585 Y13.40030
X104.66085 Y13.40030
X104.73156 Y13.42959
X104.76085 Y13.50030
G04 P0 ( dwell for no time -- G64 should not smooth over this point )
G00 Z5.00000 ( retract )

G00 X105.54431 Y5.47614 ( rapid move to begin. )
F300.00000
G01 Z-0.05000
G04 P0 ( dwell for no time -- G64 should not smooth over this point )
F600.00000
X105.54431 Y5.47614
X105.59018 Y5.06067
X105.71670 Y4.67311
X105.92577 Y4.31101
X106.21365 Y3.99371
X106.55310 Y3.74980
X106.92574 Y3.58450
X107.32437 Y3.49920
X107.74235 Y3.49702
X108.16181 Y3.58450
X108.53443 Y3.74980
X108.87387 Y3.99371
X109.15518 Y4.30288
X109.37082 Y4.67311
X109.49734 Y5.06067
X109.54321 Y5.49704
X109.49734 Y5.91251
X109.37082 Y6.30003
X109.16178 Y6.66214
X108.87387 Y6.97946
X108.53443 Y7.22338
X108.16181 Y7.38868
X107.75282 Y7.47562
X107.34515 Y7.47618
X106.92574 Y7.38868
X106.54378 Y7.21863
X106.21365 Y6.97946
X105.93235 Y6.67029
X105.71670 Y6.30006
X105.59018 Y5.91251
X105.54431 Y5.47614
G04 P0 ( dwell for no time -- G64 should not smooth over this point )
G00 Z5.00000 ( retract )

G00 X105.23621 Y5.02551 ( rapid move to begin. )
F300.00000
G01 Z-0.05000
G04 P0 ( dwell for no time -- G64 should not smooth over this point )
F600.00000
X105.23621 Y5.02551
X105.23532 Y5.94352
X105.58599 Y6.79221
X106.23468 Y7.44202
X107.08274 Y7.79414
X108.00072 Y7.79503
X108.84944 Y7.44436
X109.49924 Y6.79567
X109.85136 Y5.94761
X109.85225 Y5.02963
X109.50158 Y4.18091
X108.85289 Y3.53110
X108.00484 Y3.17898
X107.08683 Y3.17810
X106.23814 Y3.52877
X105.58833 Y4.17746
X105.23621 Y5.02551
G04 P0 ( dwell for no time -- G64 should not smooth over this point )
G00 Z5.00000 ( retract )

G00 X104.35506 Y33.36904 ( rapid move to begin. )
F300.00000
G01 Z-0.05000
G04 P0 ( dwell for no time -- G64 should not smooth over this point )
F600.00000
X104.35506 Y33.36904
X104.54218 Y33.28632
X104.77723 Y33.23580
X105.02793 Y33.23364
X105.28378 Y33.28632
X105.47091 Y33.36907
X105.69191 Y33.14809
X105.67375 Y33.10267
X105.16364 Y32.91055
X104.56027 Y32.93023
X104.15389 Y33.09856
X104.13408 Y33.14804
X104.35506 Y33.36904
G04 P0 ( dwell for no time -- G64 should not smooth over this point )
G00 Z5.00000 ( retract )

G00 X103.39598 Y34.17689 ( rapid move to begin. )
F300.00000
G01 Z-0.05000
G04 P0 ( dwell for no time -- G64 should not smooth over this point )
F600.00000
X103.39598 Y34.17689
X103.41566 Y34.78027
X103.58399 Y35.18667
X103.63347 Y35.20648
X103.85572 Y34.98425
X103.81300 Y34.90587
X103.73921 Y34.67707
X103.71300 Y34.42756
X103.74193 Y34.16798
X103.81300 Y33.94928
X103.85575 Y33.87090
X103.63350 Y33.64862
X103.58811 Y33.66678
X103.39598 Y34.17689
G04 P0 ( dwell for no time -- G64 should not smooth over this point )
G00 Z5.00000 ( retract )

G00 X104.35506 Y35.48608 ( rapid move to begin. )
F300.00000
G01 Z-0.05000
G04 P0 ( dwell for no time -- G64 should not smooth over this point )
F600.00000
X104.35506 Y35.48608
X104.13405 Y35.70706
X104.15221 Y35.75245
X104.66232 Y35.94455
X105.26570 Y35.92489
X105.67207 Y35.75657
X105.69191 Y35.70709
X105.47093 Y35.48608
X105.28381 Y35.56884
X105.02793 Y35.62154
X104.77723 Y35.61936
X104.54218 Y35.56884
X104.35506 Y35.48608
G04 P0 ( dwell for no time -- G64 should not smooth over this point )
G00 Z5.00000 ( retract )

G00 X106.19249 Y35.20648 ( rapid move to begin. )
F300.00000
G01 Z-0.05000
G04 P0 ( dwell for no time -- G64 should not smooth over this point )
F600.00000
X106.19249 Y35.20648
X106.23786 Y35.18834
X106.42998 Y34.67824
X106.41032 Y34.07488
X106.24197 Y33.66846
X106.19252 Y33.64865
X105.97024 Y33.87090
X106.01297 Y33.94928
X106.08404 Y34.16798
X106.11243 Y34.41712
X106.08404 Y34.68718
X106.01297 Y34.90587
X105.97027 Y34.98418
X106.19249 Y35.20648
G04 P0 ( dwell for no time -- G64 should not smooth over this point )
G00 Z5.00000 ( retract )

G00 X108.42310 Y39.42811 ( rapid move to begin. )
F300.00000
G01 Z-0.05000
G04 P0 ( dwell for no time -- G64 should not smooth over this point )
F600.00000
X108.42310 Y39.42811
X108.82536 Y39.47109
X109.21078 Y39.59415
X109.56351 Y39.79227
X109.86914 Y40.05735
X110.11517 Y40.37853
X110.29150 Y40.74266
X110.38786 Y41.11482
X110.41037 Y41.51874
X110.35116 Y41.91894
X110.21255 Y42.29905
X110.00031 Y42.64347
X109.72304 Y42.93811
X109.39218 Y43.17090
X109.02119 Y43.33232
X108.62531 Y43.41578
X108.41804 Y43.42744
X108.02041 Y43.38815
X107.63377 Y43.26900
X107.27906 Y43.07446
X106.97075 Y42.81248
X106.72147 Y42.49384
X106.54149 Y42.13148
X106.43809 Y41.74035
X106.41558 Y41.33644
X106.47479 Y40.93624
X106.61340 Y40.55613
X106.82564 Y40.21170
X107.10291 Y39.91706
X107.43377 Y39.68427
X107.80476 Y39.52285
X108.20064 Y39.43939
X108.42310 Y39.42811
G04 P0 ( dwell for no time -- G64 should not smooth over this point )
G00 Z5.00000 ( retract )

G00 X106.23509 Y42.30906 ( rapid move to begin. )
F300.00000
G01 Z-0.05000
G04 P0 ( dwell for no time -- G64 should not smooth over this point )
F600.00000
X106.23509 Y42.30906
X106.73445 Y43.05640
X107.48180 Y43.55576
X108.38576 Y43.73560
X108.44019 Y43.73560
X109.34413 Y43.55582
X110.09147 Y43.05645
X110.59083 Y42.30911
X110.72596 Y41.62994
X110.75985 Y41.54810
X110.81852 Y41.48828
X110.87092 Y41.46123
X110.99292 Y41.45160
X111.11250 Y41.51729
X111.16886 Y41.62049
X111.17557 Y60.88517
X111.15832 Y60.97201
X111.12154 Y61.03053
X111.05276 Y61.08565
X111.00234 Y61.10544
X5.52066 Y61.10973
X5.46788 Y61.09822
X5.38490 Y61.04565
X5.33237 Y60.96266
X5.32285 Y60.84074
X5.36270 Y60.75098
X5.45876 Y60.67536
X6.05564 Y60.42876
X6.70544 Y59.78007
X7.05756 Y58.93201
X7.05845 Y58.01403
X6.70778 Y57.16531
X6.05909 Y56.51550
X5.21104 Y56.16338
X4.29303 Y56.16250
X3.44434 Y56.51317
X2.79448 Y57.16191
X2.54541 Y57.76170
X2.45768 Y57.86610
X2.36044 Y57.89922
X2.24437 Y57.88235
X2.17878 Y57.83851
X2.14198 Y57.79231
X2.10878 Y57.67466
X2.11124 Y5.62478
X2.12273 Y5.57199
X2.17533 Y5.48899
X2.24452 Y5.44179
X2.36070 Y5.42503
X2.44005 Y5.44913
X2.49641 Y5.48914
X2.53636 Y5.54558
X2.66519 Y5.85241
X3.31388 Y6.50222
X4.16194 Y6.85434
X5.07992 Y6.85523
X5.92864 Y6.50456
X6.57844 Y5.85587
X6.93056 Y5.00781
X6.93145 Y4.08983
X6.58078 Y3.24111
X5.93156 Y2.59075
X5.78180 Y2.52399
X5.71060 Y2.44444
X5.68215 Y2.32590
X5.71998 Y2.20957
X5.79102 Y2.14195
X5.90867 Y2.10878
X111.01161 Y2.11881
X111.07468 Y2.14701
X111.13450 Y2.20563
X111.17557 Y2.33578
X111.17366 Y41.20040
X111.13150 Y41.31487
X111.03546 Y41.39062
X110.94857 Y41.40789
X110.88050 Y41.39631
X110.81844 Y41.36682
X110.77227 Y41.32211
X110.72596 Y41.22519
X110.59089 Y40.54607
X110.09152 Y39.79872
X109.34418 Y39.29936
X108.44047 Y39.11958
X108.38553 Y39.11958
X107.48185 Y39.29931
X106.73451 Y39.79867
X106.23514 Y40.54602
X106.05975 Y41.42757
X106.23509 Y42.30906
G04 P0 ( dwell for no time -- G64 should not smooth over this point )
G00 Z5.00000 ( retract )

G00 X103.04683 Y47.76668 ( rapid move to begin. )
F300.00000
G01 Z-0.05000
G04 P0 ( dwell for no time -- G64 should not smooth over this point )
F600.00000
X103.04683 Y47.76668
X102.61808 Y47.60976
X102.09329 Y47.63180
X101.78102 Y47.76114
X101.77249 Y47.78641
X102.00571 Y48.01969
X102.10396 Y47.97653
X102.29812 Y47.93472
X102.50701 Y47.93254
X102.72199 Y47.97653
X102.82021 Y48.01971
X103.05349 Y47.78646
X103.04683 Y47.76668
G04 P0 ( dwell for no time -- G64 should not smooth over this point )
G00 Z5.00000 ( retract )

G00 X103.91353 Y48.91712 ( rapid move to begin. )
F300.00000
G01 Z-0.05000
G04 P0 ( dwell for no time -- G64 should not smooth over this point )
F600.00000
X103.91353 Y48.91712
X103.93756 Y48.70958
X103.99946 Y48.52085
X104.10400 Y48.33980
X104.25199 Y48.17785
X104.42232 Y48.05682
X104.60398 Y47.97653
X104.79814 Y47.93472
X105.00703 Y47.93254
X105.23176 Y47.98029
X105.42176 Y48.06726
X105.58950 Y48.19185
X105.72196 Y48.33980
X105.82651 Y48.52085
X105.89275 Y48.73002
X105.91243 Y48.93802
X105.88841 Y49.14557
X105.82651 Y49.33426
X105.72198 Y49.51532
X105.57398 Y49.67729
X105.40365 Y49.79832
X105.22201 Y49.87861
X105.01749 Y49.92207
X104.81891 Y49.92263
X104.59420 Y49.87485
X104.41300 Y49.79357
X104.23647 Y49.66330
X104.10398 Y49.51534
X103.99946 Y49.33429
X103.93484 Y49.13546
X103.91353 Y48.91712
G04 P0 ( dwell for no time -- G64 should not smooth over this point )
G00 Z5.00000 ( retract )

G00 X104.65173 Y50.23533 ( rapid move to begin. )
F300.00000
G01 Z-0.05000
G04 P0 ( dwell for no time -- G64 should not smooth over this point )
F600.00000
X104.65173 Y50.23533
X105.17192 Y50.23586
X105.65292 Y50.03711
X106.02117 Y49.66947
X106.22074 Y49.18882
X106.22127 Y48.66863
X106.02252 Y48.18763
X105.65490 Y47.81936
X105.17423 Y47.61982
X104.65407 Y47.61928
X104.17322 Y47.81799
X103.73903 Y48.25179
X103.65313 Y48.28829
X103.55570 Y48.28547
X103.32415 Y48.51697
X103.38839 Y48.70958
X103.41241 Y48.91712
X103.39273 Y49.12512
X103.32440 Y49.33835
X103.55570 Y49.56967
X103.63840 Y49.56538
X103.74233 Y49.60630
X104.17111 Y50.03579
X104.65173 Y50.23533
G04 P0 ( dwell for no time -- G64 should not smooth over this point )
G00 Z5.00000 ( retract )

G00 X101.77249 Y50.06863 ( rapid move to begin. )
F300.00000
G01 Z-0.05000
G04 P0 ( dwell for no time -- G64 should not smooth over this point )
F600.00000
X101.77249 Y50.06863
X101.77914 Y50.08844
X102.20792 Y50.24536
X102.73266 Y50.22334
X103.04495 Y50.09398
X103.05349 Y50.06871
X102.82026 Y49.83543
X102.72199 Y49.87861
X102.50701 Y49.92263
X102.29812 Y49.92042
X102.10396 Y49.87861
X102.00571 Y49.83543
X101.77249 Y50.06863
G04 P0 ( dwell for no time -- G64 should not smooth over this point )
G00 Z5.00000 ( retract )

G00 X99.17107 Y50.03576 ( rapid move to begin. )
F300.00000
G01 Z-0.05000
G04 P0 ( dwell for no time -- G64 should not smooth over this point )
F600.00000
X99.17107 Y50.03576
X99.65174 Y50.23533
X100.17191 Y50.23586
X100.65275 Y50.03716
X101.08702 Y49.60328
X101.17287 Y49.56683
X101.27028 Y49.56965
X101.50155 Y49.33843
X101.43482 Y49.13546
X101.41298 Y48.92756
X101.43754 Y48.70958
X101.50155 Y48.51674
X101.27030 Y48.28547
X101.18765 Y48.28977
X101.08361 Y48.24880
X100.65486 Y47.81933
X100.17424 Y47.61982
X99.65405 Y47.61928
X99.17305 Y47.81804
X98.80480 Y48.18565
X98.60524 Y48.66630
X98.60470 Y49.18649
X98.80346 Y49.66749
X99.17107 Y50.03576
G04 P0 ( dwell for no time -- G64 should not smooth over this point )
G00 Z5.00000 ( retract )

G00 X98.91351 Y48.91712 ( rapid move to begin. )
F300.00000
G01 Z-0.05000
G04 P0 ( dwell for no time -- G64 should not smooth over this point )
F600.00000
X98.91351 Y48.91712
X98.93754 Y48.70958
X98.99944 Y48.52085
X99.10399 Y48.33980
X99.25197 Y48.17785
X99.42230 Y48.05682
X99.60396 Y47.97653
X99.79812 Y47.93472
X100.00701 Y47.93254
X100.23175 Y47.98029
X100.42174 Y48.06726
X100.58948 Y48.19185
X100.72194 Y48.33980
X100.82649 Y48.52085
X100.89273 Y48.73002
X100.91242 Y48.93802
X100.88839 Y49.14557
X100.82649 Y49.33426
X100.72197 Y49.51532
X100.57396 Y49.67729
X100.40363 Y49.79832
X100.22200 Y49.87861
X100.01748 Y49.92207
X99.81890 Y49.92263
X99.59418 Y49.87485
X99.41298 Y49.79357
X99.23645 Y49.66330
X99.10396 Y49.51534
X98.99944 Y49.33429
X98.93483 Y49.13546
X98.91351 Y48.91712
G04 P0 ( dwell for no time -- G64 should not smooth over this point )
G00 Z5.00000 ( retract )

G00 X98.01885 Y39.86946 ( rapid move to begin. )
F300.00000
G01 Z-0.05000
G04 P0 ( dwell for no time -- G64 should not smooth over this point )
F600.00000
X98.01885 Y39.86946
X97.30397 Y39.39176
X96.43851 Y39.21958
X95.52208 Y39.39171
X94.80715 Y39.86941
X94.32948 Y40.58429
X94.16171 Y41.42757
X94.32942 Y42.27078
X94.80710 Y42.98566
X95.52203 Y43.46336
X96.38771 Y43.63560
X97.30392 Y43.46341
X98.01880 Y42.98571
X98.49650 Y42.27083
X98.66426 Y41.42757
X98.49655 Y40.58435
X98.01885 Y39.86946
G04 P0 ( dwell for no time -- G64 should not smooth over this point )
G00 Z5.00000 ( retract )

G00 X96.42310 Y39.52811 ( rapid move to begin. )
F300.00000
G01 Z-0.05000
G04 P0 ( dwell for no time -- G64 should not smooth over this point )
F600.00000
X96.42310 Y39.52811
X96.80524 Y39.56903
X97.17133 Y39.68605
X97.50638 Y39.87434
X97.78273 Y40.11158
X98.01961 Y40.41427
X98.19068 Y40.75841
X98.28901 Y41.12996
X98.31052 Y41.51368
X98.25433 Y41.89389
X98.12276 Y42.25500
X97.92124 Y42.58226
X97.65792 Y42.86224
X97.34362 Y43.08348
X96.99124 Y43.23692
X96.61520 Y43.31629
X96.41804 Y43.32744
X96.04052 Y43.29021
X95.67321 Y43.17710
X95.33618 Y42.99239
X95.04322 Y42.74360
X94.80633 Y42.44091
X94.63527 Y42.09676
X94.53694 Y41.72521
X94.51543 Y41.34149
X94.57161 Y40.96128
X94.70319 Y40.60017
X94.90471 Y40.27292
X95.16803 Y39.99293
X95.48233 Y39.77170
X95.83470 Y39.61826
X96.21075 Y39.53888
X96.42310 Y39.52811
G04 P0 ( dwell for no time -- G64 should not smooth over this point )
G00 Z5.00000 ( retract )

G00 X98.63381 Y35.28062 ( rapid move to begin. )
F300.00000
G01 Z-0.05000
G04 P0 ( dwell for no time -- G64 should not smooth over this point )
F600.00000
X98.63381 Y35.28062
X99.05763 Y35.70521
X99.61179 Y35.93528
X100.21153 Y35.93589
X100.76606 Y35.70676
X101.19068 Y35.28288
X101.42072 Y34.72886
X101.42131 Y34.12904
X101.19217 Y33.57450
X100.76835 Y33.14992
X100.21420 Y32.91984
X99.61445 Y32.91923
X99.05992 Y33.14837
X98.63533 Y33.57222
X98.40526 Y34.12634
X98.40465 Y34.72606
X98.63381 Y35.28062
G04 P0 ( dwell for no time -- G64 should not smooth over this point )
G00 Z5.00000 ( retract )

G00 X98.71352 Y34.41712 ( rapid move to begin. )
F300.00000
G01 Z-0.05000
G04 P0 ( dwell for no time -- G64 should not smooth over this point )
F600.00000
X98.71352 Y34.41712
X98.74191 Y34.16798
X98.81674 Y33.93950
X98.94217 Y33.72223
X99.11003 Y33.53579
X99.30422 Y33.39406
X99.54216 Y33.28632
X99.77722 Y33.23580
X100.02791 Y33.23364
X100.29355 Y33.29007
X100.52172 Y33.39406
X100.72332 Y33.54321
X100.88377 Y33.72223
X101.00919 Y33.93950
X101.08836 Y34.18842
X101.11242 Y34.43803
X101.08402 Y34.68718
X101.00919 Y34.91562
X100.88379 Y35.13290
X100.71592 Y35.31933
X100.52172 Y35.46109
X100.28379 Y35.56884
X100.03838 Y35.62098
X99.79799 Y35.62154
X99.53239 Y35.56508
X99.30422 Y35.46109
X99.10262 Y35.31194
X98.94214 Y35.13292
X98.81674 Y34.91565
X98.73919 Y34.67707
X98.71352 Y34.41712
G04 P0 ( dwell for no time -- G64 should not smooth over this point )
G00 Z5.00000 ( retract )

G00 X106.12173 Y56.85706 ( rapid move to begin. )
F300.00000
G01 Z-0.05000
G04 P0 ( dwell for no time -- G64 should not smooth over this point )
F600.00000
X106.12173 Y56.85706
X105.76961 Y57.70511
X105.76872 Y58.62312
X106.11939 Y59.47181
X106.76808 Y60.12162
X107.61614 Y60.47374
X108.53412 Y60.47463
X109.38284 Y60.12396
X110.03264 Y59.47527
X110.38476 Y58.62721
X110.38565 Y57.70923
X110.03498 Y56.86051
X109.38629 Y56.21070
X108.53824 Y55.85858
X107.62023 Y55.85770
X106.77154 Y56.20837
X106.12173 Y56.85706
G04 P0 ( dwell for no time -- G64 should not smooth over this point )
G00 Z5.00000 ( retract )

G00 X106.07771 Y58.15574 ( rapid move to begin. )
F300.00000
G01 Z-0.05000
G04 P0 ( dwell for no time -- G64 should not smooth over this point )
F600.00000
X106.07771 Y58.15574
X106.12358 Y57.74027
X106.25010 Y57.35271
X106.45917 Y56.99061
X106.74705 Y56.67331
X107.08650 Y56.42940
X107.45914 Y56.26410
X107.85777 Y56.17880
X108.27575 Y56.17662
X108.69521 Y56.26410
X109.06783 Y56.42940
X109.40727 Y56.67331
X109.68858 Y56.98248
X109.90422 Y57.35271
X110.03074 Y57.74027
X110.07661 Y58.17664
X110.03074 Y58.59211
X109.90422 Y58.97963
X109.69518 Y59.34174
X109.40727 Y59.65906
X109.06783 Y59.90298
X108.69521 Y60.06828
X108.28622 Y60.15522
X107.87855 Y60.15578
X107.45914 Y60.06828
X107.07718 Y59.89823
X106.74705 Y59.65906
X106.46575 Y59.34989
X106.25010 Y58.97966
X106.12358 Y58.59211
X106.07771 Y58.15574

G04 P0 ( dwell for no time -- G64 should not smooth over this point )
G00 Z10.000 ( retract )

M5 ( Spindle off. )
M9 ( Coolant off. )
M2 ( Program end. )

