( pcb2gcode 1.3.2 )
( Software-independent Gcode )

G94 ( Millimeters per minute feed rate. )
G21 ( Units == Millimeters. )

G90 ( Absolute coordinates. )
S10000 ( RPM spindle speed. )
G64 P0.01000 ( set maximum deviation from commanded toolpath )
F600.00000 ( Feedrate. )

F600.00000 ( Feedrate. )
M3 ( Spindle on clockwise. )
G04 P0 ( dwell for no time -- G64 should not smooth over this point )
G00 Z5.00000 ( retract )

G00 X7.74004 Y5.47614 ( rapid move to begin. )
F300.00000
G01 Z-0.05000
G04 P0 ( dwell for no time -- G64 should not smooth over this point )
F600.00000
X7.74004 Y5.47614
X7.69416 Y5.06067
X7.56765 Y4.67311
X7.35858 Y4.31101
X7.07070 Y3.99371
X6.73125 Y3.74980
X6.35861 Y3.58450
X5.95998 Y3.49920
X5.54200 Y3.49702
X5.12254 Y3.58450
X4.74992 Y3.74980
X4.41048 Y3.99371
X4.12917 Y4.30288
X3.91353 Y4.67311
X3.78701 Y5.06067
X3.74114 Y5.49704
X3.78701 Y5.91251
X3.91353 Y6.30003
X4.12257 Y6.66214
X4.41048 Y6.97946
X4.74992 Y7.22338
X5.12254 Y7.38868
X5.53153 Y7.47562
X5.93920 Y7.47618
X6.35861 Y7.38868
X6.74057 Y7.21863
X7.07070 Y6.97946
X7.35200 Y6.67029
X7.56765 Y6.30006
X7.69416 Y5.91251
X7.74004 Y5.47614
G04 P0 ( dwell for no time -- G64 should not smooth over this point )
G00 Z5.00000 ( retract )

G00 X11.13945 Y9.82335 ( rapid move to begin. )
F300.00000
G01 Z-0.05000
G04 P0 ( dwell for no time -- G64 should not smooth over this point )
F600.00000
X11.13945 Y9.82335
X11.43543 Y9.62561
X11.78425 Y9.55619
X14.49049 Y9.54374
X14.66133 Y9.57585
X14.80149 Y9.66604
X14.88676 Y9.76007
X14.98892 Y9.79474
X15.05821 Y9.79185
X15.13568 Y9.75929
X15.21190 Y9.67526
X15.34975 Y9.58111
X15.53454 Y9.54369
X16.04449 Y9.53366
X16.14861 Y9.46990
X16.20306 Y9.36571
X16.19844 Y9.24745
X16.30560 Y8.70869
X16.62259 Y8.23430
X17.12424 Y7.73265
X17.59864 Y7.41565
X18.13577 Y7.30877
X18.67283 Y7.41560
X19.12820 Y7.71987
X19.43247 Y8.17524
X19.53935 Y8.71237
X19.43252 Y9.24943
X19.11553 Y9.72383
X18.61388 Y10.22548
X18.13948 Y10.54247
X17.60090 Y10.64963
X17.51703 Y10.63711
X17.41431 Y10.66360
X17.35739 Y10.70417
X17.13552 Y10.93122
X17.00969 Y11.15405
X16.87332 Y11.24724
X16.68874 Y11.28463
X15.53288 Y11.28463
X15.36179 Y11.25248
X15.22163 Y11.16228
X15.13631 Y11.06822
X15.01912 Y11.03183
X14.96014 Y11.03762
X14.88744 Y11.06904
X14.81122 Y11.15306
X14.67337 Y11.24722
X14.48872 Y11.28463
X12.15773 Y11.27889
X12.05098 Y11.33866
X10.63355 Y12.75608
X10.58601 Y12.82596
X10.57036 Y12.87841
X10.57186 Y12.96299
X10.60701 Y13.04521
X10.67122 Y13.10749
X10.81839 Y13.20215
X10.95735 Y13.43213
X11.04823 Y13.52118
X11.12685 Y13.55560
X11.23716 Y13.55328
X11.33729 Y13.49535
X11.38011 Y13.43449
X11.44801 Y13.24907
X11.89898 Y13.08267
X12.44435 Y13.10409
X12.78145 Y13.24371
X12.79271 Y13.27538
X12.56279 Y13.50535
X12.44122 Y13.45181
X12.23632 Y13.40772
X12.01646 Y13.40553
X11.79073 Y13.45181
X11.58100 Y13.54701
X11.41173 Y13.67063
X11.27109 Y13.82603
X11.15926 Y14.01539
X11.08920 Y14.22387
X11.06403 Y14.46324
X11.08920 Y14.68170
X11.15451 Y14.88084
X11.25880 Y15.06263
X11.40434 Y15.22753
X11.58095 Y15.35856
X11.79073 Y15.45376
X12.01646 Y15.50007
X12.23632 Y15.49786
X12.44122 Y15.45376
X12.56279 Y15.40019
X12.79273 Y15.63012
X12.78331 Y15.65668
X12.33294 Y15.82285
X11.78758 Y15.80144
X11.44988 Y15.66156
X11.35093 Y15.42498
X11.26139 Y15.36034
X11.17211 Y15.34429
X11.06101 Y15.37637
X10.97892 Y15.44845
X10.82657 Y15.69519
X10.69027 Y15.78831
X10.50561 Y15.82572
X8.64479 Y15.82572
X8.47367 Y15.79354
X8.33353 Y15.70337
X8.24042 Y15.56707
X8.20305 Y15.38267
X8.20305 Y13.52133
X8.23518 Y13.35047
X8.32535 Y13.21033
X8.46254 Y13.11661
X8.59564 Y13.07985
X8.68492 Y12.99708
X8.71799 Y12.87968
X8.71799 Y12.62248
X8.78736 Y12.27368
X8.98509 Y11.97770
X11.13945 Y9.82335
G04 P0 ( dwell for no time -- G64 should not smooth over this point )
G00 Z5.00000 ( retract )

G00 X10.12599 Y12.82804 ( rapid move to begin. )
F300.00000
G01 Z-0.05000
G04 P0 ( dwell for no time -- G64 should not smooth over this point )
F600.00000
X10.12599 Y12.82804
X11.98984 Y10.96419
X14.51158 Y10.96419
X14.56713 Y10.94732
X14.59471 Y10.91974
X14.61158 Y10.86419
X14.61158 Y9.96421
X14.59471 Y9.90864
X14.54983 Y9.87181
X14.51158 Y9.86421
X11.76208 Y9.86421
X11.64524 Y9.87714
X11.54272 Y9.91024
X11.37315 Y10.02528
X9.18708 Y12.21135
X9.07204 Y12.38092
X9.03894 Y12.48344
X9.02601 Y12.60028
X9.02601 Y13.40030
X8.60397 Y13.40221
X8.55279 Y13.42959
X8.52541 Y13.48077
X8.52350 Y15.40530
X8.53109 Y15.44355
X8.56792 Y15.48843
X8.62350 Y15.50530
X10.52850 Y15.50530
X10.58405 Y15.48843
X10.61163 Y15.46085
X10.62850 Y15.40530
X10.62657 Y13.48077
X10.59919 Y13.42959
X10.54801 Y13.40221
X10.12599 Y13.40030
X10.12599 Y12.82804
G04 P0 ( dwell for no time -- G64 should not smooth over this point )
G00 Z5.00000 ( retract )

G00 X13.48605 Y14.23578 ( rapid move to begin. )
F300.00000
G01 Z-0.05000
G04 P0 ( dwell for no time -- G64 should not smooth over this point )
F600.00000
X13.48605 Y14.23578
X13.46464 Y14.78115
X13.32501 Y15.11825
X13.29334 Y15.12951
X13.06588 Y14.90208
X13.14549 Y14.67160
X13.16847 Y14.45277
X13.14277 Y14.22387
X13.06586 Y14.00350
X13.29332 Y13.77599
X13.31988 Y13.78541
X13.48605 Y14.23578
G04 P0 ( dwell for no time -- G64 should not smooth over this point )
G00 Z5.00000 ( retract )

G00 X10.36617 Y17.10591 ( rapid move to begin. )
F300.00000
G01 Z-0.05000
G04 P0 ( dwell for no time -- G64 should not smooth over this point )
F600.00000
X10.36617 Y17.10591
X11.32151 Y17.10499
X12.20472 Y17.46991
X12.88097 Y18.14499
X13.24742 Y19.02757
X13.24833 Y19.98291
X12.88341 Y20.86612
X12.20833 Y21.54237
X11.32576 Y21.90882
X10.37041 Y21.90973
X9.48720 Y21.54481
X8.81095 Y20.86973
X8.44451 Y19.98716
X8.44359 Y19.03181
X8.80851 Y18.14860
X9.48359 Y17.47235
X10.36617 Y17.10591
G04 P0 ( dwell for no time -- G64 should not smooth over this point )
G00 Z5.00000 ( retract )

G00 X8.04540 Y23.02756 ( rapid move to begin. )
F300.00000
G01 Z-0.05000
G04 P0 ( dwell for no time -- G64 should not smooth over this point )
F600.00000
X8.04540 Y23.02756
X8.66574 Y23.04669
X9.09221 Y23.22334
X9.11476 Y23.27795
X8.89630 Y23.49644
X8.69007 Y23.40523
X8.42546 Y23.35067
X8.16574 Y23.35286
X7.92188 Y23.40523
X7.71570 Y23.49644
X7.49716 Y23.27798
X7.51809 Y23.22723
X8.04540 Y23.02756
G04 P0 ( dwell for no time -- G64 should not smooth over this point )
G00 Z5.00000 ( retract )

G00 X6.76529 Y24.22758 ( rapid move to begin. )
F300.00000
G01 Z-0.05000
G04 P0 ( dwell for no time -- G64 should not smooth over this point )
F600.00000
X6.76529 Y24.22758
X6.94194 Y23.80112
X6.99655 Y23.77856
X7.21743 Y23.99939
X7.17047 Y24.08181
X7.09287 Y24.31885
X7.06353 Y24.57694
X7.09287 Y24.85593
X7.17047 Y25.09294
X7.21741 Y25.17531
X6.99660 Y25.39616
X6.94583 Y25.37523
X6.74616 Y24.84793
X6.76529 Y24.22758
G04 P0 ( dwell for no time -- G64 should not smooth over this point )
G00 Z5.00000 ( retract )

G00 X9.09383 Y25.94749 ( rapid move to begin. )
F300.00000
G01 Z-0.05000
G04 P0 ( dwell for no time -- G64 should not smooth over this point )
F600.00000
X9.09383 Y25.94749
X8.56653 Y26.14716
X7.94618 Y26.12804
X7.51972 Y25.95138
X7.49716 Y25.89677
X7.71560 Y25.67830
X7.92188 Y25.76954
X8.18654 Y25.82413
X8.44623 Y25.82192
X8.69007 Y25.76954
X8.89630 Y25.67830
X9.11476 Y25.89672
X9.09383 Y25.94749
G04 P0 ( dwell for no time -- G64 should not smooth over this point )
G00 Z5.00000 ( retract )

G00 X9.86576 Y24.32680 ( rapid move to begin. )
F300.00000
G01 Z-0.05000
G04 P0 ( dwell for no time -- G64 should not smooth over this point )
F600.00000
X9.86576 Y24.32680
X9.84664 Y24.94714
X9.66998 Y25.37361
X9.61537 Y25.39616
X9.39454 Y25.17538
X9.44151 Y25.09296
X9.52182 Y24.84582
X9.54897 Y24.58737
X9.51910 Y24.31885
X9.44151 Y24.08181
X9.39452 Y23.99939
X9.61532 Y23.77856
X9.66609 Y23.79949
X9.86576 Y24.32680
G04 P0 ( dwell for no time -- G64 should not smooth over this point )
G00 Z5.00000 ( retract )

G00 X15.76649 Y22.59739 ( rapid move to begin. )
F300.00000
G01 Z-0.05000
G04 P0 ( dwell for no time -- G64 should not smooth over this point )
F600.00000
X15.76649 Y22.59739
X23.74389 Y22.59739
X23.91986 Y22.62200
X24.03365 Y22.60620
X24.16032 Y22.55758
X24.32197 Y22.42667
X24.39586 Y22.31293
X24.44046 Y22.17026
X24.77373 Y21.83699
X26.46898 Y21.83650
X26.62212 Y21.80602
X26.70076 Y21.76615
X26.87571 Y21.60679
X27.38938 Y21.60679
X27.44493 Y21.58992
X27.47251 Y21.56234
X27.48938 Y21.50679
X27.48744 Y20.58728
X27.44493 Y20.52365
X27.38938 Y20.50681
X26.16985 Y20.50872
X26.11866 Y20.53610
X26.09128 Y20.58728
X26.08938 Y20.93701
X24.58740 Y20.93701
X24.49004 Y20.94801
X24.40630 Y20.97544
X24.27645 Y21.06218
X23.84008 Y21.49792
X15.76651 Y21.49744
X15.66156 Y21.31677
X15.49509 Y21.13107
X15.27749 Y20.97092
X15.04007 Y20.86523
X14.79623 Y20.81286
X14.52608 Y20.81121
X14.27188 Y20.86523
X14.02572 Y20.97661
X13.83240 Y21.11707
X13.65699 Y21.30864
X13.52047 Y21.54181
X13.44287 Y21.77885
X13.41353 Y22.03694
X13.43853 Y22.29548
X13.51671 Y22.54318
X13.65699 Y22.78613
X13.83240 Y22.97767
X14.04381 Y23.12860
X14.27188 Y23.22954
X14.52608 Y23.28357
X14.77546 Y23.28413
X15.04007 Y23.22954
X15.27746 Y23.12385
X15.47957 Y22.97770
X15.66159 Y22.77801
X15.76649 Y22.59739
G04 P0 ( dwell for no time -- G64 should not smooth over this point )
G00 Z5.00000 ( retract )

G00 X25.94158 Y18.77179 ( rapid move to begin. )
F300.00000
G01 Z-0.05000
G04 P0 ( dwell for no time -- G64 should not smooth over this point )
F600.00000
X25.94158 Y18.77179
X26.00365 Y18.62185
X26.11841 Y18.50712
X26.26835 Y18.44499
X26.34960 Y18.44499
X26.34960 Y18.75302
X26.27889 Y18.78231
X26.25720 Y18.81474
X26.24960 Y18.87400
X25.96733 Y18.87400
X25.94158 Y18.84824
X25.94158 Y18.77179
G04 P0 ( dwell for no time -- G64 should not smooth over this point )
G00 Z5.00000 ( retract )

G00 X29.68940 Y21.50679 ( rapid move to begin. )
F300.00000
G01 Z-0.05000
G04 P0 ( dwell for no time -- G64 should not smooth over this point )
F600.00000
X29.68940 Y21.50679
X30.66138 Y21.50679
X30.69066 Y21.57747
X30.76138 Y21.60679
X31.99963 Y21.59917
X32.04451 Y21.56234
X32.06138 Y21.50679
X32.05376 Y20.56854
X32.01693 Y20.52365
X31.96138 Y20.50681
X30.76138 Y20.50681
X30.69066 Y20.53610
X30.66138 Y20.60681
X29.68940 Y20.60681
X29.67253 Y20.55124
X29.62765 Y20.51441
X29.48940 Y20.50681
X29.48940 Y19.69455
X29.53273 Y19.65853
X29.54959 Y19.60298
X29.54959 Y18.85302
X29.53273 Y18.79744
X29.46910 Y18.75492
X29.00037 Y18.75302
X28.83380 Y18.72866
X28.69781 Y18.75302
X28.24960 Y18.75302
X28.19402 Y18.76986
X28.15719 Y18.81474
X28.14960 Y18.85302
X28.15719 Y19.64123
X28.19402 Y19.68611
X28.23006 Y19.70105
X28.48940 Y19.70298
X28.48940 Y20.50681
X28.35112 Y20.51441
X28.30624 Y20.55124
X28.28940 Y20.60681
X28.29130 Y21.52629
X28.30624 Y21.56234
X28.35112 Y21.59917
X28.48940 Y21.60679
X28.48940 Y22.38641
X28.35112 Y22.39401
X28.30624 Y22.43084
X28.28940 Y22.48641
X28.28940 Y23.38639
X28.29699 Y23.42464
X28.33382 Y23.46952
X28.38940 Y23.48639
X29.58940 Y23.48639
X29.64495 Y23.46952
X29.67253 Y23.44194
X29.68940 Y23.38639
X29.68747 Y22.46688
X29.67253 Y22.43084
X29.62765 Y22.39401
X29.48940 Y22.38641
X29.48940 Y21.60679
X29.62765 Y21.59917
X29.67253 Y21.56234
X29.68940 Y21.50679
G04 P0 ( dwell for no time -- G64 should not smooth over this point )
G00 Z5.00000 ( retract )

G00 X30.78797 Y28.88325 ( rapid move to begin. )
F300.00000
G01 Z-0.05000
G04 P0 ( dwell for no time -- G64 should not smooth over this point )
F600.00000
X30.78797 Y28.88325
X33.85502 Y31.95030
X34.04194 Y32.23006
X34.10760 Y32.56000
X34.10760 Y34.76112
X34.04199 Y35.09101
X33.85507 Y35.37077
X32.50062 Y36.72522
X32.22086 Y36.91214
X31.89071 Y36.97782
X31.33748 Y36.98217
X31.09054 Y37.04023
X29.93468 Y37.04023
X29.76356 Y37.00805
X29.57599 Y36.89126
X29.46275 Y36.87374
X29.35102 Y36.91702
X29.27914 Y37.00615
X29.26057 Y37.12461
X29.27825 Y37.19037
X29.31830 Y37.25197
X29.52440 Y37.45377
X29.65422 Y37.49456
X38.45712 Y37.48783
X38.56388 Y37.42807
X51.75765 Y24.23426
X51.81419 Y24.14016
X51.81605 Y24.01372
X51.75311 Y23.91011
X51.68813 Y23.86632
X51.62446 Y23.84956
X51.33106 Y23.84689
X51.01894 Y23.78481
X50.89682 Y23.70803
X50.77292 Y23.67932
X50.49235 Y23.49187
X48.93175 Y21.93127
X48.81067 Y21.86830
X34.43000 Y21.86480
X34.13854 Y21.92723
X32.98268 Y21.92723
X32.81159 Y21.89508
X32.67143 Y21.80488
X32.58611 Y21.71082
X32.50839 Y21.67885
X32.44928 Y21.67468
X32.33724 Y21.71164
X32.26102 Y21.79566
X32.12317 Y21.88982
X31.93852 Y21.92723
X30.78266 Y21.92723
X30.61164 Y21.89508
X30.52607 Y21.84214
X30.44479 Y21.81707
X30.04439 Y21.81524
X29.92747 Y21.85337
X29.84807 Y21.94720
X29.82978 Y22.06835
X29.86669 Y22.16980
X29.97240 Y22.32454
X30.00982 Y22.50920
X30.00982 Y23.36505
X29.97766 Y23.53614
X29.88749 Y23.67625
X29.75112 Y23.76944
X29.56654 Y23.80683
X28.41068 Y23.80683
X28.23959 Y23.77468
X28.09943 Y23.68448
X28.01411 Y23.59042
X27.89692 Y23.55403
X27.83794 Y23.55982
X27.76524 Y23.59124
X27.68902 Y23.67526
X27.55117 Y23.76942
X27.36652 Y23.80683
X25.68504 Y23.80109
X25.57828 Y23.86086
X24.66197 Y24.77716
X24.36601 Y24.97493
X24.01692 Y25.04440
X23.86190 Y25.05595
X23.55037 Y25.25217
X23.07193 Y25.35174
X22.91626 Y25.48316
X22.86703 Y25.55679
X22.84979 Y25.64368
X22.84979 Y28.40378
X22.86525 Y28.48602
X22.89385 Y28.53773
X22.98987 Y28.61345
X23.07679 Y28.63078
X30.17857 Y28.63078
X30.50822 Y28.69633
X30.78797 Y28.88325
G04 P0 ( dwell for no time -- G64 should not smooth over this point )
G00 Z5.00000 ( retract )

G00 X31.19445 Y33.64547 ( rapid move to begin. )
F300.00000
G01 Z-0.05000
G04 P0 ( dwell for no time -- G64 should not smooth over this point )
F600.00000
X31.19445 Y33.64547
X31.30921 Y33.76023
X31.37138 Y33.91027
X31.37138 Y33.98659
X31.34558 Y34.01240
X31.06338 Y34.01240
X31.05576 Y33.95314
X31.01893 Y33.90826
X30.98289 Y33.89332
X30.86338 Y33.89142
X30.86338 Y33.58339
X31.04454 Y33.58339
X31.19445 Y33.64547
G04 P0 ( dwell for no time -- G64 should not smooth over this point )
G00 Z5.00000 ( retract )

G00 X27.70939 Y41.33039 ( rapid move to begin. )
F300.00000
G01 Z-0.05000
G04 P0 ( dwell for no time -- G64 should not smooth over this point )
F600.00000
X27.70939 Y41.33039
X27.70939 Y41.63842
X27.58986 Y41.64032
X27.55382 Y41.65526
X27.51699 Y41.70014
X27.50939 Y41.75940
X27.22715 Y41.75940
X27.20139 Y41.73364
X27.20139 Y41.65719
X27.26347 Y41.50725
X27.37822 Y41.39252
X27.52814 Y41.33039
X27.70939 Y41.33039
G04 P0 ( dwell for no time -- G64 should not smooth over this point )
G00 Z5.00000 ( retract )

G00 X24.88430 Y46.50280 ( rapid move to begin. )
F300.00000
G01 Z-0.05000
G04 P0 ( dwell for no time -- G64 should not smooth over this point )
F600.00000
X24.88430 Y46.50280
X10.73528 Y46.50524
X10.68250 Y46.51672
X10.59957 Y46.56927
X9.39180 Y47.77699
X9.33203 Y47.88372
X9.32967 Y47.98189
X9.36325 Y48.06315
X9.51486 Y48.22614
X9.59942 Y48.27872
X9.65936 Y48.29231
X9.72865 Y48.28547
X9.96020 Y48.51697
X9.89596 Y48.70958
X9.87194 Y48.91712
X9.89162 Y49.12512
X9.95995 Y49.33835
X9.72865 Y49.56967
X9.65982 Y49.56302
X9.59985 Y49.57663
X9.51611 Y49.62845
X9.07984 Y50.06817
X9.02327 Y50.16571
X9.01768 Y50.45443
X9.08822 Y50.58935
X9.12563 Y50.77399
X9.12563 Y51.92984
X9.09348 Y52.10093
X9.00328 Y52.24109
X8.90925 Y52.32636
X8.88172 Y52.39001
X8.87265 Y52.45834
X8.89106 Y52.54028
X9.05235 Y52.72885
X9.12020 Y52.77429
X9.18606 Y52.79075
X12.37825 Y52.79316
X12.46200 Y52.77711
X12.51041 Y52.75067
X12.66875 Y52.59131
X12.71409 Y52.49339
X12.71031 Y52.39496
X12.66146 Y52.30391
X12.59629 Y52.25082
X12.50211 Y52.11297
X12.46474 Y51.92854
X12.46474 Y50.77221
X12.49685 Y50.60144
X12.57305 Y50.45291
X12.57363 Y50.03754
X12.51084 Y49.91674
X12.21125 Y49.61496
X12.12522 Y49.56982
X12.01407 Y49.56965
X11.78280 Y49.33843
X11.84953 Y49.13546
X11.87137 Y48.92756
X11.84681 Y48.70958
X11.78280 Y48.51674
X12.01404 Y48.28547
X12.09670 Y48.28977
X12.20073 Y48.24880
X12.62949 Y47.81933
X13.11011 Y47.61982
X13.63030 Y47.61928
X14.11130 Y47.81804
X14.47955 Y48.18565
X14.67911 Y48.66630
X14.67944 Y48.99911
X14.70596 Y49.10310
X14.85742 Y49.26579
X14.98689 Y49.30638
X27.01297 Y49.30638
X27.30416 Y49.24394
X28.46049 Y49.24394
X28.63133 Y49.27605
X28.77149 Y49.36624
X28.85676 Y49.46027
X28.97398 Y49.49670
X29.03298 Y49.49091
X29.10568 Y49.45949
X29.18190 Y49.37546
X29.31975 Y49.28131
X29.50418 Y49.24394
X30.66051 Y49.24394
X30.94553 Y49.30635
X31.51756 Y49.30389
X31.56994 Y49.29241
X31.65287 Y49.23985
X31.70011 Y49.17069
X31.71571 Y49.11956
X31.71921 Y48.96243
X31.78495 Y48.63190
X31.97187 Y48.35215
X36.98976 Y43.33428
X37.04468 Y43.24192
X37.04953 Y43.12003
X37.02974 Y43.06961
X36.97462 Y43.00083
X36.91610 Y42.96405
X36.82929 Y42.94680
X31.55630 Y42.94680
X31.40512 Y42.92140
X31.26201 Y42.92597
X31.18083 Y42.95998
X31.13059 Y43.00786
X31.09016 Y43.08665
X31.08091 Y43.14025
X31.11058 Y43.25914
X31.19160 Y43.38114
X31.22902 Y43.56580
X31.22902 Y44.42165
X31.19686 Y44.59274
X31.10669 Y44.73285
X30.97032 Y44.82604
X30.78574 Y44.86343
X29.62988 Y44.86343
X29.45879 Y44.83128
X29.31863 Y44.74108
X29.23331 Y44.64702
X29.11612 Y44.61063
X29.05714 Y44.61642
X28.98444 Y44.64784
X28.90822 Y44.73186
X28.77037 Y44.82602
X28.58572 Y44.86343
X27.42986 Y44.86343
X27.18323 Y44.80428
X26.98353 Y44.80770
X26.87678 Y44.86747
X25.49403 Y46.25022
X25.21427 Y46.43714
X24.88430 Y46.50280
G04 P0 ( dwell for no time -- G64 should not smooth over this point )
G00 Z5.00000 ( retract )

G00 X19.12264 Y41.42757 ( rapid move to begin. )
F300.00000
G01 Z-0.05000
G04 P0 ( dwell for no time -- G64 should not smooth over this point )
F600.00000
X19.12264 Y41.42757
X18.95492 Y42.27078
X18.47725 Y42.98566
X17.76232 Y43.46336
X16.89664 Y43.63560
X15.98043 Y43.46341
X15.26555 Y42.98571
X14.78785 Y42.27083
X14.62008 Y41.42757
X14.78780 Y40.58435
X15.26550 Y39.86946
X15.98038 Y39.39176
X16.84584 Y39.21958
X17.76227 Y39.39171
X18.47720 Y39.86941
X18.95487 Y40.58429
X19.12264 Y41.42757
G04 P0 ( dwell for no time -- G64 should not smooth over this point )
G00 Z5.00000 ( retract )

G00 X16.86125 Y39.52811 ( rapid move to begin. )
F300.00000
G01 Z-0.05000
G04 P0 ( dwell for no time -- G64 should not smooth over this point )
F600.00000
X16.86125 Y39.52811
X16.47911 Y39.56903
X16.11302 Y39.68605
X15.77797 Y39.87434
X15.50162 Y40.11158
X15.26474 Y40.41427
X15.09367 Y40.75841
X14.99534 Y41.12996
X14.97383 Y41.51368
X15.03001 Y41.89389
X15.16159 Y42.25500
X15.36311 Y42.58226
X15.62643 Y42.86224
X15.94073 Y43.08348
X16.29311 Y43.23692
X16.66915 Y43.31629
X16.86631 Y43.32744
X17.24383 Y43.29021
X17.61114 Y43.17710
X17.94817 Y42.99239
X18.24113 Y42.74360
X18.47801 Y42.44091
X18.64908 Y42.09676
X18.74741 Y41.72521
X18.76892 Y41.34149
X18.71274 Y40.96128
X18.58116 Y40.60017
X18.37964 Y40.27292
X18.11632 Y39.99293
X17.80202 Y39.77170
X17.44964 Y39.61826
X17.07360 Y39.53888
X16.86125 Y39.52811
G04 P0 ( dwell for no time -- G64 should not smooth over this point )
G00 Z5.00000 ( retract )

G00 X20.97763 Y36.97780 ( rapid move to begin. )
F300.00000
G01 Z-0.05000
G04 P0 ( dwell for no time -- G64 should not smooth over this point )
F600.00000
X20.97763 Y36.97780
X20.64771 Y36.91219
X20.36795 Y36.72527
X18.94476 Y35.30206
X18.82368 Y35.23909
X14.75018 Y35.23909
X14.69824 Y35.25487
X14.62903 Y35.30219
X14.22671 Y35.70521
X13.67256 Y35.93528
X13.07282 Y35.93589
X12.51829 Y35.70676
X12.09367 Y35.28288
X11.86363 Y34.72886
X11.86304 Y34.12904
X12.09217 Y33.57450
X12.51600 Y33.14992
X13.05151 Y32.92757
X13.68999 Y32.92757
X14.22443 Y33.14837
X14.62999 Y33.55322
X14.75092 Y33.61606
X19.19061 Y33.61954
X19.52043 Y33.68515
X19.80016 Y33.87207
X21.22337 Y35.29525
X21.33958 Y35.35738
X27.36359 Y35.36175
X27.45089 Y35.34430
X27.52476 Y35.29464
X27.57386 Y35.22037
X27.58882 Y35.15261
X27.57276 Y35.04654
X27.48043 Y34.90386
X27.44294 Y34.71877
X27.44294 Y34.01243
X27.47505 Y33.84159
X27.56525 Y33.70143
X27.70154 Y33.60831
X27.88597 Y33.57095
X29.04231 Y33.57095
X29.21414 Y33.60326
X29.31886 Y33.66592
X29.40344 Y33.68167
X29.48914 Y33.66429
X29.68234 Y33.58339
X29.86339 Y33.58339
X29.86339 Y33.89142
X29.72511 Y33.89901
X29.68023 Y33.93584
X29.66529 Y33.97189
X29.66339 Y34.74138
X29.69267 Y34.81207
X29.76339 Y34.84138
X30.21566 Y34.84138
X30.32155 Y34.86419
X30.41706 Y34.86348
X30.51101 Y34.84138
X30.96338 Y34.84138
X31.03407 Y34.81207
X31.05576 Y34.77963
X31.06338 Y34.72040
X31.34563 Y34.72040
X31.37138 Y34.74616
X31.37138 Y34.82241
X31.30824 Y34.97488
X31.25500 Y35.05705
X31.24532 Y35.17897
X31.27921 Y35.26084
X31.33783 Y35.32065
X31.39986 Y35.35017
X31.51535 Y35.35913
X31.57598 Y35.34250
X31.64515 Y35.29525
X32.42505 Y34.51535
X32.47428 Y34.44174
X32.49158 Y34.35487
X32.49158 Y32.96630
X32.47425 Y32.87938
X32.42505 Y32.80577
X29.93255 Y30.31327
X29.85889 Y30.26405
X29.77202 Y30.24680
X22.57600 Y30.25030
X22.45494 Y30.31327
X21.94229 Y30.82589
X21.54900 Y31.08868
X21.08512 Y31.18099
X5.78896 Y31.18099
X5.70207 Y31.19823
X5.62843 Y31.24746
X4.78396 Y32.09196
X4.72904 Y32.18439
X4.71749 Y32.25248
X4.71749 Y35.36899
X4.73296 Y35.45123
X4.80321 Y35.54526
X4.89996 Y35.59154
X5.48939 Y35.59591
X5.95335 Y35.68819
X6.34669 Y35.95103
X9.28669 Y38.89103
X9.54948 Y39.28432
X9.64179 Y39.74820
X9.64179 Y42.80210
X9.54953 Y43.26595
X9.28674 Y43.65924
X7.54049 Y45.40549
X7.14720 Y45.66828
X6.68332 Y45.76059
X5.93328 Y45.76059
X5.84639 Y45.77783
X5.77276 Y45.82706
X4.78066 Y46.81916
X4.74068 Y46.87549
X4.71662 Y46.95482
X4.71419 Y50.81061
X4.73143 Y50.89751
X4.78066 Y50.97117
X5.90791 Y52.09844
X5.96425 Y52.13842
X6.20151 Y52.19585
X6.83463 Y52.63416
X7.12165 Y52.69126
X7.41629 Y52.69062
X7.51192 Y52.65757
X7.57471 Y52.60916
X7.63249 Y52.49971
X7.62901 Y52.38920
X7.60021 Y52.32682
X7.51550 Y52.24968
X7.42211 Y52.11297
X7.38474 Y51.92854
X7.38474 Y50.77221
X7.41685 Y50.60144
X7.49305 Y50.45291
X7.49363 Y49.95768
X7.44301 Y49.85171
X7.26318 Y49.66947
X7.06361 Y49.18882
X7.06308 Y48.66863
X7.26183 Y48.18763
X7.49701 Y47.95202
X7.54611 Y47.87844
X7.56338 Y47.67697
X7.62894 Y47.34732
X7.81586 Y47.06757
X9.74412 Y45.13930
X10.02385 Y44.95238
X10.35370 Y44.88675
X24.51747 Y44.88322
X24.56939 Y44.86750
X24.63856 Y44.82025
X26.02131 Y43.43750
X26.30106 Y43.25058
X26.63108 Y43.18492
X27.18463 Y43.18050
X27.32463 Y43.10794
X27.38440 Y43.00707
X27.39077 Y42.90464
X27.34030 Y42.79900
X27.26349 Y42.71944
X27.20139 Y42.56958
X27.20139 Y42.49310
X27.22709 Y42.46740
X27.50939 Y42.46740
X27.51699 Y42.52663
X27.53868 Y42.55907
X27.60939 Y42.58838
X28.06166 Y42.58838
X28.15567 Y42.61048
X28.25120 Y42.61119
X28.35701 Y42.58838
X28.80939 Y42.58838
X28.88008 Y42.55907
X28.90939 Y42.48838
X28.90746 Y41.71889
X28.89252 Y41.68284
X28.84764 Y41.64601
X28.70939 Y41.63842
X28.70939 Y41.33039
X28.89036 Y41.33039
X29.08358 Y41.41114
X29.17174 Y41.42839
X29.25805 Y41.41084
X29.34639 Y41.35554
X29.53194 Y41.31795
X30.04624 Y41.31795
X30.12993 Y41.30538
X31.48807 Y41.30538
X31.63709 Y41.33078
X36.50307 Y41.33078
X36.57120 Y41.31917
X36.66355 Y41.26425
X38.52976 Y39.39806
X38.57701 Y39.32890
X38.59332 Y39.27223
X38.57896 Y39.15067
X38.53314 Y39.08059
X38.45153 Y39.02606
X38.36929 Y39.01059
X29.26862 Y39.01059
X28.95785 Y38.94879
X28.69433 Y38.77272
X27.79326 Y37.87165
X27.61719 Y37.60813
X27.55521 Y37.29659
X27.55079 Y37.15954
X27.52636 Y37.09599
X27.48531 Y37.04087
X27.39646 Y36.98936
X27.32839 Y36.97780
X20.97763 Y36.97780
G04 P0 ( dwell for no time -- G64 should not smooth over this point )
G00 Z5.00000 ( retract )

G00 X9.88837 Y34.17689 ( rapid move to begin. )
F300.00000
G01 Z-0.05000
G04 P0 ( dwell for no time -- G64 should not smooth over this point )
F600.00000
X9.88837 Y34.17689
X9.86868 Y34.78027
X9.70036 Y35.18667
X9.65088 Y35.20648
X9.42863 Y34.98425
X9.47135 Y34.90587
X9.54514 Y34.67707
X9.57135 Y34.42756
X9.54676 Y34.18842
X9.47493 Y33.96038
X9.71600 Y33.71926
X9.88837 Y34.17689
G04 P0 ( dwell for no time -- G64 should not smooth over this point )
G00 Z5.00000 ( retract )

G00 X9.08344 Y33.07908 ( rapid move to begin. )
F300.00000
G01 Z-0.05000
G04 P0 ( dwell for no time -- G64 should not smooth over this point )
F600.00000
X9.08344 Y33.07908
X8.83534 Y33.32721
X8.74217 Y33.28632
X8.50712 Y33.23580
X8.25642 Y33.23364
X8.00056 Y33.28632
X7.81344 Y33.36907
X7.59244 Y33.14809
X7.61060 Y33.10267
X8.12071 Y32.91055
X8.72408 Y32.93023
X9.08344 Y33.07908
G04 P0 ( dwell for no time -- G64 should not smooth over this point )
G00 Z5.00000 ( retract )

G00 X6.87402 Y34.07488 ( rapid move to begin. )
F300.00000
G01 Z-0.05000
G04 P0 ( dwell for no time -- G64 should not smooth over this point )
F600.00000
X6.87402 Y34.07488
X7.04238 Y33.66846
X7.09183 Y33.64865
X7.31410 Y33.87090
X7.27138 Y33.94928
X7.20031 Y34.16798
X7.17192 Y34.41712
X7.20031 Y34.68718
X7.27138 Y34.90587
X7.31408 Y34.98418
X7.09185 Y35.20648
X7.04649 Y35.18834
X6.85436 Y34.67824
X6.87402 Y34.07488
G04 P0 ( dwell for no time -- G64 should not smooth over this point )
G00 Z5.00000 ( retract )

G00 X9.13213 Y35.75245 ( rapid move to begin. )
F300.00000
G01 Z-0.05000
G04 P0 ( dwell for no time -- G64 should not smooth over this point )
F600.00000
X9.13213 Y35.75245
X8.62203 Y35.94455
X8.01865 Y35.92489
X7.61228 Y35.75657
X7.59244 Y35.70709
X7.81342 Y35.48608
X8.00054 Y35.56884
X8.25642 Y35.62154
X8.50712 Y35.61936
X8.74217 Y35.56884
X8.92929 Y35.48608
X9.15030 Y35.70706
X9.13213 Y35.75245
G04 P0 ( dwell for no time -- G64 should not smooth over this point )
G00 Z5.00000 ( retract )

G00 X4.86125 Y39.42811 ( rapid move to begin. )
F300.00000
G01 Z-0.05000
G04 P0 ( dwell for no time -- G64 should not smooth over this point )
F600.00000
X4.86125 Y39.42811
X4.45899 Y39.47109
X4.07357 Y39.59415
X3.72084 Y39.79227
X3.41520 Y40.05735
X3.16918 Y40.37853
X2.99285 Y40.74266
X2.89649 Y41.11482
X2.87398 Y41.51874
X2.93319 Y41.91894
X3.07180 Y42.29905
X3.28404 Y42.64347
X3.56131 Y42.93811
X3.89217 Y43.17090
X4.26316 Y43.33232
X4.65904 Y43.41578
X4.86631 Y43.42744
X5.26394 Y43.38815
X5.65058 Y43.26900
X6.00529 Y43.07446
X6.31360 Y42.81248
X6.56287 Y42.49384
X6.74286 Y42.13148
X6.84626 Y41.74035
X6.86877 Y41.33644
X6.80956 Y40.93624
X6.67095 Y40.55613
X6.45871 Y40.21170
X6.18144 Y39.91706
X5.85058 Y39.68427
X5.47959 Y39.52285
X5.08371 Y39.43939
X4.86125 Y39.42811
G04 P0 ( dwell for no time -- G64 should not smooth over this point )
G00 Z5.00000 ( retract )

G00 X10.53841 Y46.19480 ( rapid move to begin. )
F300.00000
G01 Z-0.05000
G04 P0 ( dwell for no time -- G64 should not smooth over this point )
F600.00000
X10.53841 Y46.19480
X24.97719 Y46.18954
X25.10894 Y46.15208
X25.25456 Y46.05365
X26.81561 Y44.49300
X27.32245 Y44.49300
X27.35300 Y44.52612
X27.40858 Y44.54299
X28.60858 Y44.54299
X28.66413 Y44.52612
X28.69171 Y44.49854
X28.70858 Y44.44299
X28.70664 Y43.52348
X28.66413 Y43.45985
X28.60858 Y43.44301
X27.40858 Y43.44301
X27.35300 Y43.45985
X27.32245 Y43.49300
X26.60858 Y43.49300
X26.50149 Y43.50496
X26.40833 Y43.53524
X26.25501 Y43.63943
X24.69964 Y45.19480
X10.33140 Y45.19480
X10.14928 Y45.22952
X10.06198 Y45.27402
X9.97783 Y45.34123
X7.96147 Y47.36909
X7.90610 Y47.47267
X7.87951 Y47.56693
X7.87138 Y48.06218
X7.71037 Y48.17785
X7.56897 Y48.33168
X7.45408 Y48.53063
X7.39594 Y48.70958
X7.37191 Y48.91712
X7.39594 Y49.14557
X7.45784 Y49.33426
X7.56236 Y49.51532
X7.70224 Y49.67069
X7.80521 Y49.74615
X7.80521 Y50.65118
X7.73450 Y50.68046
X7.70521 Y50.75118
X7.70521 Y51.95118
X7.72205 Y52.00673
X7.76694 Y52.04356
X8.70519 Y52.05118
X8.76074 Y52.03431
X8.79757 Y51.98943
X8.80519 Y50.75118
X8.77587 Y50.68046
X8.70519 Y50.65118
X8.70519 Y49.86817
X8.87135 Y49.79357
X9.03236 Y49.67729
X9.18037 Y49.51534
X9.28865 Y49.32451
X9.34951 Y49.13546
X9.37135 Y48.92756
X9.34679 Y48.70958
X9.28489 Y48.52085
X9.18034 Y48.33980
X9.04788 Y48.19185
X8.87138 Y48.06223
X8.87138 Y47.86185
X10.53841 Y46.19480
G04 P0 ( dwell for no time -- G64 should not smooth over this point )
G00 Z5.00000 ( retract )

G00 X10.23086 Y47.78646 ( rapid move to begin. )
F300.00000
G01 Z-0.05000
G04 P0 ( dwell for no time -- G64 should not smooth over this point )
F600.00000
X10.23086 Y47.78646
X10.23752 Y47.76668
X10.66627 Y47.60976
X11.19106 Y47.63180
X11.50333 Y47.76114
X11.51186 Y47.78641
X11.27864 Y48.01969
X11.18039 Y47.97653
X10.98623 Y47.93472
X10.77734 Y47.93254
X10.56236 Y47.97653
X10.46414 Y48.01971
X10.23086 Y47.78646
G04 P0 ( dwell for no time -- G64 should not smooth over this point )
G00 Z5.00000 ( retract )

G00 X13.78519 Y50.04844 ( rapid move to begin. )
F300.00000
G01 Z-0.05000
G04 P0 ( dwell for no time -- G64 should not smooth over this point )
F600.00000
X13.78519 Y50.04844
X13.85801 Y50.12123
X13.78519 Y50.19405
X13.78519 Y50.04844
G04 P0 ( dwell for no time -- G64 should not smooth over this point )
G00 Z5.00000 ( retract )

G00 X14.76530 Y49.61440 ( rapid move to begin. )
F300.00000
G01 Z-0.05000
G04 P0 ( dwell for no time -- G64 should not smooth over this point )
F600.00000
X14.76530 Y49.61440
X14.33444 Y49.18359
X14.37083 Y48.91712
X14.34681 Y48.70958
X14.28491 Y48.52085
X14.17378 Y48.33168
X14.03238 Y48.17785
X13.88016 Y48.06726
X13.68039 Y47.97653
X13.48623 Y47.93472
X13.25654 Y47.93472
X13.06235 Y47.97653
X12.86261 Y48.06726
X12.69487 Y48.19185
X12.56240 Y48.33980
X12.45786 Y48.52085
X12.39596 Y48.70958
X12.37193 Y48.93802
X12.39596 Y49.14557
X12.45410 Y49.32451
X12.55669 Y49.50655
X12.71039 Y49.67729
X12.88521 Y49.80030
X12.88521 Y50.65118
X12.81450 Y50.68046
X12.78521 Y50.75118
X12.78521 Y51.95118
X12.79281 Y51.98943
X12.82964 Y52.03431
X12.88521 Y52.05118
X13.78519 Y52.05118
X13.84074 Y52.03431
X13.86832 Y52.00673
X13.88519 Y51.95118
X13.88519 Y51.50822
X14.77901 Y50.61440
X27.19545 Y50.61440
X27.22600 Y50.64752
X27.28158 Y50.66439
X28.48158 Y50.66439
X28.55226 Y50.63507
X28.58158 Y50.56439
X28.57964 Y49.64488
X28.53713 Y49.58125
X28.48158 Y49.56441
X27.28158 Y49.56441
X27.22600 Y49.58125
X27.19545 Y49.61440
X14.76530 Y49.61440
G04 P0 ( dwell for no time -- G64 should not smooth over this point )
G00 Z5.00000 ( retract )

G00 X13.33515 Y55.99966 ( rapid move to begin. )
F300.00000
G01 Z-0.05000
G04 P0 ( dwell for no time -- G64 should not smooth over this point )
F600.00000
X13.33515 Y55.99966
X13.74130 Y56.40580
X12.92903 Y56.40580
X13.33515 Y55.99966
G04 P0 ( dwell for no time -- G64 should not smooth over this point )
G00 Z5.00000 ( retract )

G00 X8.80320 Y55.07583 ( rapid move to begin. )
F300.00000
G01 Z-0.05000
G04 P0 ( dwell for no time -- G64 should not smooth over this point )
F600.00000
X8.80320 Y55.07583
X8.80519 Y54.00118
X12.73520 Y54.00118
X12.73520 Y54.90263
X11.23203 Y56.40580
X10.13323 Y56.40580
X8.80320 Y55.07583
G04 P0 ( dwell for no time -- G64 should not smooth over this point )
G00 Z5.00000 ( retract )

G00 X7.20664 Y58.15574 ( rapid move to begin. )
F300.00000
G01 Z-0.05000
G04 P0 ( dwell for no time -- G64 should not smooth over this point )
F600.00000
X7.20664 Y58.15574
X7.16076 Y57.74027
X7.03425 Y57.35271
X6.82518 Y56.99061
X6.53730 Y56.67331
X6.19785 Y56.42940
X5.82521 Y56.26410
X5.42658 Y56.17880
X5.00860 Y56.17662
X4.58914 Y56.26410
X4.21652 Y56.42940
X3.87708 Y56.67331
X3.59577 Y56.98248
X3.38013 Y57.35271
X3.25361 Y57.74027
X3.20774 Y58.17664
X3.25361 Y58.59211
X3.38013 Y58.97963
X3.58917 Y59.34174
X3.87708 Y59.65906
X4.21652 Y59.90298
X4.58914 Y60.06828
X4.99813 Y60.15522
X5.40580 Y60.15578
X5.82521 Y60.06828
X6.20717 Y59.89823
X6.53730 Y59.65906
X6.81860 Y59.34989
X7.03425 Y58.97966
X7.16076 Y58.59211
X7.20664 Y58.15574
G04 P0 ( dwell for no time -- G64 should not smooth over this point )
G00 Z5.00000 ( retract )

G00 X9.70003 Y58.91380 ( rapid move to begin. )
F300.00000
G01 Z-0.05000
G04 P0 ( dwell for no time -- G64 should not smooth over this point )
F600.00000
X9.70003 Y58.91380
X9.14049 Y58.80252
X8.66610 Y58.48553
X7.88726 Y57.70941
X7.80996 Y57.66694
X7.69277 Y57.66082
X7.61570 Y57.69368
X7.56554 Y57.74118
X7.51929 Y57.83811
X7.51568 Y58.62299
X7.16496 Y59.47181
X6.51627 Y60.12162
X5.66821 Y60.47374
X4.75023 Y60.47463
X3.90151 Y60.12396
X3.25170 Y59.47527
X2.89958 Y58.62721
X2.89870 Y57.70923
X3.24937 Y56.86051
X3.89806 Y56.21070
X4.74624 Y55.85851
X5.51576 Y55.85546
X5.56826 Y55.84390
X5.65109 Y55.79135
X5.70026 Y55.71769
X5.71746 Y55.63082
X5.70588 Y55.56275
X5.65099 Y55.47042
X4.68465 Y54.50408
X4.36770 Y54.02976
X4.32275 Y53.81894
X4.27024 Y53.73611
X2.75310 Y52.21897
X2.49603 Y51.84218
X2.42257 Y51.79321
X2.33573 Y51.77597
X2.24889 Y51.79321
X2.17525 Y51.84244
X2.12603 Y51.91607
X2.10878 Y52.00297
X2.10878 Y60.88519
X2.12603 Y60.97201
X2.17523 Y61.04567
X2.24886 Y61.09487
X2.33578 Y61.11219
X107.73892 Y61.11219
X107.83476 Y61.09065
X107.92485 Y61.01524
X107.95919 Y60.93881
X107.96150 Y60.84074
X107.92165 Y60.75098
X107.82559 Y60.67536
X107.22871 Y60.42876
X106.57890 Y59.78007
X106.22678 Y58.93201
X106.22590 Y58.01403
X106.57657 Y57.16531
X107.22526 Y56.51550
X108.07331 Y56.16338
X108.99132 Y56.16250
X109.84001 Y56.51317
X110.48987 Y57.16191
X110.73894 Y57.76170
X110.80331 Y57.84768
X110.86180 Y57.88441
X110.92919 Y57.89973
X111.03549 Y57.88436
X111.12157 Y57.81997
X111.15830 Y57.76150
X111.17559 Y57.67468
X111.17559 Y5.64959
X111.15827 Y5.56265
X111.10902 Y5.48899
X111.03533 Y5.43979
X110.94844 Y5.42259
X110.84430 Y5.44913
X110.78794 Y5.48914
X110.74798 Y5.54558
X110.61916 Y5.85241
X109.97047 Y6.50222
X109.12241 Y6.85434
X108.20443 Y6.85523
X107.35571 Y6.50456
X106.70590 Y5.85587
X106.35378 Y5.00781
X106.35290 Y4.08983
X106.70357 Y3.24111
X107.35279 Y2.59075
X107.50255 Y2.52399
X107.57375 Y2.44444
X107.60219 Y2.32590
X107.56437 Y2.20957
X107.49333 Y2.14195
X107.37570 Y2.10878
X56.80118 Y2.10878
X56.71886 Y2.12427
X56.66717 Y2.15285
X56.59143 Y2.24889
X56.57707 Y2.37032
X56.62820 Y2.48112
X57.09468 Y2.80484
X58.02828 Y3.73844
X58.34527 Y4.21284
X58.45215 Y4.74997
X58.34532 Y5.28703
X58.04105 Y5.74240
X57.73961 Y5.94383
X57.67697 Y6.00644
X57.64164 Y6.09800
X57.65030 Y6.20064
X57.69277 Y6.27794
X57.74375 Y6.32394
X57.84095 Y6.35713
X61.13950 Y6.35284
X61.24643 Y6.29292
X61.97656 Y5.55655
X62.00828 Y5.48335
X62.04717 Y5.26735
X62.13703 Y5.12767
X62.27341 Y5.03448
X62.45773 Y4.99714
X63.61409 Y4.99714
X63.78493 Y5.02925
X63.92509 Y5.11944
X64.01036 Y5.21347
X64.12758 Y5.24990
X64.18658 Y5.24411
X64.25928 Y5.21269
X64.33550 Y5.12866
X64.47335 Y5.03451
X64.65778 Y4.99714
X66.71297 Y5.00959
X67.06176 Y5.07896
X67.35772 Y5.27669
X68.23920 Y6.15322
X68.34977 Y6.19231
X68.45165 Y6.18170
X68.99023 Y6.28881
X69.44560 Y6.59307
X69.74987 Y7.04845
X69.86120 Y7.60798
X69.86120 Y9.78212
X69.74992 Y10.34163
X69.43844 Y10.80780
X68.96473 Y11.12670
X68.42777 Y11.23355
X67.89069 Y11.12672
X67.43532 Y10.82245
X67.13105 Y10.36708
X67.02399 Y9.82906
X67.04518 Y9.70229
X67.04518 Y7.60651
X67.06181 Y7.50041
X67.02084 Y7.37166
X66.44647 Y6.79226
X66.37258 Y6.74283
X66.28577 Y6.72559
X64.65648 Y6.73803
X64.48539 Y6.70588
X64.34401 Y6.61487
X64.26784 Y6.52736
X64.17736 Y6.48863
X64.08851 Y6.48987
X64.01104 Y6.52244
X63.93482 Y6.60646
X63.79697 Y6.70062
X63.61232 Y6.73803
X63.30269 Y6.73994
X63.20444 Y6.77123
X62.15776 Y7.80836
X61.86180 Y8.00613
X61.51270 Y8.07560
X47.78037 Y8.07560
X47.69805 Y8.09109
X47.62710 Y8.13546
X47.57062 Y8.21570
X47.55527 Y8.28306
X47.55878 Y8.35162
X47.60404 Y8.44382
X47.84923 Y8.62159
X48.22388 Y8.99624
X48.54087 Y9.47064
X48.56718 Y9.60285
X48.60104 Y9.68461
X48.67214 Y9.75235
X48.77031 Y9.78364
X62.95974 Y9.78558
X63.32768 Y9.85875
X63.62082 Y10.05464
X63.81729 Y10.34867
X63.84356 Y10.45934
X63.89238 Y10.53201
X71.84346 Y18.48307
X72.01954 Y18.74659
X72.08141 Y19.05767
X72.08383 Y19.56056
X72.09531 Y19.61289
X72.14783 Y19.69582
X72.26871 Y19.75876
X72.87194 Y19.76226
X73.04417 Y19.79467
X73.14532 Y19.85490
X73.23099 Y19.87042
X73.31603 Y19.85264
X73.40033 Y19.79998
X73.58598 Y19.76234
X74.14227 Y19.76234
X74.31417 Y19.79467
X74.41532 Y19.85490
X74.50099 Y19.87042
X74.58603 Y19.85264
X74.67033 Y19.79998
X74.85598 Y19.76234
X75.41227 Y19.76234
X75.58417 Y19.79467
X75.68532 Y19.85490
X75.77099 Y19.87042
X75.85603 Y19.85264
X75.94033 Y19.79998
X76.12598 Y19.76234
X76.73789 Y19.76889
X76.86548 Y19.72998
X76.93251 Y19.65901
X76.96344 Y19.56137
X76.96537 Y18.46280
X77.02334 Y18.17139
X77.18856 Y17.92407
X78.26720 Y16.84543
X78.51485 Y16.45635
X78.82333 Y16.14789
X79.10306 Y15.96098
X79.43276 Y15.89537
X84.24514 Y15.89537
X84.57481 Y15.96092
X84.85454 Y16.14784
X101.27612 Y32.56943
X101.46307 Y32.84918
X101.52870 Y33.17908
X101.52870 Y51.28818
X101.54419 Y51.37046
X101.83032 Y51.78806
X101.91308 Y51.84043
X102.03490 Y51.85003
X102.11676 Y51.81615
X102.16695 Y51.76868
X102.37429 Y51.46190
X102.78097 Y51.19014
X103.26067 Y51.09469
X103.74035 Y51.19009
X104.14734 Y51.46205
X104.37032 Y51.78806
X104.44376 Y51.83710
X104.53067 Y51.85438
X104.61749 Y51.83710
X104.69095 Y51.78811
X104.91401 Y51.46207
X105.32097 Y51.19014
X105.80067 Y51.09469
X106.28035 Y51.19009
X106.68904 Y51.46319
X106.76227 Y51.53586
X106.88005 Y51.56911
X106.96692 Y51.55186
X107.04058 Y51.50264
X107.08980 Y51.42900
X107.14479 Y51.29626
X107.25955 Y51.18150
X107.40946 Y51.11938
X107.79071 Y51.11938
X107.79071 Y51.42740
X107.47118 Y51.42931
X107.42000 Y51.45669
X107.39262 Y51.50787
X107.39071 Y52.62024
X106.81449 Y53.19646
X106.74601 Y53.22974
X106.68909 Y53.29148
X106.28040 Y53.56458
X105.79778 Y53.66060
X105.70959 Y53.66154
X105.63263 Y53.69430
X104.10317 Y55.21756
X104.05387 Y55.29130
X104.03662 Y55.37819
X104.04818 Y55.44627
X104.11823 Y55.55112
X104.17670 Y55.58787
X104.24409 Y55.60326
X104.48808 Y55.60519
X104.46364 Y55.74510
X104.46319 Y55.91322
X104.32491 Y55.92081
X104.28003 Y55.95764
X104.26509 Y55.99369
X104.26319 Y56.76318
X104.28003 Y56.81873
X104.34365 Y56.86125
X104.60919 Y56.86318
X104.60919 Y57.14537
X104.58338 Y57.17118
X104.28226 Y57.17118
X104.08892 Y57.09036
X104.00068 Y57.07314
X103.91444 Y57.09074
X103.82613 Y57.14598
X103.63992 Y57.18370
X103.33337 Y57.18797
X103.04061 Y57.24619
X101.95885 Y57.25289
X101.85209 Y57.31266
X101.06817 Y58.09658
X100.77221 Y58.29432
X100.42306 Y58.36379
X98.29391 Y58.36729
X98.18804 Y58.41781
X98.12347 Y58.49737
X97.66688 Y58.80247
X97.10735 Y58.91380
X9.70003 Y58.91380
G04 P0 ( dwell for no time -- G64 should not smooth over this point )
G00 Z5.00000 ( retract )

G00 X33.02739 Y49.14643 ( rapid move to begin. )
F300.00000
G01 Z-0.05000
G04 P0 ( dwell for no time -- G64 should not smooth over this point )
F600.00000
X33.02739 Y49.14643
X54.58099 Y27.59283
X56.75818 Y27.59227
X56.95106 Y27.54957
X57.04776 Y27.49245
X57.12338 Y27.42420
X73.57392 Y27.42420
X73.75598 Y27.38943
X73.84328 Y27.34493
X73.92743 Y27.27772
X76.75692 Y24.44823
X76.86111 Y24.29492
X76.89138 Y24.20175
X76.90340 Y24.09472
X76.90340 Y21.18278
X76.86390 Y20.98916
X76.80340 Y20.88334
X76.80340 Y20.18279
X76.78653 Y20.12721
X76.74165 Y20.09038
X76.70340 Y20.08279
X76.10340 Y20.08279
X76.04783 Y20.09963
X76.00531 Y20.16325
X76.00340 Y20.88352
X75.94285 Y20.98916
X75.90340 Y21.18278
X75.90340 Y23.88758
X73.36678 Y26.42420
X56.91634 Y26.42420
X56.80926 Y26.43616
X56.71609 Y26.46644
X56.63064 Y26.51429
X56.54057 Y26.59283
X54.37395 Y26.59283
X54.26687 Y26.60479
X54.10454 Y26.67205
X54.02039 Y26.73926
X32.17382 Y48.58583
X32.06963 Y48.73914
X32.03552 Y48.85154
X32.02739 Y49.61440
X30.76773 Y49.61440
X30.73715 Y49.58125
X30.68160 Y49.56441
X29.44332 Y49.57201
X29.39844 Y49.60884
X29.38160 Y49.66441
X29.38919 Y50.60264
X29.42602 Y50.64752
X29.48160 Y50.66439
X30.68160 Y50.66439
X30.73715 Y50.64752
X30.76768 Y50.61440
X32.52739 Y50.61440
X32.67727 Y50.58938
X33.16564 Y50.58176
X33.21052 Y50.54493
X33.22739 Y50.48938
X33.22739 Y49.73942
X33.21052 Y49.68384
X33.16564 Y49.64701
X33.02739 Y49.63942
X33.02739 Y49.14643
G04 P0 ( dwell for no time -- G64 should not smooth over this point )
G00 Z5.00000 ( retract )

G00 X34.78139 Y49.35710 ( rapid move to begin. )
F300.00000
G01 Z-0.05000
G04 P0 ( dwell for no time -- G64 should not smooth over this point )
F600.00000
X34.78139 Y49.35710
X34.80709 Y49.33139
X35.10854 Y49.33139
X35.25845 Y49.39347
X35.37321 Y49.50823
X35.43538 Y49.66441
X35.09287 Y49.66441
X35.02738 Y49.63942
X34.78139 Y49.63942
X34.78139 Y49.35710
G04 P0 ( dwell for no time -- G64 should not smooth over this point )
G00 Z5.00000 ( retract )

G00 X35.43538 Y50.56439 ( rapid move to begin. )
F300.00000
G01 Z-0.05000
G04 P0 ( dwell for no time -- G64 should not smooth over this point )
F600.00000
X35.43538 Y50.56439
X35.37326 Y50.72047
X35.25850 Y50.83520
X35.10846 Y50.89738
X34.80714 Y50.89738
X34.78139 Y50.87162
X34.78139 Y50.58938
X35.02738 Y50.58938
X35.09281 Y50.56439
X35.43538 Y50.56439
G04 P0 ( dwell for no time -- G64 should not smooth over this point )
G00 Z5.00000 ( retract )

G00 X36.72466 Y41.63880 ( rapid move to begin. )
F300.00000
G01 Z-0.05000
G04 P0 ( dwell for no time -- G64 should not smooth over this point )
F600.00000
X36.72466 Y41.63880
X31.66074 Y41.63880
X31.50938 Y41.61340
X30.10939 Y41.61340
X29.96019 Y41.63842
X29.47111 Y41.64601
X29.42623 Y41.68284
X29.40939 Y41.73842
X29.41129 Y42.50789
X29.43867 Y42.55907
X29.48985 Y42.58645
X29.70860 Y42.58838
X29.70860 Y43.44301
X29.57032 Y43.45061
X29.52544 Y43.48744
X29.51050 Y43.52348
X29.51619 Y44.48124
X29.55302 Y44.52612
X29.60860 Y44.54299
X30.80860 Y44.54299
X30.86415 Y44.52612
X30.89173 Y44.49854
X30.90860 Y44.44299
X30.90860 Y43.54301
X30.89173 Y43.48744
X30.84685 Y43.45061
X30.70860 Y43.44301
X30.70860 Y42.61340
X31.38271 Y42.61340
X31.53478 Y42.63880
X36.93180 Y42.63880
X37.11387 Y42.60403
X37.21745 Y42.54865
X53.48480 Y26.29281
X56.21708 Y26.29248
X56.37842 Y26.26281
X56.47245 Y26.21734
X56.65647 Y26.05260
X57.03366 Y26.05204
X57.13725 Y26.03893
X57.23933 Y26.00259
X73.17773 Y26.00259
X73.27503 Y25.99154
X73.41931 Y25.93175
X73.49589 Y25.87076
X75.45156 Y23.91509
X75.55242 Y23.75987
X75.58339 Y23.59693
X75.58339 Y21.18278
X75.57081 Y21.07910
X75.53340 Y20.97951
X75.53340 Y20.18279
X75.51653 Y20.12721
X75.47165 Y20.09038
X75.43340 Y20.08279
X74.83340 Y20.08279
X74.77783 Y20.09963
X74.73531 Y20.16325
X74.73340 Y20.97936
X74.69594 Y21.07910
X74.68341 Y21.18278
X74.68341 Y23.41049
X72.99129 Y25.10261
X57.23948 Y25.10261
X57.13725 Y25.06622
X57.03364 Y25.05313
X56.44944 Y25.05260
X56.34235 Y25.06456
X56.18002 Y25.13182
X56.00209 Y25.29281
X53.27777 Y25.29281
X53.16367 Y25.30642
X53.06504 Y25.34076
X52.92420 Y25.43924
X36.72466 Y41.63880
G04 P0 ( dwell for no time -- G64 should not smooth over this point )
G00 Z5.00000 ( retract )

G00 X38.62496 Y37.80261 ( rapid move to begin. )
F300.00000
G01 Z-0.05000
G04 P0 ( dwell for no time -- G64 should not smooth over this point )
F600.00000
X38.62496 Y37.80261
X29.43258 Y37.80261
X28.76336 Y37.13340
X28.76336 Y36.71979
X28.95163 Y36.71217
X28.99651 Y36.67534
X29.01338 Y36.61979
X29.01338 Y35.71981
X28.99651 Y35.66424
X28.96339 Y35.63371
X28.96339 Y34.84138
X29.10164 Y34.83376
X29.14652 Y34.79693
X29.16339 Y34.74138
X29.16339 Y33.99142
X29.14652 Y33.93584
X29.08290 Y33.89332
X28.61122 Y33.89142
X28.51706 Y33.86927
X28.42156 Y33.86859
X28.31554 Y33.89142
X27.84386 Y33.89332
X27.78023 Y33.93584
X27.76339 Y33.99142
X27.76530 Y34.76089
X27.78023 Y34.79693
X27.82511 Y34.83376
X27.96339 Y34.84138
X27.96339 Y35.61981
X27.69385 Y35.62172
X27.62725 Y35.66980
X21.16229 Y35.66980
X19.56651 Y34.07402
X19.48230 Y34.00676
X19.39506 Y33.96231
X19.21299 Y33.92759
X14.46139 Y33.92759
X14.34218 Y33.72223
X14.18173 Y33.54321
X13.98013 Y33.39406
X13.74218 Y33.28632
X13.48636 Y33.23364
X13.24597 Y33.23417
X13.00058 Y33.28632
X12.78072 Y33.38362
X12.57658 Y33.52922
X12.39487 Y33.73102
X12.27516 Y33.93950
X12.19598 Y34.18842
X12.17193 Y34.43803
X12.20033 Y34.68718
X12.27516 Y34.91562
X12.40056 Y35.13290
X12.56842 Y35.31933
X12.76263 Y35.46109
X13.00055 Y35.56884
X13.23563 Y35.61936
X13.50713 Y35.61936
X13.74218 Y35.56884
X13.96205 Y35.47153
X14.18173 Y35.31194
X14.34221 Y35.13292
X14.46133 Y34.92759
X19.00590 Y34.92759
X20.60163 Y36.52332
X20.68578 Y36.59053
X20.84811 Y36.65778
X20.95520 Y36.66980
X27.62725 Y36.66980
X27.69385 Y36.71786
X27.86339 Y36.71979
X27.86385 Y37.32954
X27.87439 Y37.41704
X27.93413 Y37.56131
X27.99517 Y37.63795
X28.92798 Y38.57076
X29.06506 Y38.66411
X29.16806 Y38.69537
X38.81140 Y38.70259
X38.90871 Y38.69154
X39.05298 Y38.63175
X39.12956 Y38.57076
X52.96151 Y24.73878
X72.74445 Y24.73878
X72.84176 Y24.72773
X72.98603 Y24.66794
X73.06261 Y24.60696
X74.18156 Y23.48801
X74.28242 Y23.33279
X74.31339 Y23.16985
X74.31339 Y21.18278
X74.30081 Y21.07910
X74.26340 Y20.97951
X74.25578 Y20.14451
X74.21895 Y20.09963
X74.16340 Y20.08279
X73.56340 Y20.08279
X73.50783 Y20.09963
X73.47100 Y20.14451
X73.46340 Y20.97936
X73.42594 Y21.07910
X73.41341 Y21.18278
X73.41341 Y22.98342
X72.55802 Y23.83881
X52.77518 Y23.83881
X52.67149 Y23.85133
X52.58511 Y23.88115
X52.45697 Y23.97059
X38.62496 Y37.80261
G04 P0 ( dwell for no time -- G64 should not smooth over this point )
G00 Z5.00000 ( retract )

G00 X48.58585 Y38.52357 ( rapid move to begin. )
F300.00000
G01 Z-0.05000
G04 P0 ( dwell for no time -- G64 should not smooth over this point )
F600.00000
X48.58585 Y38.52357
X57.54812 Y29.56130
X57.82785 Y29.37439
X58.15774 Y29.30875
X60.02975 Y29.30423
X60.11189 Y29.26976
X60.29754 Y29.13372
X60.48197 Y29.09636
X61.33830 Y29.09636
X61.50914 Y29.12849
X61.64925 Y29.21863
X61.74244 Y29.35501
X61.77983 Y29.53959
X61.77983 Y30.69544
X61.74768 Y30.86653
X61.65748 Y31.00669
X61.56345 Y31.09196
X61.53145 Y31.16968
X61.52728 Y31.22881
X61.56421 Y31.34085
X61.64826 Y31.41710
X61.74242 Y31.55495
X61.77983 Y31.73961
X61.77983 Y32.38680
X61.79708 Y32.47362
X61.84628 Y32.54728
X61.93815 Y32.60209
X62.36914 Y32.69028
X62.66459 Y32.69465
X62.89444 Y32.74039
X63.03944 Y32.74476
X63.12827 Y32.72749
X63.20188 Y32.67827
X63.51374 Y32.36369
X63.55059 Y32.30489
X63.56759 Y32.22254
X63.53805 Y32.10839
X63.46520 Y32.02861
X63.38272 Y31.99534
X63.25357 Y31.97103
X63.11341 Y31.88086
X63.02032 Y31.74459
X62.98295 Y31.56016
X62.98295 Y29.60382
X63.01509 Y29.43296
X63.10526 Y29.29283
X63.24155 Y29.19971
X63.42596 Y29.16235
X63.98232 Y29.16235
X64.15412 Y29.19466
X64.25532 Y29.25490
X64.34099 Y29.27042
X64.42603 Y29.25264
X64.51041 Y29.19994
X64.69593 Y29.16235
X65.25232 Y29.16235
X65.42412 Y29.19466
X65.52532 Y29.25490
X65.61099 Y29.27042
X65.69603 Y29.25264
X65.78041 Y29.19994
X65.96593 Y29.16235
X66.52232 Y29.16235
X66.69412 Y29.19466
X66.79532 Y29.25490
X66.88099 Y29.27042
X66.96603 Y29.25264
X67.05041 Y29.19994
X67.23593 Y29.16235
X67.79232 Y29.16235
X67.96422 Y29.19468
X68.05638 Y29.24924
X68.14088 Y29.26491
X68.33341 Y29.20324
X68.33341 Y31.96226
X68.22711 Y31.91822
X68.13926 Y31.90097
X68.05295 Y31.91842
X67.97657 Y31.96549
X67.79049 Y32.00323
X67.22839 Y32.00323
X67.14149 Y32.02048
X67.06786 Y32.06971
X67.00497 Y32.19033
X67.00149 Y32.46389
X66.93959 Y32.77509
X66.76352 Y33.03861
X63.23927 Y36.56286
X62.97574 Y36.73894
X62.66495 Y36.80079
X58.59256 Y36.80079
X58.50567 Y36.81803
X58.40963 Y36.89378
X58.19823 Y37.20932
X57.77278 Y37.63477
X57.37413 Y37.89197
X54.38526 Y40.88086
X54.12173 Y41.05694
X53.81094 Y41.11879
X52.28318 Y41.11879
X52.19588 Y41.13621
X52.10434 Y41.19359
X51.91854 Y41.23123
X50.76268 Y41.23123
X50.59159 Y41.19908
X50.45143 Y41.10888
X50.36611 Y41.01482
X50.28839 Y40.98285
X50.22928 Y40.97868
X50.11724 Y41.01564
X49.99258 Y41.14927
X49.95123 Y41.26283
X49.94938 Y41.58831
X49.88379 Y41.91823
X49.69687 Y42.19796
X49.36335 Y42.53148
X49.30358 Y42.63824
X49.30122 Y42.73628
X49.41420 Y43.30420
X49.41420 Y43.53870
X49.30292 Y44.09821
X49.18562 Y44.27903
X49.16419 Y44.37476
X49.16419 Y55.87078
X49.18143 Y55.95759
X49.23063 Y56.03125
X49.30427 Y56.08045
X49.37165 Y56.09585
X50.49563 Y56.09585
X50.55839 Y56.08223
X50.61729 Y56.04708
X50.78565 Y55.81606
X52.32687 Y54.27484
X52.45539 Y54.18478
X52.51480 Y54.08442
X52.52483 Y49.41323
X52.59806 Y49.04514
X52.80665 Y48.73294
X63.43927 Y38.11163
X63.77975 Y37.89614
X63.96487 Y37.72875
X68.65206 Y33.04156
X68.91650 Y32.86488
X68.99615 Y32.83059
X69.25429 Y32.57245
X69.29346 Y32.46188
X69.29539 Y32.21703
X69.27984 Y32.13471
X69.23339 Y32.06338
X69.23339 Y29.20329
X69.42739 Y29.26453
X69.51378 Y29.24711
X69.59015 Y29.19999
X69.77596 Y29.16235
X70.33232 Y29.16235
X70.50412 Y29.19466
X70.60532 Y29.25490
X70.69099 Y29.27042
X70.77603 Y29.25264
X70.86041 Y29.19994
X71.04593 Y29.16235
X71.60232 Y29.16235
X71.77412 Y29.19466
X71.87532 Y29.25490
X71.96099 Y29.27042
X72.04603 Y29.25264
X72.13041 Y29.19994
X72.31593 Y29.16235
X72.87232 Y29.16235
X73.04412 Y29.19466
X73.14532 Y29.25490
X73.23099 Y29.27042
X73.31603 Y29.25264
X73.40041 Y29.19994
X73.58593 Y29.16235
X74.14232 Y29.16235
X74.31412 Y29.19466
X74.41532 Y29.25490
X74.50099 Y29.27042
X74.58603 Y29.25264
X74.67041 Y29.19994
X74.85593 Y29.16235
X75.41232 Y29.16235
X75.58412 Y29.19466
X75.68532 Y29.25490
X75.77099 Y29.27042
X75.85603 Y29.25264
X75.94041 Y29.19994
X76.12593 Y29.16235
X76.68232 Y29.16235
X76.85412 Y29.19466
X76.95532 Y29.25490
X77.04099 Y29.27042
X77.12603 Y29.25264
X77.21041 Y29.19994
X77.39593 Y29.16235
X77.95232 Y29.16235
X78.12412 Y29.19466
X78.22532 Y29.25490
X78.31099 Y29.27042
X78.39603 Y29.25264
X78.48041 Y29.19994
X78.66593 Y29.16235
X79.22232 Y29.16235
X79.39412 Y29.19466
X79.49532 Y29.25490
X79.58099 Y29.27042
X79.66603 Y29.25264
X79.75041 Y29.19994
X79.93593 Y29.16235
X80.49232 Y29.16235
X80.66313 Y29.19445
X80.80329 Y29.28465
X80.89641 Y29.42094
X80.93382 Y29.60560
X80.93382 Y30.39397
X80.97139 Y30.60463
X80.97139 Y39.08206
X81.01243 Y39.21214
X92.84639 Y51.05042
X92.95541 Y51.10599
X93.10067 Y51.09469
X93.58035 Y51.19009
X93.98706 Y51.46184
X94.19437 Y51.76863
X94.24451 Y51.81607
X94.32630 Y51.84998
X94.43369 Y51.84434
X94.53435 Y51.78458
X94.75493 Y51.46073
X94.81728 Y51.41417
X94.87110 Y51.32291
X94.88271 Y51.25478
X94.88271 Y33.68621
X94.86539 Y33.59929
X94.81619 Y33.52569
X83.06026 Y21.76975
X82.90222 Y21.54103
X81.43908 Y20.07786
X81.33232 Y20.01809
X81.18975 Y20.01174
X81.06824 Y20.05246
X81.00961 Y20.11228
X80.97576 Y20.19394
X80.97141 Y21.16071
X80.93382 Y21.37161
X80.93382 Y22.16145
X80.90164 Y22.33257
X80.81147 Y22.47270
X80.67517 Y22.56581
X80.49051 Y22.60323
X79.93466 Y22.60323
X79.76255 Y22.57087
X79.66133 Y22.51059
X79.57566 Y22.49510
X79.49064 Y22.51293
X79.40637 Y22.56559
X79.22054 Y22.60323
X78.66466 Y22.60323
X78.49255 Y22.57087
X78.39133 Y22.51059
X78.30566 Y22.49510
X78.22064 Y22.51293
X78.13637 Y22.56559
X77.95054 Y22.60323
X77.43840 Y22.60323
X77.35608 Y22.61872
X77.30439 Y22.64730
X77.22865 Y22.74333
X77.21140 Y22.83023
X77.21140 Y24.07224
X77.14579 Y24.40213
X76.95887 Y24.68189
X74.16114 Y27.47962
X73.88138 Y27.66654
X73.55144 Y27.73220
X57.27824 Y27.73220
X57.19206 Y27.74917
X57.05594 Y27.83502
X56.72523 Y27.90083
X54.80266 Y27.90083
X54.67251 Y27.94188
X33.66556 Y48.94384
X33.61634 Y49.01750
X33.59919 Y49.09947
X33.60912 Y49.16739
X33.64976 Y49.24562
X33.69592 Y49.29027
X33.75794 Y49.31979
X34.04763 Y49.33139
X34.07339 Y49.35715
X34.07339 Y49.63942
X33.80785 Y49.64132
X33.74423 Y49.68384
X33.72739 Y49.73942
X33.72929 Y50.50889
X33.75667 Y50.56007
X33.80785 Y50.58745
X34.07339 Y50.58938
X34.07339 Y50.87157
X34.04758 Y50.89738
X33.74646 Y50.89738
X33.55312 Y50.81656
X33.46488 Y50.79934
X33.37864 Y50.81694
X33.29033 Y50.87218
X33.10453 Y50.90983
X30.95020 Y50.92240
X30.65874 Y50.98483
X29.50288 Y50.98483
X29.33179 Y50.95268
X29.19163 Y50.86248
X29.10631 Y50.76842
X28.98912 Y50.73203
X28.93014 Y50.73782
X28.85744 Y50.76924
X28.78122 Y50.85326
X28.64337 Y50.94742
X28.45872 Y50.98483
X27.30286 Y50.98483
X27.01803 Y50.92240
X14.96123 Y50.92590
X14.90934 Y50.94163
X14.83995 Y50.98907
X14.24660 Y51.58745
X14.20754 Y51.69799
X14.20563 Y51.92984
X14.17348 Y52.10093
X14.08247 Y52.24231
X13.99502 Y52.31841
X13.95623 Y52.40891
X13.95745 Y52.49776
X13.99001 Y52.57525
X14.07406 Y52.65150
X14.16822 Y52.78935
X14.20563 Y52.97401
X14.20563 Y53.36235
X14.24320 Y53.57304
X14.24320 Y54.68107
X14.26045 Y54.76788
X14.30967 Y54.84154
X15.49938 Y56.03125
X15.57299 Y56.08045
X15.65991 Y56.09778
X46.62119 Y56.09778
X46.70806 Y56.08048
X46.80407 Y56.00474
X46.83264 Y55.95307
X46.84819 Y55.87078
X46.84819 Y44.37476
X46.82764 Y44.28114
X46.70945 Y44.09826
X46.59818 Y43.53900
X46.59818 Y43.30397
X46.70940 Y42.74469
X47.01367 Y42.28932
X47.46996 Y41.98444
X47.58212 Y41.95816
X47.72187 Y41.88137
X48.21918 Y41.39024
X48.26894 Y41.31569
X48.28590 Y41.22811
X48.27376 Y41.15963
X48.15845 Y40.97322
X48.12096 Y40.78815
X48.12096 Y39.93182
X48.15306 Y39.76098
X48.29848 Y39.56024
X48.32903 Y39.48356
X48.33328 Y39.13345
X48.39893 Y38.80330
X48.58585 Y38.52357
G04 P0 ( dwell for no time -- G64 should not smooth over this point )
G00 Z5.00000 ( retract )

G00 X58.33773 Y36.49279 ( rapid move to begin. )
F300.00000
G01 Z-0.05000
G04 P0 ( dwell for no time -- G64 should not smooth over this point )
F600.00000
X58.33773 Y36.49279
X62.68740 Y36.49279
X62.85034 Y36.46182
X62.99830 Y36.36756
X66.56156 Y32.80496
X66.65491 Y32.66785
X66.69339 Y32.48680
X66.69339 Y30.58279
X66.68081 Y30.47911
X66.64340 Y30.37951
X66.64340 Y29.58279
X66.61409 Y29.51208
X66.54340 Y29.48279
X65.94340 Y29.48279
X65.88783 Y29.49963
X65.84531 Y29.56326
X65.84340 Y30.37936
X65.80594 Y30.47911
X65.79341 Y30.58279
X65.79341 Y32.30036
X62.50096 Y35.59281
X58.50008 Y35.59281
X58.61227 Y35.39800
X58.68334 Y35.17928
X58.70740 Y34.95060
X58.70740 Y34.39180
X58.68497 Y34.17341
X58.61603 Y33.95413
X58.49726 Y33.74519
X58.35081 Y33.58172
X58.16617 Y33.44486
X57.93717 Y33.34291
X57.71192 Y33.29726
X57.49239 Y33.29780
X57.26745 Y33.34560
X57.06671 Y33.43440
X56.87946 Y33.56772
X56.71749 Y33.74519
X56.60247 Y33.94435
X56.52978 Y34.17341
X56.50740 Y34.39180
X56.50740 Y34.95060
X56.53412 Y35.18939
X56.60247 Y35.39797
X56.71746 Y35.59713
X56.87946 Y35.77463
X57.05741 Y35.90320
X57.05741 Y36.35893
X56.69506 Y36.73599
X56.63671 Y36.84686
X56.60893 Y36.94884
X53.64696 Y39.91081
X52.04140 Y39.91081
X52.01208 Y39.84010
X51.94140 Y39.81081
X50.74140 Y39.81081
X50.68582 Y39.82765
X50.64899 Y39.87254
X50.64140 Y39.91081
X50.64140 Y40.81079
X50.65824 Y40.86634
X50.68582 Y40.89392
X50.74140 Y40.91079
X51.94140 Y40.91079
X52.01208 Y40.88147
X52.04140 Y40.81079
X53.83339 Y40.81079
X53.93070 Y40.79974
X54.07497 Y40.73995
X54.15155 Y40.67896
X57.24535 Y37.58516
X57.34725 Y37.55743
X57.44065 Y37.51044
X57.53907 Y37.43287
X58.00288 Y36.96840
X58.11131 Y36.80610
X58.14847 Y36.68204
X58.33773 Y36.49279
G04 P0 ( dwell for no time -- G64 should not smooth over this point )
G00 Z5.00000 ( retract )

G00 X61.45939 Y32.65441 ( rapid move to begin. )
F300.00000
G01 Z-0.05000
G04 P0 ( dwell for no time -- G64 should not smooth over this point )
F600.00000
X61.45939 Y32.65441
X61.45939 Y31.71680
X61.43007 Y31.64609
X61.35939 Y31.61680
X60.45941 Y31.61680
X60.38870 Y31.64609
X60.35941 Y31.71680
X60.36132 Y32.93630
X60.37625 Y32.97235
X60.42114 Y33.00918
X60.55593 Y33.01680
X60.57928 Y33.04519
X60.49182 Y33.09516
X60.31392 Y33.25746
X60.19104 Y33.42660
X60.09556 Y33.63569
X60.04346 Y33.88085
X60.04346 Y34.08992
X60.08911 Y34.31517
X60.18535 Y34.53539
X60.32792 Y34.72881
X60.49139 Y34.87526
X60.70033 Y34.99403
X60.91961 Y35.06297
X61.13800 Y35.08540
X61.82380 Y35.08540
X62.05248 Y35.06134
X62.27120 Y34.99027
X62.46157 Y34.88098
X62.64780 Y34.71329
X62.77640 Y34.53539
X62.86995 Y34.32528
X62.91775 Y34.10023
X62.91798 Y33.95279
X63.51199 Y33.94814
X63.63119 Y33.91438
X63.72004 Y33.86196
X65.29156 Y32.29696
X65.35255 Y32.22038
X65.41234 Y32.07611
X65.42339 Y31.97880
X65.42339 Y30.58279
X65.41081 Y30.47911
X65.37340 Y30.37951
X65.37340 Y29.58279
X65.35653 Y29.52722
X65.31165 Y29.49039
X65.27340 Y29.48279
X64.67340 Y29.48279
X64.63512 Y29.49039
X64.59024 Y29.52722
X64.57340 Y29.58279
X64.57340 Y30.37936
X64.53594 Y30.47911
X64.52341 Y30.58279
X64.52341 Y31.79236
X63.26296 Y33.05281
X62.90368 Y33.05281
X62.80145 Y33.01642
X62.69784 Y33.00333
X62.31397 Y33.00455
X62.04214 Y32.90778
X61.69037 Y32.88540
X61.45939 Y32.65441
G04 P0 ( dwell for no time -- G64 should not smooth over this point )
G00 Z5.00000 ( retract )

G00 X63.30340 Y29.58279 ( rapid move to begin. )
F300.00000
G01 Z-0.05000
G04 P0 ( dwell for no time -- G64 should not smooth over this point )
F600.00000
X63.30340 Y29.58279
X63.31100 Y31.62104
X63.34783 Y31.66592
X63.40340 Y31.68279
X64.04165 Y31.67517
X64.08653 Y31.63834
X64.10340 Y31.58279
X64.09578 Y29.54451
X64.05895 Y29.49963
X64.00340 Y29.48279
X63.40340 Y29.48279
X63.33269 Y29.51208
X63.30340 Y29.58279
G04 P0 ( dwell for no time -- G64 should not smooth over this point )
G00 Z5.00000 ( retract )

G00 X67.11340 Y29.58279 ( rapid move to begin. )
F300.00000
G01 Z-0.05000
G04 P0 ( dwell for no time -- G64 should not smooth over this point )
F600.00000
X67.11340 Y29.58279
X67.12100 Y31.62104
X67.15783 Y31.66592
X67.21340 Y31.68279
X67.85165 Y31.67517
X67.89653 Y31.63834
X67.91340 Y31.58279
X67.90578 Y29.54451
X67.86895 Y29.49963
X67.81340 Y29.48279
X67.21340 Y29.48279
X67.14269 Y29.51208
X67.11340 Y29.58279
G04 P0 ( dwell for no time -- G64 should not smooth over this point )
G00 Z5.00000 ( retract )

G00 X68.38340 Y20.18279 ( rapid move to begin. )
F300.00000
G01 Z-0.05000
G04 P0 ( dwell for no time -- G64 should not smooth over this point )
F600.00000
X68.38340 Y20.18279
X68.39100 Y22.22103
X68.42783 Y22.26592
X68.48340 Y22.28278
X69.12165 Y22.27516
X69.16653 Y22.23833
X69.18340 Y22.18278
X69.17578 Y20.14451
X69.13895 Y20.09963
X69.08340 Y20.08279
X68.48340 Y20.08279
X68.41269 Y20.11207
X68.38340 Y20.18279
G04 P0 ( dwell for no time -- G64 should not smooth over this point )
G00 Z5.00000 ( retract )

G00 X64.52341 Y19.80326 ( rapid move to begin. )
F300.00000
G01 Z-0.05000
G04 P0 ( dwell for no time -- G64 should not smooth over this point )
F600.00000
X64.52341 Y19.80326
X64.52341 Y20.73280
X64.10340 Y20.73280
X64.10340 Y20.18279
X64.08653 Y20.12721
X64.05740 Y20.09881
X64.05740 Y19.80049
X64.08453 Y19.77479
X64.25151 Y19.84392
X64.33835 Y19.86117
X64.52341 Y19.80326
G04 P0 ( dwell for no time -- G64 should not smooth over this point )
G00 Z5.00000 ( retract )

G00 X62.99537 Y20.10158 ( rapid move to begin. )
F300.00000
G01 Z-0.05000
G04 P0 ( dwell for no time -- G64 should not smooth over this point )
F600.00000
X62.99537 Y20.10158
X63.05748 Y19.95167
X63.17224 Y19.83691
X63.32215 Y19.77479
X63.34940 Y19.80054
X63.34940 Y20.09876
X63.32024 Y20.12721
X63.30340 Y20.18279
X63.30340 Y20.82878
X63.02113 Y20.82878
X62.99537 Y20.80303
X62.99537 Y20.10158
G04 P0 ( dwell for no time -- G64 should not smooth over this point )
G00 Z5.00000 ( retract )

G00 X62.64902 Y16.08945 ( rapid move to begin. )
F300.00000
G01 Z-0.05000
G04 P0 ( dwell for no time -- G64 should not smooth over this point )
F600.00000
X62.64902 Y16.08945
X62.76634 Y16.16075
X62.92187 Y16.20510
X63.39367 Y16.21160
X64.65768 Y17.47484
X64.75641 Y17.55198
X64.85910 Y17.60372
X65.03372 Y17.63951
X67.06341 Y19.66917
X67.06341 Y21.18278
X67.07441 Y21.28009
X67.11340 Y21.38543
X67.12100 Y22.22103
X67.15783 Y22.26592
X67.21340 Y22.28278
X67.81340 Y22.28278
X67.88409 Y22.25347
X67.91340 Y22.18278
X67.91340 Y21.53356
X68.01734 Y21.41654
X68.05757 Y21.33158
X68.08145 Y21.14618
X68.05757 Y21.03394
X67.96339 Y20.87765
X67.96290 Y19.47296
X67.93242 Y19.31980
X67.88167 Y19.22488
X65.67012 Y17.00316
X65.63431 Y16.82856
X65.57736 Y16.71680
X65.50543 Y16.62709
X64.06642 Y15.18732
X63.96705 Y15.10764
X63.86251 Y15.05394
X63.74950 Y15.02166
X63.52791 Y15.01160
X63.52735 Y14.89659
X63.47955 Y14.67165
X63.38031 Y14.45280
X63.24343 Y14.26814
X63.07993 Y14.12166
X62.89012 Y14.01142
X62.67219 Y13.93832
X62.44384 Y13.91214
X62.17983 Y13.93550
X61.96055 Y14.00667
X61.76139 Y14.12169
X61.59792 Y14.26814
X61.46104 Y14.45280
X61.36180 Y14.67165
X61.31400 Y14.89659
X61.31346 Y15.11612
X61.35911 Y15.34137
X61.46106 Y15.57037
X61.59792 Y15.75501
X61.77018 Y15.90718
X61.96055 Y16.01647
X62.17981 Y16.08765
X62.42405 Y16.11114
X62.64902 Y16.08945
G04 P0 ( dwell for no time -- G64 should not smooth over this point )
G00 Z5.00000 ( retract )

G00 X66.50738 Y6.41759 ( rapid move to begin. )
F300.00000
G01 Z-0.05000
G04 P0 ( dwell for no time -- G64 should not smooth over this point )
F600.00000
X66.50738 Y6.41759
X67.39382 Y7.30397
X67.35320 Y7.58558
X67.35320 Y9.61146
X67.32928 Y9.88753
X67.36849 Y10.12464
X67.45290 Y10.33841
X67.57289 Y10.52220
X67.73552 Y10.68484
X67.93794 Y10.81433
X68.14304 Y10.89248
X68.37019 Y10.92847
X68.58945 Y10.91753
X68.82196 Y10.85692
X69.01782 Y10.75773
X69.20557 Y10.60777
X69.37281 Y10.40729
X69.47276 Y10.21628
X69.53349 Y10.00948
X69.55272 Y9.81440
X69.55264 Y7.57511
X69.52643 Y7.34674
X69.46183 Y7.14791
X69.33648 Y6.93084
X69.19661 Y6.77550
X69.01197 Y6.63864
X68.79308 Y6.53938
X68.55772 Y6.49104
X68.33799 Y6.49160
X68.17238 Y6.52693
X67.12407 Y5.47868
X67.03230 Y5.40522
X66.93639 Y5.35615
X66.73519 Y5.31761
X64.63520 Y5.31761
X64.57962 Y5.33445
X64.54279 Y5.37934
X64.53520 Y6.31759
X64.55204 Y6.37314
X64.59692 Y6.40997
X66.50738 Y6.41759
G04 P0 ( dwell for no time -- G64 should not smooth over this point )
G00 Z5.00000 ( retract )

G00 X74.91151 Y4.31541 ( rapid move to begin. )
F300.00000
G01 Z-0.05000
G04 P0 ( dwell for no time -- G64 should not smooth over this point )
F600.00000
X74.91151 Y4.31541
X109.73219 Y7.97522
X108.73227 Y17.48886
X73.91158 Y13.82905
X74.91151 Y4.31541
G04 P0 ( dwell for no time -- G64 should not smooth over this point )
G00 Z5.00000 ( retract )

G00 X77.19565 Y10.65949 ( rapid move to begin. )
F300.00000
G01 Z-0.05000
G04 P0 ( dwell for no time -- G64 should not smooth over this point )
F600.00000
X77.19565 Y10.65949
X78.05262 Y10.53188
X78.21272 Y10.48870
X78.79580 Y10.24102
X79.14586 Y9.93503
X79.23184 Y9.83721
X79.29532 Y9.73376
X79.56834 Y9.16287
X79.59902 Y8.94047
X79.58919 Y8.45345
X79.55290 Y8.24750
X79.22206 Y7.56892
X78.91269 Y7.21687
X78.75262 Y7.08533
X78.17281 Y6.74481
X77.97449 Y6.69473
X76.67772 Y6.56757
X76.54948 Y6.58543
X75.84381 Y6.75068
X75.71034 Y6.79653
X75.57097 Y6.87895
X75.45402 Y6.99094
X75.37942 Y7.09820
X75.31869 Y7.23696
X75.28666 Y7.39564
X75.29167 Y7.55749
X75.32832 Y7.70445
X75.38885 Y7.83191
X75.47371 Y7.94471
X75.58689 Y8.04535
X75.73782 Y8.12838
X75.88341 Y8.17011
X76.01361 Y8.18108
X76.17442 Y8.16246
X76.76075 Y8.02513
X77.66177 Y8.11984
X77.91186 Y8.27128
X78.01262 Y8.38179
X78.14300 Y8.64900
X78.14579 Y8.79038
X78.05730 Y8.96752
X78.01935 Y9.00267
X77.75364 Y9.11039
X76.81821 Y9.25433
X76.25384 Y9.47719
X76.13817 Y9.53861
X76.04181 Y9.61341
X75.71737 Y9.93269
X75.42326 Y10.49840
X75.35877 Y10.70511
X75.35021 Y10.82944
X75.36004 Y11.31646
X75.39192 Y11.50858
X75.72718 Y12.20101
X76.03657 Y12.55303
X76.19062 Y12.68064
X76.76289 Y13.01938
X76.96748 Y13.07414
X78.15869 Y13.19961
X78.28816 Y13.20129
X79.11546 Y13.01635
X79.24853 Y12.96947
X79.36956 Y12.89690
X79.48876 Y12.78730
X79.57985 Y12.65344
X79.63657 Y12.51303
X79.66255 Y12.37429
X79.65760 Y12.21247
X79.62094 Y12.06553
X79.55452 Y11.92939
X79.47556 Y11.82527
X79.36242 Y11.72464
X79.23075 Y11.64968
X79.07624 Y11.60124
X78.91480 Y11.58928
X78.77485 Y11.60744
X78.18844 Y11.74478
X77.28747 Y11.65006
X77.03733 Y11.49858
X76.93665 Y11.38819
X76.80624 Y11.12090
X76.80345 Y10.97955
X76.89197 Y10.80241
X76.92987 Y10.76729
X77.19565 Y10.65949
G04 P0 ( dwell for no time -- G64 should not smooth over this point )
G00 Z5.00000 ( retract )

G00 X81.79186 Y8.55393 ( rapid move to begin. )
F300.00000
G01 Z-0.05000
G04 P0 ( dwell for no time -- G64 should not smooth over this point )
F600.00000
X81.79186 Y8.55393
X82.16079 Y8.59272
X82.39816 Y8.73645
X82.44923 Y11.33617
X82.46803 Y11.48654
X82.52264 Y11.63896
X82.59605 Y11.75949
X82.70791 Y11.87653
X82.82396 Y11.95677
X82.96364 Y12.01570
X83.12292 Y12.04463
X83.26399 Y12.04132
X83.40158 Y12.00980
X83.53961 Y11.94747
X83.66970 Y11.85108
X83.77440 Y11.72758
X83.84563 Y11.59393
X83.88357 Y11.46888
X83.89861 Y11.31814
X83.83224 Y7.93861
X83.81418 Y7.79863
X83.76846 Y7.66513
X83.67943 Y7.51771
X83.57430 Y7.40867
X83.45820 Y7.32843
X83.32838 Y7.27308
X83.18012 Y7.24235
X83.00791 Y7.24575
X82.82439 Y7.29940
X82.67187 Y7.21769
X82.48078 Y7.16864
X81.63679 Y7.09104
X81.42262 Y7.13938
X80.93791 Y7.33600
X80.82247 Y7.39724
X80.73321 Y7.46597
X80.63369 Y7.57623
X80.34266 Y8.13485
X80.27258 Y8.36483
X80.31810 Y11.11217
X80.33689 Y11.26253
X80.39150 Y11.41496
X80.46491 Y11.53548
X80.56097 Y11.63886
X80.69282 Y11.73276
X80.84268 Y11.79421
X80.99178 Y11.82062
X81.12242 Y11.81808
X81.27045 Y11.78580
X81.42635 Y11.71267
X81.54583 Y11.61953
X81.63133 Y11.52073
X81.70636 Y11.38918
X81.75495 Y11.23470
X81.76783 Y11.08367
X81.71952 Y8.62335
X81.74461 Y8.57311
X81.79186 Y8.55393
G04 P0 ( dwell for no time -- G64 should not smooth over this point )
G00 Z5.00000 ( retract )

G00 X86.48933 Y10.94138 ( rapid move to begin. )
F300.00000
G01 Z-0.05000
G04 P0 ( dwell for no time -- G64 should not smooth over this point )
F600.00000
X86.48933 Y10.94138
X86.25200 Y10.79766
X86.20092 Y8.19792
X86.18210 Y8.04750
X86.13638 Y7.91400
X86.05997 Y7.78324
X85.95802 Y7.67120
X85.81669 Y7.57273
X85.67633 Y7.51588
X85.53762 Y7.48980
X85.39652 Y7.49203
X85.23851 Y7.52721
X85.09261 Y7.59742
X84.98042 Y7.68304
X84.88766 Y7.78939
X84.80806 Y7.93036
X84.76264 Y8.08578
X84.75119 Y8.22642
X84.81715 Y11.58504
X84.83887 Y11.74549
X84.89056 Y11.88783
X84.96396 Y12.00835
X85.06002 Y12.11173
X85.18301 Y12.20010
X85.34174 Y12.26708
X85.49083 Y12.29350
X85.62147 Y12.29096
X85.82576 Y12.23469
X85.97826 Y12.31638
X86.16934 Y12.36545
X87.01331 Y12.44305
X87.22748 Y12.39471
X87.71222 Y12.19809
X87.81239 Y12.14653
X87.91692 Y12.06812
X88.01648 Y11.95783
X88.30749 Y11.39921
X88.37754 Y11.16924
X88.33203 Y8.42190
X88.31321 Y8.27148
X88.26749 Y8.13798
X88.19108 Y8.00722
X88.07333 Y7.88152
X87.95722 Y7.80128
X87.82741 Y7.74593
X87.66873 Y7.71377
X87.50693 Y7.71860
X87.36962 Y7.75119
X87.24163 Y7.81060
X87.11153 Y7.90702
X87.00683 Y8.03051
X86.93917 Y8.15434
X86.89769 Y8.28924
X86.88230 Y8.45040
X86.93061 Y10.91074
X86.90551 Y10.96099
X86.85829 Y10.98016
X86.48933 Y10.94138
G04 P0 ( dwell for no time -- G64 should not smooth over this point )
G00 Z5.00000 ( retract )

G00 X90.58605 Y11.15408 ( rapid move to begin. )
F300.00000
G01 Z-0.05000
G04 P0 ( dwell for no time -- G64 should not smooth over this point )
F600.00000
X90.58605 Y11.15408
X91.12438 Y11.21034
X91.34355 Y11.19749
X91.93334 Y10.97051
X92.04170 Y10.91514
X92.14619 Y10.83681
X92.23492 Y10.74089
X92.30497 Y10.63068
X92.57764 Y10.06726
X92.61294 Y9.83752
X92.59732 Y9.47803
X92.53512 Y9.28596
X92.28892 Y8.78126
X92.21071 Y8.65609
X92.11630 Y8.55543
X92.02082 Y8.48433
X91.53459 Y8.18934
X91.34635 Y8.10933
X91.23479 Y8.08845
X90.28762 Y7.98891
X90.06029 Y8.00125
X89.47056 Y8.22820
X89.34579 Y8.29414
X89.22085 Y8.39708
X89.13368 Y8.50808
X89.05837 Y8.66297
X89.02692 Y8.78979
X89.01966 Y8.94108
X89.04633 Y9.10077
X89.10871 Y9.25019
X89.18819 Y9.36675
X89.29735 Y9.47194
X89.43566 Y9.55616
X89.57876 Y9.60572
X89.71861 Y9.62464
X89.87998 Y9.61151
X90.31628 Y9.44986
X90.92207 Y9.51357
X91.07927 Y9.60874
X91.13657 Y9.72611
X91.08755 Y9.74885
X90.54927 Y9.69259
X90.31414 Y9.70905
X89.74033 Y9.93239
X89.63197 Y9.98771
X89.52745 Y10.06612
X89.42794 Y10.17638
X89.13360 Y10.74237
X89.06908 Y10.94905
X89.06070 Y11.06538
X89.06566 Y11.32055
X89.09753 Y11.51265
X89.38473 Y12.12164
X89.46289 Y12.24673
X89.55732 Y12.34747
X89.66073 Y12.42387
X90.22699 Y12.75867
X90.43886 Y12.81447
X91.14922 Y12.88913
X91.27558 Y12.89103
X91.39242 Y12.87320
X91.96628 Y12.64983
X92.10837 Y12.57218
X92.21599 Y12.48095
X92.30316 Y12.36995
X92.37543 Y12.22507
X92.40992 Y12.08824
X92.41701 Y11.92647
X92.39288 Y11.78745
X92.33799 Y11.64628
X92.25496 Y11.51961
X92.13090 Y11.40013
X92.01081 Y11.32593
X91.87835 Y11.27734
X91.71820 Y11.25339
X91.57741 Y11.26286
X91.43131 Y11.30269
X91.12057 Y11.42817
X90.75158 Y11.38936
X90.59441 Y11.29418
X90.53708 Y11.17678
X90.58605 Y11.15408
G04 P0 ( dwell for no time -- G64 should not smooth over this point )
G00 Z5.00000 ( retract )

G00 X94.80745 Y13.27325 ( rapid move to begin. )
F300.00000
G01 Z-0.05000
G04 P0 ( dwell for no time -- G64 should not smooth over this point )
F600.00000
X94.80745 Y13.27325
X95.53783 Y13.33901
X95.75198 Y13.29070
X96.23674 Y13.09405
X96.33689 Y13.04249
X96.44138 Y12.96408
X96.54093 Y12.85382
X96.83196 Y12.29520
X96.87765 Y12.17922
X96.90834 Y11.95679
X96.85650 Y9.31786
X96.83767 Y9.16744
X96.78309 Y9.01502
X96.71555 Y8.90318
X96.61360 Y8.79114
X96.47227 Y8.69266
X96.33191 Y8.63582
X96.20361 Y8.61116
X96.03140 Y8.61456
X95.89409 Y8.64715
X95.76610 Y8.70656
X95.63600 Y8.80298
X95.53130 Y8.92647
X95.46364 Y9.05030
X95.42216 Y9.18520
X95.40677 Y9.34636
X95.45510 Y11.80670
X95.43001 Y11.85695
X95.38276 Y11.87612
X95.01383 Y11.83734
X94.77644 Y11.69360
X94.72539 Y9.09388
X94.70367 Y8.93341
X94.65198 Y8.79104
X94.58444 Y8.67920
X94.48248 Y8.56716
X94.35950 Y8.47880
X94.22076 Y8.41791
X94.07250 Y8.38718
X93.90029 Y8.39058
X93.76298 Y8.42317
X93.63499 Y8.48258
X93.49763 Y8.58654
X93.40019 Y8.70249
X93.33253 Y8.82632
X93.29105 Y8.96122
X93.27601 Y9.11192
X93.37459 Y14.16032
X93.39338 Y14.31069
X93.44799 Y14.46311
X93.52140 Y14.58364
X93.63326 Y14.70068
X93.74931 Y14.78092
X93.88899 Y14.83985
X94.04827 Y14.86878
X94.18934 Y14.86547
X94.32694 Y14.83395
X94.46496 Y14.77162
X94.59506 Y14.67523
X94.68782 Y14.56888
X94.77098 Y14.41808
X94.81286 Y14.27249
X94.82432 Y14.13182
X94.80745 Y13.27325
G04 P0 ( dwell for no time -- G64 should not smooth over this point )
G00 Z5.00000 ( retract )

G00 X98.17534 Y13.54719 ( rapid move to begin. )
F300.00000
G01 Z-0.05000
G04 P0 ( dwell for no time -- G64 should not smooth over this point )
F600.00000
X98.17534 Y13.54719
X97.85743 Y13.82928
X97.76503 Y13.93627
X97.70336 Y14.04142
X97.65510 Y14.17421
X97.63351 Y14.31391
X97.64245 Y14.47442
X97.67938 Y14.61084
X97.74209 Y14.73748
X97.82131 Y14.84272
X98.11870 Y15.16227
X98.24186 Y15.25000
X98.39053 Y15.31338
X98.53909 Y15.34139
X98.69025 Y15.33799
X98.83742 Y15.30332
X99.03279 Y15.19928
X99.32327 Y14.93578
X99.41102 Y14.83761
X99.49238 Y14.69895
X99.53703 Y14.56486
X99.55484 Y14.42463
X99.54509 Y14.28366
X99.51481 Y14.16555
X99.44542 Y14.02057
X99.12472 Y13.65057
X98.98047 Y13.53048
X99.06111 Y13.46878
X99.15388 Y13.36243
X99.22891 Y13.23088
X99.27750 Y13.07640
X99.29002 Y12.93584
X99.22441 Y9.56675
X99.20744 Y9.42665
X99.15100 Y9.26391
X99.08347 Y9.15207
X98.98151 Y9.04003
X98.84019 Y8.94156
X98.69982 Y8.88471
X98.56112 Y8.85863
X98.42002 Y8.86086
X98.26200 Y8.89604
X98.11611 Y8.96625
X98.00392 Y9.05187
X97.91115 Y9.15822
X97.83155 Y9.29919
X97.79007 Y9.43409
X97.77504 Y9.58479
X97.84141 Y12.96431
X97.85944 Y13.10424
X97.91405 Y13.25666
X97.99421 Y13.38521
X98.08352 Y13.48056
X98.17534 Y13.54719
G04 P0 ( dwell for no time -- G64 should not smooth over this point )
G00 Z5.00000 ( retract )

G00 X101.88077 Y12.55908 ( rapid move to begin. )
F300.00000
G01 Z-0.05000
G04 P0 ( dwell for no time -- G64 should not smooth over this point )
F600.00000
X101.88077 Y12.55908
X101.64341 Y12.41534
X101.59233 Y9.81562
X101.57350 Y9.66520
X101.52778 Y9.53170
X101.45138 Y9.40094
X101.34943 Y9.28890
X101.20810 Y9.19043
X101.06774 Y9.13358
X100.92903 Y9.10750
X100.78793 Y9.10973
X100.62992 Y9.14491
X100.48402 Y9.21512
X100.37183 Y9.30074
X100.27907 Y9.40709
X100.19947 Y9.54806
X100.15405 Y9.70348
X100.14260 Y9.84412
X100.20856 Y13.20274
X100.23028 Y13.36319
X100.28197 Y13.50553
X100.35537 Y13.62606
X100.45143 Y13.72943
X100.57442 Y13.81780
X100.73315 Y13.88478
X100.88224 Y13.91120
X101.01288 Y13.90866
X101.21717 Y13.85239
X101.36967 Y13.93408
X101.56075 Y13.98315
X102.40472 Y14.06075
X102.61889 Y14.01241
X103.10363 Y13.81579
X103.20380 Y13.76423
X103.30832 Y13.68582
X103.40789 Y13.57553
X103.69890 Y13.01691
X103.76895 Y12.78694
X103.72344 Y10.03960
X103.70462 Y9.88918
X103.65890 Y9.75568
X103.58249 Y9.62492
X103.46474 Y9.49922
X103.34863 Y9.41898
X103.21881 Y9.36363
X103.06014 Y9.33147
X102.89834 Y9.33630
X102.76103 Y9.36889
X102.63304 Y9.42830
X102.50294 Y9.52472
X102.39824 Y9.64821
X102.33058 Y9.77204
X102.28910 Y9.90694
X102.27371 Y10.06810
X102.32202 Y12.52845
X102.29692 Y12.57869
X102.24970 Y12.59786
X101.88077 Y12.55908
G04 P0 ( dwell for no time -- G64 should not smooth over this point )
G00 Z5.00000 ( retract )

G00 X105.94454 Y11.09248 ( rapid move to begin. )
F300.00000
G01 Z-0.05000
G04 P0 ( dwell for no time -- G64 should not smooth over this point )
F600.00000
X105.94454 Y11.09248
X106.55025 Y11.15616
X106.89917 Y11.36683
X107.02706 Y11.42639
X107.16435 Y11.45916
X107.31571 Y11.46452
X107.46488 Y11.43828
X107.62368 Y11.37153
X107.74677 Y11.28331
X107.84888 Y11.17142
X107.92150 Y11.05044
X107.97319 Y10.89700
X107.99036 Y10.75692
X107.97768 Y10.60587
X107.93740 Y10.47064
X107.86638 Y10.33688
X107.75383 Y10.20650
X107.64108 Y10.12159
X107.16280 Y9.83193
X106.96036 Y9.74829
X105.91586 Y9.63147
X105.78947 Y9.62957
X105.57530 Y9.67790
X105.09875 Y9.87079
X104.97515 Y9.93579
X104.87263 Y10.01677
X104.78633 Y10.11481
X104.72707 Y10.21064
X104.49532 Y10.67343
X104.44965 Y10.78938
X104.41914 Y11.00376
X104.46537 Y13.02822
X104.52702 Y13.22801
X104.78071 Y13.74770
X104.84284 Y13.84922
X104.93458 Y13.95237
X105.05214 Y14.04157
X105.61840 Y14.37637
X105.82300 Y14.43113
X106.77743 Y14.53172
X106.90380 Y14.53362
X107.12564 Y14.48254
X107.70288 Y14.23708
X107.80738 Y14.15872
X107.90692 Y14.04841
X108.19793 Y13.48978
X108.24360 Y13.37383
X108.27410 Y13.15951
X108.26488 Y12.67165
X108.24327 Y12.51153
X108.19180 Y12.36944
X108.11200 Y12.24112
X108.02305 Y12.14582
X107.90047 Y12.05735
X107.76227 Y11.99626
X105.87726 Y11.41793
X105.87220 Y11.16190
X105.89730 Y11.11166
X105.94454 Y11.09248
G04 P0 ( dwell for no time -- G64 should not smooth over this point )
G00 Z5.00000 ( retract )

G00 X110.66084 Y4.53634 ( rapid move to begin. )
F300.00000
G01 Z-0.05000
G04 P0 ( dwell for no time -- G64 should not smooth over this point )
F600.00000
X110.66084 Y4.53634
X110.61496 Y4.12087
X110.48845 Y3.73331
X110.27938 Y3.37121
X109.99150 Y3.05391
X109.65205 Y2.81000
X109.27941 Y2.64470
X108.88078 Y2.55940
X108.46280 Y2.55722
X108.04334 Y2.64470
X107.67072 Y2.81000
X107.33128 Y3.05391
X107.04997 Y3.36308
X106.83433 Y3.73331
X106.70781 Y4.12087
X106.66194 Y4.55724
X106.70781 Y4.97271
X106.83433 Y5.36023
X107.04337 Y5.72234
X107.33128 Y6.03966
X107.67072 Y6.28358
X108.04334 Y6.44888
X108.45233 Y6.53582
X108.86000 Y6.53638
X109.27941 Y6.44888
X109.66137 Y6.27883
X109.99150 Y6.03966
X110.27280 Y5.73049
X110.48845 Y5.36026
X110.61496 Y4.97271
X110.66084 Y4.53634
G04 P0 ( dwell for no time -- G64 should not smooth over this point )
G00 Z5.00000 ( retract )

G00 X84.06028 Y17.20337 ( rapid move to begin. )
F300.00000
G01 Z-0.05000
G04 P0 ( dwell for no time -- G64 should not smooth over this point )
F600.00000
X84.06028 Y17.20337
X100.22070 Y33.36379
X100.22070 Y51.57335
X100.03950 Y51.71590
X99.90958 Y51.88374
X99.82682 Y52.05709
X99.78369 Y52.22359
X99.77193 Y52.41534
X99.80406 Y52.62511
X99.87272 Y52.80459
X99.97607 Y52.96654
X100.10991 Y53.10439
X100.25105 Y53.20263
X100.44613 Y53.28633
X100.71562 Y53.32722
X100.92172 Y53.30535
X101.10439 Y53.24592
X101.27137 Y53.15089
X101.41582 Y53.02420
X101.52110 Y52.88821
X101.61455 Y52.69766
X101.65768 Y52.53116
X101.66944 Y52.33941
X101.63731 Y52.12964
X101.56865 Y51.95016
X101.46530 Y51.78821
X101.34681 Y51.66355
X101.22070 Y51.57327
X101.22070 Y33.15670
X101.20868 Y33.04961
X101.17841 Y32.95645
X101.07422 Y32.80313
X84.62088 Y16.34980
X84.46754 Y16.24558
X84.37440 Y16.21533
X84.26737 Y16.20337
X79.41061 Y16.20337
X79.22849 Y16.23809
X79.06430 Y16.34319
X78.65719 Y16.76280
X78.60357 Y16.86438
X78.57579 Y16.97251
X77.39055 Y18.15775
X77.33573 Y18.22678
X77.28346 Y18.35297
X77.27340 Y22.18278
X77.29024 Y22.23833
X77.31783 Y22.26592
X77.37340 Y22.28278
X77.97340 Y22.28278
X78.02895 Y22.26592
X78.06578 Y22.22103
X78.07340 Y18.60621
X79.14162 Y17.53799
X79.24955 Y17.51038
X79.35115 Y17.45676
X79.61767 Y17.20337
X84.06028 Y17.20337
G04 P0 ( dwell for no time -- G64 should not smooth over this point )
G00 Z5.00000 ( retract )

G00 X82.53064 Y18.50336 ( rapid move to begin. )
F300.00000
G01 Z-0.05000
G04 P0 ( dwell for no time -- G64 should not smooth over this point )
F600.00000
X82.53064 Y18.50336
X97.68070 Y33.65340
X97.68070 Y51.57335
X97.49950 Y51.71590
X97.36958 Y51.88374
X97.28682 Y52.05709
X97.24369 Y52.22359
X97.23193 Y52.41534
X97.26406 Y52.62511
X97.33272 Y52.80459
X97.43607 Y52.96654
X97.56991 Y53.10439
X97.71105 Y53.20263
X97.90613 Y53.28633
X98.17562 Y53.32722
X98.38172 Y53.30535
X98.56439 Y53.24592
X98.73137 Y53.15089
X98.87582 Y53.02420
X98.98110 Y52.88821
X99.07455 Y52.69766
X99.11768 Y52.53116
X99.12944 Y52.33941
X99.09731 Y52.12964
X99.02865 Y51.95016
X98.92530 Y51.78821
X98.80681 Y51.66355
X98.68070 Y51.57327
X98.68070 Y33.44634
X98.66868 Y33.33925
X98.63841 Y33.24608
X98.53422 Y33.09277
X83.09127 Y17.64980
X83.00707 Y17.58254
X82.84479 Y17.51533
X82.73775 Y17.50337
X80.22902 Y17.50337
X80.04690 Y17.53809
X79.95960 Y17.58259
X79.87545 Y17.64980
X78.55981 Y18.96544
X78.45562 Y19.11875
X78.41384 Y19.30920
X78.41338 Y21.18278
X78.42699 Y21.29683
X78.45658 Y21.38611
X78.54340 Y21.51583
X78.54340 Y22.18278
X78.57269 Y22.25347
X78.64340 Y22.28278
X79.24340 Y22.28278
X79.29895 Y22.26592
X79.33578 Y22.22103
X79.34340 Y21.43353
X79.39971 Y21.29683
X79.41338 Y21.18278
X79.41338 Y19.52604
X80.43606 Y18.50336
X82.53064 Y18.50336
G04 P0 ( dwell for no time -- G64 should not smooth over this point )
G00 Z5.00000 ( retract )

G00 X95.14647 Y33.42035 ( rapid move to begin. )
F300.00000
G01 Z-0.05000
G04 P0 ( dwell for no time -- G64 should not smooth over this point )
F600.00000
X95.14647 Y33.42035
X95.19071 Y33.57613
X95.19071 Y51.54559
X95.09000 Y51.60386
X94.95950 Y51.71590
X94.82958 Y51.88374
X94.74682 Y52.05709
X94.70369 Y52.22359
X94.69193 Y52.41534
X94.71901 Y52.60556
X94.78378 Y52.78640
X94.88370 Y52.95054
X95.01456 Y53.09120
X95.17105 Y53.20263
X95.34682 Y53.28028
X95.53458 Y53.32095
X95.63562 Y53.32722
X95.82190 Y53.30942
X96.00580 Y53.25389
X96.17476 Y53.16245
X96.32188 Y53.03885
X96.44110 Y52.88821
X96.52752 Y52.71660
X96.57768 Y52.53116
X96.58944 Y52.33941
X96.55731 Y52.12964
X96.49759 Y51.96835
X96.39767 Y51.80421
X96.25147 Y51.65036
X96.09069 Y51.54147
X96.09069 Y33.57608
X96.12703 Y33.47395
X96.14070 Y33.35990
X96.13252 Y33.11962
X96.09841 Y33.00725
X95.99422 Y32.85393
X83.96950 Y20.82922
X83.87920 Y20.75820
X83.78129 Y20.71172
X81.99750 Y18.92858
X81.86763 Y18.84182
X81.69635 Y18.80387
X80.74680 Y18.80341
X80.64944 Y18.81441
X80.56570 Y18.84184
X80.43585 Y18.92858
X79.89519 Y19.46859
X79.79433 Y19.62381
X79.76341 Y19.78680
X79.76341 Y21.18278
X79.77594 Y21.28642
X79.81340 Y21.38611
X79.81340 Y22.18278
X79.84269 Y22.25347
X79.91340 Y22.28278
X80.51340 Y22.28278
X80.56895 Y22.26592
X80.59653 Y22.23833
X80.61340 Y22.18278
X80.61340 Y21.38606
X80.65081 Y21.28642
X80.66339 Y21.18278
X80.66339 Y19.97313
X80.93313 Y19.70339
X81.50021 Y19.70339
X83.14486 Y21.34804
X83.19142 Y21.44603
X83.26242 Y21.53630
X95.14647 Y33.42035
G04 P0 ( dwell for no time -- G64 should not smooth over this point )
G00 Z5.00000 ( retract )

G00 X80.66339 Y39.30370 ( rapid move to begin. )
F300.00000
G01 Z-0.05000
G04 P0 ( dwell for no time -- G64 should not smooth over this point )
F600.00000
X80.66339 Y39.30370
X80.66339 Y30.58279
X80.65081 Y30.47911
X80.61340 Y30.37951
X80.61340 Y29.58279
X80.59653 Y29.52722
X80.53291 Y29.48470
X79.91340 Y29.48279
X79.85783 Y29.49963
X79.81531 Y29.56326
X79.81340 Y30.37936
X79.77594 Y30.47911
X79.76341 Y30.58279
X79.76341 Y39.49006
X79.77441 Y39.58732
X79.83415 Y39.73159
X79.89519 Y39.80822
X92.19450 Y52.10754
X92.16065 Y52.24361
X92.15193 Y52.41534
X92.18406 Y52.62511
X92.25272 Y52.80459
X92.35607 Y52.96654
X92.47456 Y53.09120
X92.63105 Y53.20263
X92.80682 Y53.28028
X92.99458 Y53.32095
X93.11081 Y53.32684
X93.30172 Y53.30535
X93.48439 Y53.24592
X93.65137 Y53.15089
X93.78188 Y53.03885
X93.90110 Y52.88821
X93.98752 Y52.71660
X94.03768 Y52.53116
X94.04944 Y52.33941
X94.02236 Y52.14919
X93.95759 Y51.96835
X93.85767 Y51.80421
X93.72681 Y51.66355
X93.55262 Y51.54229
X93.37525 Y51.46842
X93.10575 Y51.42753
X92.91947 Y51.44533
X92.83072 Y51.47104
X80.66339 Y39.30370
G04 P0 ( dwell for no time -- G64 should not smooth over this point )
G00 Z5.00000 ( retract )

G00 X79.39339 Y40.57370 ( rapid move to begin. )
F300.00000
G01 Z-0.05000
G04 P0 ( dwell for no time -- G64 should not smooth over this point )
F600.00000
X79.39339 Y40.57370
X79.39339 Y30.58279
X79.38081 Y30.47911
X79.34340 Y30.37951
X79.34340 Y29.58279
X79.32653 Y29.52722
X79.26291 Y29.48470
X78.64340 Y29.48279
X78.58783 Y29.49963
X78.54531 Y29.56326
X78.54340 Y30.37936
X78.50594 Y30.47911
X78.49341 Y30.58279
X78.49341 Y40.76006
X78.50441 Y40.85732
X78.56415 Y41.00159
X78.62519 Y41.07822
X89.65450 Y52.10754
X89.62065 Y52.24361
X89.61193 Y52.41534
X89.64406 Y52.62511
X89.71272 Y52.80459
X89.81607 Y52.96654
X89.93456 Y53.09120
X90.09105 Y53.20263
X90.26682 Y53.28028
X90.45458 Y53.32095
X90.57081 Y53.32684
X90.76172 Y53.30535
X90.94439 Y53.24592
X91.11137 Y53.15089
X91.24188 Y53.03885
X91.36110 Y52.88821
X91.44752 Y52.71660
X91.49768 Y52.53116
X91.50944 Y52.33941
X91.48236 Y52.14919
X91.41759 Y51.96835
X91.31767 Y51.80421
X91.18681 Y51.66355
X91.01262 Y51.54229
X90.83525 Y51.46842
X90.56575 Y51.42753
X90.37947 Y51.44533
X90.29072 Y51.47104
X79.39339 Y40.57370
G04 P0 ( dwell for no time -- G64 should not smooth over this point )
G00 Z5.00000 ( retract )

G00 X78.12339 Y41.84370 ( rapid move to begin. )
F300.00000
G01 Z-0.05000
G04 P0 ( dwell for no time -- G64 should not smooth over this point )
F600.00000
X78.12339 Y41.84370
X78.12339 Y30.58279
X78.11081 Y30.47911
X78.07340 Y30.37951
X78.07340 Y29.58279
X78.05653 Y29.52722
X77.99291 Y29.48470
X77.37340 Y29.48279
X77.31783 Y29.49963
X77.27531 Y29.56326
X77.27340 Y30.37936
X77.23594 Y30.47911
X77.22341 Y30.58279
X77.22341 Y42.03006
X77.26182 Y42.21109
X77.35519 Y42.34822
X87.11450 Y52.10754
X87.08065 Y52.24361
X87.07193 Y52.41534
X87.10406 Y52.62511
X87.17272 Y52.80459
X87.27607 Y52.96654
X87.39456 Y53.09120
X87.55105 Y53.20263
X87.72682 Y53.28028
X87.91458 Y53.32095
X88.03081 Y53.32684
X88.22172 Y53.30535
X88.40439 Y53.24592
X88.57137 Y53.15089
X88.70188 Y53.03885
X88.82110 Y52.88821
X88.90752 Y52.71660
X88.95768 Y52.53116
X88.96944 Y52.33941
X88.94236 Y52.14919
X88.87759 Y51.96835
X88.76530 Y51.78821
X88.63147 Y51.65036
X88.49032 Y51.55212
X88.29525 Y51.46842
X88.02575 Y51.42753
X87.83947 Y51.44533
X87.75072 Y51.47104
X78.12339 Y41.84370
G04 P0 ( dwell for no time -- G64 should not smooth over this point )
G00 Z5.00000 ( retract )

G00 X76.85339 Y43.11370 ( rapid move to begin. )
F300.00000
G01 Z-0.05000
G04 P0 ( dwell for no time -- G64 should not smooth over this point )
F600.00000
X76.85339 Y43.11370
X76.85339 Y30.58279
X76.84081 Y30.47911
X76.80340 Y30.37951
X76.80340 Y29.58279
X76.78653 Y29.52722
X76.72291 Y29.48470
X76.10340 Y29.48279
X76.04783 Y29.49963
X76.00531 Y29.56326
X76.00340 Y30.37936
X75.96594 Y30.47911
X75.95341 Y30.58279
X75.95341 Y43.30006
X75.99182 Y43.48109
X76.08519 Y43.61822
X84.57450 Y52.10754
X84.54065 Y52.24361
X84.53193 Y52.41534
X84.56406 Y52.62511
X84.63272 Y52.80459
X84.73607 Y52.96654
X84.85456 Y53.09120
X85.01105 Y53.20263
X85.18682 Y53.28028
X85.37458 Y53.32095
X85.49081 Y53.32684
X85.68172 Y53.30535
X85.86439 Y53.24592
X86.03137 Y53.15089
X86.16188 Y53.03885
X86.28110 Y52.88821
X86.36752 Y52.71660
X86.41768 Y52.53116
X86.42944 Y52.33941
X86.40236 Y52.14919
X86.33759 Y51.96835
X86.22530 Y51.78821
X86.09147 Y51.65036
X85.95032 Y51.55212
X85.75525 Y51.46842
X85.48575 Y51.42753
X85.29947 Y51.44533
X85.21072 Y51.47104
X76.85339 Y43.11370
G04 P0 ( dwell for no time -- G64 should not smooth over this point )
G00 Z5.00000 ( retract )

G00 X75.62339 Y44.45622 ( rapid move to begin. )
F300.00000
G01 Z-0.05000
G04 P0 ( dwell for no time -- G64 should not smooth over this point )
F600.00000
X75.62339 Y44.45622
X75.62339 Y30.58279
X75.58821 Y30.40951
X75.53340 Y30.31330
X75.53340 Y29.58279
X75.51653 Y29.52722
X75.47165 Y29.49039
X75.43340 Y29.48279
X74.83340 Y29.48279
X74.77783 Y29.49963
X74.73531 Y29.56326
X74.72342 Y30.58279
X74.72342 Y44.64260
X74.75433 Y44.80552
X74.85519 Y44.96077
X79.39049 Y49.49606
X79.42450 Y49.57625
X79.49397 Y49.66932
X79.62211 Y49.76589
X82.01937 Y52.16309
X81.99193 Y52.41534
X82.02406 Y52.62511
X82.09272 Y52.80459
X82.19607 Y52.96654
X82.31456 Y53.09120
X82.47105 Y53.20263
X82.64682 Y53.28028
X82.83458 Y53.32095
X82.95081 Y53.32684
X83.14172 Y53.30535
X83.32439 Y53.24592
X83.49137 Y53.15089
X83.62188 Y53.03885
X83.74110 Y52.88821
X83.82752 Y52.71660
X83.87768 Y52.53116
X83.88944 Y52.33941
X83.86236 Y52.14919
X83.79759 Y51.96835
X83.68530 Y51.78821
X83.55147 Y51.65036
X83.41032 Y51.55212
X83.23455 Y51.47447
X83.04680 Y51.43380
X82.94575 Y51.42753
X82.72455 Y51.45415
X80.24421 Y48.97381
X80.16001 Y48.90655
X80.01221 Y48.84503
X75.62339 Y44.45622
G04 P0 ( dwell for no time -- G64 should not smooth over this point )
G00 Z5.00000 ( retract )

G00 X74.42339 Y45.75091 ( rapid move to begin. )
F300.00000
G01 Z-0.05000
G04 P0 ( dwell for no time -- G64 should not smooth over this point )
F600.00000
X74.42339 Y45.75091
X74.42339 Y30.58279
X74.41407 Y30.48912
X74.38014 Y30.37939
X74.32786 Y30.28886
X74.26340 Y30.21665
X74.26340 Y29.58279
X74.24653 Y29.52722
X74.20165 Y29.49039
X74.16340 Y29.48279
X73.56340 Y29.48279
X73.50783 Y29.49963
X73.46531 Y29.56326
X73.46340 Y30.39351
X73.43457 Y30.47763
X73.42340 Y30.58279
X73.42340 Y45.95799
X73.45812 Y46.14006
X73.50257 Y46.22731
X73.56983 Y46.31151
X79.13921 Y51.88089
X79.22714 Y51.95067
X79.30692 Y51.99067
X79.47937 Y52.16309
X79.45193 Y52.41534
X79.48406 Y52.62511
X79.55272 Y52.80459
X79.65607 Y52.96654
X79.77456 Y53.09120
X79.93105 Y53.20263
X80.10682 Y53.28028
X80.29458 Y53.32095
X80.41081 Y53.32684
X80.60172 Y53.30535
X80.78439 Y53.24592
X80.95137 Y53.15089
X81.08188 Y53.03885
X81.20110 Y52.88821
X81.28752 Y52.71660
X81.33768 Y52.53116
X81.34944 Y52.33941
X81.32236 Y52.14919
X81.25759 Y51.96835
X81.14530 Y51.78821
X81.01147 Y51.65036
X80.87032 Y51.55212
X80.69455 Y51.47447
X80.50680 Y51.43380
X80.40575 Y51.42753
X80.18457 Y51.45415
X79.89697 Y51.16720
X79.73588 Y51.06339
X74.42339 Y45.75091
G04 P0 ( dwell for no time -- G64 should not smooth over this point )
G00 Z5.00000 ( retract )

G00 X73.12340 Y46.96551 ( rapid move to begin. )
F300.00000
G01 Z-0.05000
G04 P0 ( dwell for no time -- G64 should not smooth over this point )
F600.00000
X73.12340 Y46.96551
X73.12340 Y30.58279
X73.11407 Y30.48912
X73.08014 Y30.37939
X72.99340 Y30.24977
X72.99340 Y29.58279
X72.97653 Y29.52722
X72.93165 Y29.49039
X72.89340 Y29.48279
X72.29340 Y29.48279
X72.23783 Y29.49963
X72.19531 Y29.56326
X72.19340 Y30.33186
X72.13701 Y30.46869
X72.12340 Y30.58279
X72.12340 Y47.17260
X72.13536 Y47.27963
X72.20257 Y47.44191
X72.26983 Y47.52611
X76.62461 Y51.88089
X76.74211 Y51.96588
X76.93939 Y52.16311
X76.91193 Y52.41534
X76.94406 Y52.62511
X77.01272 Y52.80459
X77.11607 Y52.96654
X77.23456 Y53.09120
X77.39105 Y53.20263
X77.56682 Y53.28028
X77.75458 Y53.32095
X77.87081 Y53.32684
X78.06172 Y53.30535
X78.24439 Y53.24592
X78.41137 Y53.15089
X78.54188 Y53.03885
X78.66110 Y52.88821
X78.74752 Y52.71660
X78.79768 Y52.53116
X78.80944 Y52.33941
X78.78236 Y52.14919
X78.71759 Y51.96835
X78.60530 Y51.78821
X78.47147 Y51.65036
X78.33032 Y51.55212
X78.15455 Y51.47447
X77.96680 Y51.43380
X77.86575 Y51.42753
X77.64457 Y51.45415
X77.36423 Y51.17381
X77.24655 Y51.08867
X73.12340 Y46.96551
G04 P0 ( dwell for no time -- G64 should not smooth over this point )
G00 Z5.00000 ( retract )

G00 X71.82340 Y48.06881 ( rapid move to begin. )
F300.00000
G01 Z-0.05000
G04 P0 ( dwell for no time -- G64 should not smooth over this point )
F600.00000
X71.82340 Y48.06881
X71.82340 Y30.58279
X71.78390 Y30.38917
X71.72340 Y30.28335
X71.72340 Y29.58279
X71.70653 Y29.52722
X71.66165 Y29.49039
X71.62340 Y29.48279
X71.02340 Y29.48279
X70.96783 Y29.49963
X70.92531 Y29.56326
X70.92340 Y30.28353
X70.86285 Y30.38917
X70.82340 Y30.58279
X70.82340 Y48.27590
X70.83536 Y48.38293
X70.90257 Y48.54521
X70.96983 Y48.62941
X73.98814 Y51.64772
X74.06078 Y51.81300
X74.39939 Y52.16309
X74.37193 Y52.41534
X74.40406 Y52.62511
X74.47272 Y52.80459
X74.57607 Y52.96654
X74.69456 Y53.09120
X74.85105 Y53.20263
X75.02682 Y53.28028
X75.21458 Y53.32095
X75.31562 Y53.32722
X75.50190 Y53.30942
X75.68580 Y53.25389
X75.87137 Y53.15089
X76.01582 Y53.02420
X76.13180 Y52.87101
X76.21455 Y52.69766
X76.26073 Y52.51114
X76.26842 Y52.31920
X76.23731 Y52.12964
X76.16865 Y51.95016
X76.06530 Y51.78821
X75.93147 Y51.65036
X75.79032 Y51.55212
X75.61455 Y51.47447
X75.42680 Y51.43380
X75.32575 Y51.42753
X75.10457 Y51.45415
X74.95326 Y51.30284
X74.89144 Y51.15379
X74.82423 Y51.06964
X71.82340 Y48.06881
G04 P0 ( dwell for no time -- G64 should not smooth over this point )
G00 Z5.00000 ( retract )

G00 X68.38114 Y48.62832 ( rapid move to begin. )
F300.00000
G01 Z-0.05000
G04 P0 ( dwell for no time -- G64 should not smooth over this point )
F600.00000
X68.38114 Y48.62832
X71.33564 Y51.58282
X71.37306 Y51.74770
X71.43765 Y51.86855
X71.83910 Y52.28425
X71.83295 Y52.43555
X71.85901 Y52.60556
X71.92378 Y52.78640
X72.02370 Y52.95054
X72.15456 Y53.09120
X72.31105 Y53.20263
X72.48682 Y53.28028
X72.67458 Y53.32095
X72.79081 Y53.32684
X72.98172 Y53.30535
X73.16439 Y53.24592
X73.33137 Y53.15089
X73.47582 Y53.02420
X73.59180 Y52.87101
X73.67455 Y52.69766
X73.71768 Y52.53116
X73.72944 Y52.33941
X73.70236 Y52.14919
X73.63759 Y51.96835
X73.52530 Y51.78821
X73.39147 Y51.65036
X73.25032 Y51.55212
X73.07455 Y51.47447
X72.87173 Y51.43190
X72.68817 Y51.43632
X72.52571 Y51.27386
X72.48083 Y51.09088
X72.42373 Y50.98813
X72.35494 Y50.90510
X69.00240 Y47.56310
X69.00240 Y44.33450
X69.10237 Y44.26694
X69.26336 Y44.10288
X69.38673 Y43.90895
X69.46707 Y43.69358
X69.50087 Y43.46620
X69.48993 Y43.25742
X69.45160 Y43.10598
X69.45160 Y42.51980
X69.42917 Y42.30141
X69.35172 Y42.06303
X69.24146 Y41.87319
X69.07949 Y41.69575
X68.90159 Y41.56715
X68.69148 Y41.47360
X68.47690 Y41.42745
X68.24705 Y41.42526
X68.01165 Y41.47360
X67.79280 Y41.57284
X67.62366 Y41.69572
X67.46826 Y41.86506
X67.35142 Y42.06303
X67.27832 Y42.28096
X67.25214 Y42.50934
X67.25160 Y43.36831
X67.27510 Y43.59239
X67.33949 Y43.79808
X67.43189 Y43.97098
X67.62458 Y44.19689
X67.80240 Y44.34101
X67.80240 Y48.03160
X67.81629 Y48.15814
X67.89844 Y48.35649
X67.98538 Y48.46243
X68.16389 Y48.58171
X68.28622 Y48.62022
X68.38114 Y48.62832
G04 P0 ( dwell for no time -- G64 should not smooth over this point )
G00 Z5.00000 ( retract )

G00 X69.25033 Y52.02339 ( rapid move to begin. )
F300.00000
G01 Z-0.05000
G04 P0 ( dwell for no time -- G64 should not smooth over this point )
F600.00000
X69.25033 Y52.02339
X69.05259 Y52.01485
X69.11304 Y51.88613
X69.25033 Y52.02339
G04 P0 ( dwell for no time -- G64 should not smooth over this point )
G00 Z5.00000 ( retract )

G00 X69.59729 Y53.45447 ( rapid move to begin. )
F300.00000
G01 Z-0.05000
G04 P0 ( dwell for no time -- G64 should not smooth over this point )
F600.00000
X69.59729 Y53.45447
X69.23179 Y53.12138
X69.05706 Y52.73139
X69.36338 Y52.73139
X69.48370 Y52.95054
X69.61456 Y53.09120
X69.77105 Y53.20263
X69.88670 Y53.25437
X69.88670 Y53.56060
X69.87212 Y53.56834
X69.59729 Y53.45447
G04 P0 ( dwell for no time -- G64 should not smooth over this point )
G00 Z5.00000 ( retract )

G00 X78.34040 Y53.56458 ( rapid move to begin. )
F300.00000
G01 Z-0.05000
G04 P0 ( dwell for no time -- G64 should not smooth over this point )
F600.00000
X78.34040 Y53.56458
X77.86067 Y53.66004
X77.38102 Y53.56463
X76.97404 Y53.29268
X76.75095 Y52.96659
X76.67752 Y52.91759
X76.59065 Y52.90035
X76.50381 Y52.91759
X76.43037 Y52.96659
X76.20739 Y53.29263
X75.80040 Y53.56458
X75.32067 Y53.66004
X74.84102 Y53.56463
X74.43404 Y53.29268
X74.21095 Y52.96659
X74.13752 Y52.91759
X74.05065 Y52.90035
X73.96381 Y52.91759
X73.89037 Y52.96659
X73.66739 Y53.29263
X73.26040 Y53.56458
X72.78067 Y53.66004
X72.30102 Y53.56463
X71.89409 Y53.29273
X71.66394 Y52.95575
X71.59246 Y52.90718
X71.51248 Y52.88910
X71.44585 Y52.89720
X71.36803 Y52.93456
X71.32015 Y52.98127
X71.25017 Y53.12087
X70.88416 Y53.45442
X70.60925 Y53.56834
X70.59470 Y53.56067
X70.59470 Y53.25740
X70.77476 Y53.16245
X70.92188 Y53.03885
X71.04110 Y52.88821
X71.13455 Y52.69766
X71.18073 Y52.51114
X71.18842 Y52.31920
X71.15731 Y52.12964
X71.08865 Y51.95016
X70.98530 Y51.78821
X70.86681 Y51.66355
X70.69262 Y51.54229
X70.51525 Y51.46842
X70.33173 Y51.43190
X70.05947 Y51.44533
X69.97072 Y51.47104
X69.74057 Y51.24092
X69.87212 Y51.18638
X70.00384 Y51.21587
X70.06828 Y51.20111
X70.12988 Y51.16510
X70.18744 Y51.09393
X70.21218 Y51.00604
X70.20722 Y50.94008
X70.16960 Y50.85679
X68.26377 Y48.94656
X68.19089 Y48.89766
X68.05737 Y48.86688
X67.76349 Y48.67051
X67.56760 Y48.37734
X67.49435 Y48.00922
X67.48998 Y44.54499
X67.45869 Y44.46732
X67.37185 Y44.37982
X67.05485 Y43.90542
X66.94358 Y43.34611
X66.94358 Y42.54197
X67.05480 Y41.98269
X67.35907 Y41.52732
X67.81444 Y41.22305
X68.35157 Y41.11617
X68.88863 Y41.22300
X69.34400 Y41.52727
X69.64827 Y41.98264
X69.75960 Y42.54220
X69.75960 Y43.16372
X69.80605 Y43.41858
X69.69912 Y43.95617
X69.34868 Y44.46315
X69.31474 Y44.54502
X69.31390 Y47.37034
X69.37687 Y47.49142
X70.12785 Y48.24242
X70.18418 Y48.28240
X70.24888 Y48.30539
X70.31306 Y48.30648
X70.41446 Y48.27066
X70.48213 Y48.19962
X70.51344 Y48.10148
X70.51538 Y34.00836
X70.49805 Y33.92144
X70.44885 Y33.84781
X70.37519 Y33.79861
X70.30786 Y33.78327
X70.19259 Y33.80282
X70.08871 Y33.88703
X69.83143 Y34.27773
X64.91960 Y39.18953
X64.77421 Y39.39961
X64.56022 Y39.54762
X54.39156 Y49.71973
X54.35640 Y49.77869
X54.34281 Y49.84153
X54.34335 Y54.16006
X54.35483 Y54.21279
X54.40743 Y54.29580
X56.16217 Y56.04713
X56.22109 Y56.08223
X56.30341 Y56.09778
X97.10757 Y56.09778
X97.66683 Y56.20900
X98.12342 Y56.51411
X98.18799 Y56.59366
X98.29391 Y56.64423
X99.99601 Y56.64776
X100.08303 Y56.63049
X100.15664 Y56.58127
X100.94056 Y55.79735
X101.23652 Y55.59961
X101.58534 Y55.53019
X102.04772 Y55.52826
X102.11506 Y55.51289
X102.18867 Y55.46367
X102.25156 Y55.34317
X102.25504 Y55.13778
X102.32075 Y54.80743
X102.50767 Y54.52768
X103.06847 Y53.96418
X103.10525 Y53.90565
X103.12250 Y53.81879
X103.08933 Y53.70113
X103.02161 Y53.63006
X102.93980 Y53.59616
X102.78094 Y53.56458
X102.37404 Y53.29268
X102.15095 Y52.96659
X102.07752 Y52.91759
X101.99065 Y52.90035
X101.90381 Y52.91759
X101.83037 Y52.96659
X101.60739 Y53.29263
X101.20040 Y53.56458
X100.72067 Y53.66004
X100.24102 Y53.56463
X99.83404 Y53.29268
X99.61095 Y52.96659
X99.53752 Y52.91759
X99.45065 Y52.90035
X99.36381 Y52.91759
X99.29037 Y52.96659
X99.06739 Y53.29263
X98.66040 Y53.56458
X98.18067 Y53.66004
X97.70102 Y53.56463
X97.29404 Y53.29268
X97.07095 Y52.96659
X96.99752 Y52.91759
X96.91065 Y52.90035
X96.82381 Y52.91759
X96.75037 Y52.96659
X96.52739 Y53.29263
X96.12040 Y53.56458
X95.64067 Y53.66004
X95.16102 Y53.56463
X94.75404 Y53.29268
X94.53095 Y52.96659
X94.45752 Y52.91759
X94.37065 Y52.90035
X94.28381 Y52.91759
X94.21037 Y52.96659
X93.98739 Y53.29263
X93.58040 Y53.56458
X93.10067 Y53.66004
X92.62102 Y53.56463
X92.21404 Y53.29268
X91.99095 Y52.96659
X91.91752 Y52.91759
X91.83065 Y52.90035
X91.74381 Y52.91759
X91.67037 Y52.96659
X91.44739 Y53.29263
X91.04040 Y53.56458
X90.56067 Y53.66004
X90.08102 Y53.56463
X89.67404 Y53.29268
X89.45095 Y52.96659
X89.37752 Y52.91759
X89.29065 Y52.90035
X89.20381 Y52.91759
X89.13037 Y52.96659
X88.90739 Y53.29263
X88.50040 Y53.56458
X88.02067 Y53.66004
X87.54102 Y53.56463
X87.13404 Y53.29268
X86.91095 Y52.96659
X86.83752 Y52.91759
X86.75065 Y52.90035
X86.66381 Y52.91759
X86.59037 Y52.96659
X86.36739 Y53.29263
X85.96040 Y53.56458
X85.48067 Y53.66004
X85.00102 Y53.56463
X84.59404 Y53.29268
X84.37095 Y52.96659
X84.29752 Y52.91759
X84.21065 Y52.90035
X84.12381 Y52.91759
X84.05037 Y52.96659
X83.82739 Y53.29263
X83.42040 Y53.56458
X82.94067 Y53.66004
X82.46102 Y53.56463
X82.05404 Y53.29268
X81.83095 Y52.96659
X81.75752 Y52.91759
X81.67065 Y52.90035
X81.58381 Y52.91759
X81.51037 Y52.96659
X81.28739 Y53.29263
X80.88040 Y53.56458
X80.40067 Y53.66004
X79.92102 Y53.56463
X79.51404 Y53.29268
X79.27604 Y52.95437
X79.19875 Y52.91191
X79.13065 Y52.90035
X79.06258 Y52.91191
X78.97037 Y52.96659
X78.74739 Y53.29263
X78.34040 Y53.56458
G04 P0 ( dwell for no time -- G64 should not smooth over this point )
G00 Z5.00000 ( retract )

G00 X54.03291 Y49.63934 ( rapid move to begin. )
F300.00000
G01 Z-0.05000
G04 P0 ( dwell for no time -- G64 should not smooth over this point )
F600.00000
X54.03291 Y49.63934
X64.35511 Y39.31714
X64.48785 Y39.24599
X64.57365 Y39.16944
X64.65478 Y39.06057
X64.68938 Y38.98417
X69.62947 Y34.04407
X69.70705 Y33.94565
X69.75447 Y33.85111
X69.77626 Y33.76381
X70.41256 Y33.12099
X70.47298 Y33.01278
X70.50339 Y32.85035
X70.50339 Y30.58279
X70.49081 Y30.47911
X70.45340 Y30.37951
X70.45340 Y29.58279
X70.43653 Y29.52722
X70.40895 Y29.49963
X70.35340 Y29.48279
X69.75340 Y29.48279
X69.69783 Y29.49963
X69.65531 Y29.56326
X69.65340 Y30.37936
X69.61594 Y30.47911
X69.60341 Y30.58279
X69.60341 Y32.66391
X69.15487 Y33.11245
X69.03392 Y33.14598
X68.93260 Y33.20006
X68.85168 Y33.26628
X63.94518 Y38.17277
X63.82468 Y38.21044
X63.72194 Y38.26754
X63.63891 Y38.33632
X53.00863 Y48.96660
X52.93985 Y49.04963
X52.87525 Y49.17049
X52.84297 Y49.28352
X52.83291 Y49.39088
X52.83291 Y54.28132
X52.69331 Y54.36377
X52.55996 Y54.47736
X50.98755 Y56.04980
X50.84569 Y56.22490
X50.74998 Y56.40580
X48.85619 Y56.40580
X48.85619 Y44.25289
X48.90178 Y44.19897
X49.01483 Y43.99882
X49.08214 Y43.78988
X49.10620 Y43.56120
X49.10620 Y43.28180
X49.07943 Y43.04296
X49.01107 Y42.83435
X48.86231 Y42.59691
X49.50150 Y41.95704
X49.59908 Y41.81099
X49.62936 Y41.71782
X49.64138 Y41.61078
X49.64138 Y40.91079
X49.77963 Y40.90317
X49.82451 Y40.86634
X49.84138 Y40.81079
X49.83944 Y39.89128
X49.82451 Y39.85524
X49.77963 Y39.81841
X49.64138 Y39.81081
X49.64138 Y39.31783
X58.34243 Y30.61678
X60.35941 Y30.61678
X60.36701 Y30.75503
X60.40384 Y30.79991
X60.43988 Y30.81484
X61.35939 Y30.81678
X61.43007 Y30.78746
X61.45939 Y30.71678
X61.45939 Y29.51678
X61.44252 Y29.46120
X61.39764 Y29.42437
X60.43988 Y29.41868
X60.40384 Y29.43362
X60.36701 Y29.47850
X60.35941 Y29.61678
X58.13539 Y29.61678
X57.95327 Y29.65150
X57.84969 Y29.70687
X48.78781 Y38.75722
X48.68362 Y38.91054
X48.64183 Y39.10099
X48.64138 Y39.81081
X48.50310 Y39.81841
X48.45822 Y39.85524
X48.44138 Y39.91081
X48.44328 Y40.83029
X48.45822 Y40.86634
X48.50310 Y40.90317
X48.64138 Y40.91079
X48.64138 Y41.40365
X47.88364 Y42.16138
X47.46551 Y42.32440
X47.26274 Y42.47172
X47.11629 Y42.63519
X47.00127 Y42.83435
X46.93292 Y43.04296
X46.90674 Y43.27134
X46.90620 Y43.56120
X46.93292 Y43.79999
X47.00127 Y44.00857
X47.15621 Y44.25292
X47.15621 Y56.40580
X15.43832 Y56.40580
X13.93520 Y54.90271
X13.93464 Y53.54071
X13.92179 Y53.42524
X13.88519 Y53.31904
X13.88326 Y52.93167
X13.86832 Y52.89562
X13.82344 Y52.85879
X12.86568 Y52.85310
X12.82964 Y52.86804
X12.79281 Y52.91292
X12.78521 Y53.10121
X8.80519 Y53.10121
X8.79757 Y52.91292
X8.76074 Y52.86804
X8.70519 Y52.85120
X7.78568 Y52.85310
X7.72205 Y52.89562
X7.70521 Y53.00121
X7.08947 Y53.00121
X6.94415 Y52.95168
X6.67001 Y52.94259
X6.44217 Y52.71475
X6.25439 Y52.56479
X6.05856 Y52.46560
X5.77624 Y52.40241
X4.40619 Y51.03236
X4.40619 Y46.75799
X5.71159 Y45.45259
X6.70580 Y45.45259
X6.86191 Y45.43765
X7.03994 Y45.38368
X7.18589 Y45.30346
X7.30679 Y45.20359
X9.08479 Y43.42559
X9.17293 Y43.32206
X9.27981 Y43.12175
X9.32284 Y42.96016
X9.33346 Y42.83245
X9.33379 Y39.72580
X9.31504 Y39.55044
X9.26488 Y39.39161
X9.18466 Y39.24566
X9.08479 Y39.12476
X6.11299 Y36.15296
X5.99206 Y36.05306
X5.82800 Y35.96538
X5.66808 Y35.91887
X5.52178 Y35.90447
X4.40946 Y35.90401
X4.40946 Y32.03079
X5.56724 Y30.87299
X21.10760 Y30.87299
X21.26371 Y30.85805
X21.42360 Y30.81157
X21.58769 Y30.72386
X21.70859 Y30.62399
X22.29279 Y30.03979
X22.37630 Y29.93880
X29.99371 Y29.93880
X32.79960 Y32.74469
X32.79960 Y34.57646
X31.70626 Y35.66980
X31.19953 Y35.66980
X31.16895 Y35.63665
X31.11340 Y35.61981
X29.91340 Y35.61981
X29.85782 Y35.63665
X29.82099 Y35.68154
X29.81340 Y35.71981
X29.81340 Y36.61979
X29.84269 Y36.69047
X29.91340 Y36.71979
X31.11340 Y36.71979
X31.16895 Y36.70292
X31.19948 Y36.66980
X31.91339 Y36.66980
X32.02043 Y36.65778
X32.11360 Y36.62751
X32.26691 Y36.52332
X33.65312 Y35.13711
X33.71276 Y35.06434
X33.76638 Y34.96274
X33.79927 Y34.79144
X33.79960 Y32.53760
X33.76483 Y32.35548
X33.72033 Y32.26818
X33.65312 Y32.18403
X30.55432 Y29.08523
X30.47012 Y29.01797
X30.38287 Y28.97352
X30.20080 Y28.93880
X22.54179 Y28.93880
X22.54179 Y25.42202
X22.92741 Y25.03637
X23.11925 Y25.03581
X23.29561 Y25.01506
X23.45448 Y24.96286
X23.59959 Y24.87970
