( pcb2gcode 1.3.2 )
( Software-independent Gcode )

G94 ( Millimeters per minute feed rate. )
G21 ( Units == Millimeters. )

G90 ( Absolute coordinates. )
S10000 ( RPM spindle speed. )
G64 P0.01000 ( set maximum deviation from commanded toolpath )
F600.00000 ( Feedrate. )

F600.00000 ( Feedrate. )
M3 ( Spindle on clockwise. )
G04 P0 ( dwell for no time -- G64 should not smooth over this point )
G00 Z5.00000 ( retract )

G00 X7.74004 Y5.47614 ( rapid move to begin. )
F300.00000
G01 Z-0.05000
G04 P0 ( dwell for no time -- G64 should not smooth over this point )
F600.00000
X7.74004 Y5.47614
X7.69416 Y5.06067
X7.56765 Y4.67311
X7.35858 Y4.31101
X7.07070 Y3.99371
X6.73125 Y3.74980
X6.35861 Y3.58450
X5.95998 Y3.49920
X5.54200 Y3.49702
X5.12254 Y3.58450
X4.74992 Y3.74980
X4.41048 Y3.99371
X4.12917 Y4.30288
X3.91353 Y4.67311
X3.78701 Y5.06067
X3.74114 Y5.49704
X3.78701 Y5.91251
X3.91353 Y6.30003
X4.12257 Y6.66214
X4.41048 Y6.97946
X4.74992 Y7.22338
X5.12254 Y7.38868
X5.53153 Y7.47562
X5.93920 Y7.47618
X6.35861 Y7.38868
X6.74057 Y7.21863
X7.07070 Y6.97946
X7.35200 Y6.67029
X7.56765 Y6.30006
X7.69416 Y5.91251
X7.74004 Y5.47614
G04 P0 ( dwell for no time -- G64 should not smooth over this point )
G00 Z5.00000 ( retract )

G00 X11.13945 Y9.82335 ( rapid move to begin. )
F300.00000
G01 Z-0.05000
G04 P0 ( dwell for no time -- G64 should not smooth over this point )
F600.00000
X11.13945 Y9.82335
X11.43543 Y9.62561
X11.78425 Y9.55619
X14.49049 Y9.54374
X14.66133 Y9.57585
X14.80149 Y9.66604
X14.88676 Y9.76007
X14.98892 Y9.79474
X15.05821 Y9.79185
X15.13568 Y9.75929
X15.21190 Y9.67526
X15.34975 Y9.58111
X15.53454 Y9.54369
X16.04449 Y9.53366
X16.14861 Y9.46990
X16.20306 Y9.36571
X16.19844 Y9.24745
X16.30560 Y8.70869
X16.62259 Y8.23430
X17.12424 Y7.73265
X17.59864 Y7.41565
X18.13577 Y7.30877
X18.67283 Y7.41560
X19.12820 Y7.71987
X19.43247 Y8.17524
X19.53935 Y8.71237
X19.43252 Y9.24943
X19.11553 Y9.72383
X18.61388 Y10.22548
X18.13948 Y10.54247
X17.60090 Y10.64963
X17.51703 Y10.63711
X17.41431 Y10.66360
X17.35739 Y10.70417
X17.13552 Y10.93122
X17.00969 Y11.15405
X16.87332 Y11.24724
X16.68874 Y11.28463
X15.53288 Y11.28463
X15.36179 Y11.25248
X15.22163 Y11.16228
X15.13631 Y11.06822
X15.01912 Y11.03183
X14.96014 Y11.03762
X14.88744 Y11.06904
X14.81122 Y11.15306
X14.67337 Y11.24722
X14.48872 Y11.28463
X12.17193 Y11.27572
X12.05098 Y11.33866
X10.89037 Y12.49926
X10.83546 Y12.59169
X10.83061 Y12.71351
X10.87229 Y12.79972
X10.98159 Y13.33883
X11.03297 Y13.43050
X11.12045 Y13.48857
X11.21476 Y13.50160
X11.30163 Y13.47729
X11.38738 Y13.40068
X11.44861 Y13.24884
X11.89898 Y13.08267
X12.44435 Y13.10409
X12.78145 Y13.24371
X12.79271 Y13.27536
X12.71529 Y13.35280
X12.11600 Y13.35280
X11.89761 Y13.37518
X11.66855 Y13.44787
X11.46939 Y13.56289
X11.29192 Y13.72486
X11.15860 Y13.91211
X11.06980 Y14.11285
X11.02365 Y14.32745
X11.02146 Y14.55732
X11.06980 Y14.79268
X11.16335 Y15.00279
X11.30592 Y15.19621
X11.47818 Y15.34838
X11.66855 Y15.45767
X11.89761 Y15.53037
X12.11600 Y15.55280
X12.71539 Y15.55280
X12.79273 Y15.63012
X12.78331 Y15.65668
X12.33294 Y15.82285
X11.78758 Y15.80144
X11.44988 Y15.66156
X11.35093 Y15.42498
X11.26139 Y15.36034
X11.17211 Y15.34429
X11.08364 Y15.36451
X11.01481 Y15.41256
X10.94996 Y15.48282
X10.82657 Y15.69519
X10.69027 Y15.78831
X10.50561 Y15.82572
X9.75225 Y15.82572
X9.57600 Y15.85661
X9.39972 Y15.82572
X8.64479 Y15.82572
X8.47367 Y15.79354
X8.33353 Y15.70337
X8.24042 Y15.56707
X8.20305 Y15.38267
X8.20305 Y14.62905
X8.16798 Y14.43129
X8.16798 Y13.36096
X8.27920 Y12.80170
X8.58367 Y12.34605
X8.86079 Y12.15580
X8.98466 Y11.97813
X11.13945 Y9.82335
G04 P0 ( dwell for no time -- G64 should not smooth over this point )
G00 Z5.00000 ( retract )

G00 X10.36960 Y12.58445 ( rapid move to begin. )
F300.00000
G01 Z-0.05000
G04 P0 ( dwell for no time -- G64 should not smooth over this point )
F600.00000
X10.36960 Y12.58445
X11.98984 Y10.96419
X14.51158 Y10.96419
X14.56713 Y10.94732
X14.59471 Y10.91974
X14.61158 Y10.86419
X14.61158 Y9.96421
X14.59471 Y9.90864
X14.54983 Y9.87181
X14.51158 Y9.86421
X11.76208 Y9.86421
X11.64524 Y9.87714
X11.54272 Y9.91024
X11.37315 Y10.02528
X9.18708 Y12.21135
X9.08484 Y12.35933
X9.01720 Y12.39182
X8.83254 Y12.52870
X8.68609 Y12.69217
X8.57582 Y12.88201
X8.50272 Y13.09995
X8.47600 Y13.33878
X8.47600 Y14.45280
X8.49838 Y14.67114
X8.52350 Y14.75552
X8.52350 Y15.40530
X8.53109 Y15.44355
X8.56792 Y15.48843
X8.62350 Y15.50530
X9.26338 Y15.50530
X9.46099 Y15.54675
X9.68052 Y15.54731
X9.88852 Y15.50530
X10.52850 Y15.50530
X10.58405 Y15.48843
X10.61163 Y15.46085
X10.62850 Y15.40530
X10.62850 Y14.75539
X10.65357 Y14.67114
X10.67600 Y14.45280
X10.67544 Y13.32832
X10.64923 Y13.09995
X10.58087 Y12.89133
X10.46586 Y12.69217
X10.36960 Y12.58445
G04 P0 ( dwell for no time -- G64 should not smooth over this point )
G00 Z5.00000 ( retract )

G00 X10.36617 Y17.10591 ( rapid move to begin. )
F300.00000
G01 Z-0.05000
G04 P0 ( dwell for no time -- G64 should not smooth over this point )
F600.00000
X10.36617 Y17.10591
X11.32151 Y17.10499
X12.20472 Y17.46991
X12.88097 Y18.14499
X13.24742 Y19.02757
X13.24833 Y19.98291
X12.88341 Y20.86612
X12.20833 Y21.54237
X11.32576 Y21.90882
X10.37041 Y21.90973
X9.48720 Y21.54481
X8.81095 Y20.86973
X8.44451 Y19.98716
X8.44359 Y19.03181
X8.80851 Y18.14860
X9.48359 Y17.47235
X10.36617 Y17.10591
G04 P0 ( dwell for no time -- G64 should not smooth over this point )
G00 Z5.00000 ( retract )

G00 X8.04540 Y23.02756 ( rapid move to begin. )
F300.00000
G01 Z-0.05000
G04 P0 ( dwell for no time -- G64 should not smooth over this point )
F600.00000
X8.04540 Y23.02756
X8.66574 Y23.04669
X9.09221 Y23.22334
X9.11476 Y23.27795
X8.89630 Y23.49644
X8.69007 Y23.40523
X8.42546 Y23.35067
X8.16574 Y23.35286
X7.92188 Y23.40523
X7.71570 Y23.49644
X7.49716 Y23.27798
X7.51809 Y23.22723
X8.04540 Y23.02756
G04 P0 ( dwell for no time -- G64 should not smooth over this point )
G00 Z5.00000 ( retract )

G00 X6.76529 Y24.22758 ( rapid move to begin. )
F300.00000
G01 Z-0.05000
G04 P0 ( dwell for no time -- G64 should not smooth over this point )
F600.00000
X6.76529 Y24.22758
X6.94194 Y23.80112
X6.99655 Y23.77856
X7.21743 Y23.99939
X7.17047 Y24.08181
X7.09287 Y24.31885
X7.06353 Y24.57694
X7.09287 Y24.85593
X7.16671 Y25.08318
X7.20600 Y25.15560
X7.20600 Y25.18669
X6.99658 Y25.39616
X6.94583 Y25.37523
X6.74616 Y24.84793
X6.76529 Y24.22758
G04 P0 ( dwell for no time -- G64 should not smooth over this point )
G00 Z5.00000 ( retract )

G00 X9.86576 Y24.32680 ( rapid move to begin. )
F300.00000
G01 Z-0.05000
G04 P0 ( dwell for no time -- G64 should not smooth over this point )
F600.00000
X9.86576 Y24.32680
X9.84664 Y24.94714
X9.66998 Y25.37361
X9.61540 Y25.39616
X9.40600 Y25.18679
X9.40600 Y25.15557
X9.44527 Y25.08318
X9.52182 Y24.84582
X9.54897 Y24.58737
X9.51910 Y24.31885
X9.44151 Y24.08181
X9.39452 Y23.99939
X9.61532 Y23.77856
X9.66609 Y23.79949
X9.86576 Y24.32680
G04 P0 ( dwell for no time -- G64 should not smooth over this point )
G00 Z5.00000 ( retract )

G00 X16.72399 Y22.59739 ( rapid move to begin. )
F300.00000
G01 Z-0.05000
G04 P0 ( dwell for no time -- G64 should not smooth over this point )
F600.00000
X16.72399 Y22.59739
X23.74389 Y22.59739
X23.91986 Y22.62200
X24.03365 Y22.60620
X24.16032 Y22.55758
X24.32197 Y22.42667
X24.39586 Y22.31293
X24.44046 Y22.17026
X24.77373 Y21.83699
X26.46898 Y21.83650
X26.62212 Y21.80602
X26.70076 Y21.76615
X26.87571 Y21.60679
X27.38938 Y21.60679
X27.44493 Y21.58992
X27.47251 Y21.56234
X27.48938 Y21.50679
X27.48744 Y20.58728
X27.44493 Y20.52365
X27.38938 Y20.50681
X26.16985 Y20.50872
X26.11866 Y20.53610
X26.09128 Y20.58728
X26.08938 Y20.93701
X24.58740 Y20.93701
X24.49004 Y20.94801
X24.40630 Y20.97544
X24.27645 Y21.06218
X23.84008 Y21.49792
X16.72341 Y21.49744
X16.59542 Y21.31946
X16.41792 Y21.15746
X16.21876 Y21.04247
X16.01018 Y20.97412
X15.77139 Y20.94740
X15.22603 Y20.94740
X15.04007 Y20.86523
X14.79623 Y20.81286
X14.52608 Y20.81121
X14.26212 Y20.86899
X14.02572 Y20.97661
X13.83240 Y21.11707
X13.64470 Y21.32556
X13.52047 Y21.54181
X13.44287 Y21.77885
X13.41353 Y22.05784
X13.44287 Y22.31593
X13.52522 Y22.56228
X13.65039 Y22.77798
X13.83240 Y22.97767
X14.03446 Y23.12383
X14.28201 Y23.23223
X14.52608 Y23.28357
X14.77546 Y23.28413
X15.04007 Y23.22954
X15.22590 Y23.14740
X15.77139 Y23.14740
X16.00007 Y23.12334
X16.21879 Y23.05227
X16.41795 Y22.93729
X16.58142 Y22.79081
X16.72399 Y22.59739
G04 P0 ( dwell for no time -- G64 should not smooth over this point )
G00 Z5.00000 ( retract )

G00 X17.78528 Y31.78647 ( rapid move to begin. )
F300.00000
G01 Z-0.05000
G04 P0 ( dwell for no time -- G64 should not smooth over this point )
F600.00000
X17.78528 Y31.78647
X21.24407 Y35.24527
X21.36030 Y35.30739
X27.37396 Y35.30734
X27.45608 Y35.27315
X27.51597 Y35.21405
X27.54142 Y35.16581
X27.55643 Y35.08304
X27.53880 Y34.99693
X27.48054 Y34.90430
X27.44294 Y34.71875
X27.44294 Y34.01243
X27.47505 Y33.84159
X27.56525 Y33.70143
X27.70154 Y33.60831
X27.88597 Y33.57095
X29.04231 Y33.57095
X29.21414 Y33.60326
X29.31886 Y33.66592
X29.40344 Y33.68167
X29.48914 Y33.66429
X29.68234 Y33.58339
X29.86339 Y33.58339
X29.86339 Y33.89142
X29.72511 Y33.89901
X29.68023 Y33.93584
X29.66529 Y33.97189
X29.66339 Y34.74138
X29.69267 Y34.81207
X29.76339 Y34.84138
X30.21566 Y34.84138
X30.32155 Y34.86419
X30.41706 Y34.86348
X30.51101 Y34.84138
X30.96338 Y34.84138
X31.03407 Y34.81207
X31.05576 Y34.77963
X31.06338 Y34.72040
X31.34563 Y34.72040
X31.37138 Y34.74616
X31.37138 Y34.82241
X31.30824 Y34.97488
X31.25500 Y35.05705
X31.24532 Y35.17897
X31.27921 Y35.26084
X31.32668 Y35.31103
X31.42371 Y35.35738
X31.53839 Y35.35502
X31.64515 Y35.29525
X32.42505 Y34.51535
X32.47225 Y34.44567
X32.48987 Y34.37313
X32.49158 Y32.96630
X32.45050 Y32.83615
X29.93260 Y30.31332
X29.86336 Y30.26603
X29.81147 Y30.25030
X22.59599 Y30.24870
X22.52858 Y30.26405
X22.45494 Y30.31327
X21.94229 Y30.82589
X21.54900 Y31.08868
X21.08512 Y31.18099
X17.62729 Y31.18099
X17.54497 Y31.19648
X17.48602 Y31.23166
X17.42927 Y31.29917
X17.40075 Y31.39816
X17.41754 Y31.49480
X17.48137 Y31.58055
X17.78528 Y31.78647
G04 P0 ( dwell for no time -- G64 should not smooth over this point )
G00 Z5.00000 ( retract )

G00 X20.97765 Y37.02781 ( rapid move to begin. )
F300.00000
G01 Z-0.05000
G04 P0 ( dwell for no time -- G64 should not smooth over this point )
F600.00000
X20.97765 Y37.02781
X20.62856 Y36.95837
X20.33260 Y36.76063
X16.87403 Y33.30206
X16.75300 Y33.23910
X14.79700 Y33.23559
X14.70964 Y33.25299
X14.63581 Y33.30260
X14.57629 Y33.41012
X14.57706 Y33.51817
X14.63461 Y33.62121
X14.69524 Y33.66414
X14.88836 Y34.17689
X14.86870 Y34.78024
X14.78198 Y34.98967
X14.52697 Y34.73470
X14.57137 Y34.42756
X14.54244 Y34.16798
X14.46761 Y33.93950
X14.34790 Y33.73102
X14.17431 Y33.53579
X13.96205 Y33.38362
X13.74218 Y33.28632
X13.50713 Y33.23580
X13.24597 Y33.23417
X12.99080 Y33.29007
X12.76263 Y33.39406
X12.56842 Y33.53579
X12.40058 Y33.72223
X12.27516 Y33.93950
X12.19598 Y34.18842
X12.17193 Y34.43803
X12.20033 Y34.68718
X12.27140 Y34.90587
X12.31409 Y34.98418
X12.09187 Y35.20648
X12.04648 Y35.18834
X11.85435 Y34.67824
X11.87404 Y34.07486
X12.04338 Y33.66599
X12.10810 Y33.62121
X12.15821 Y33.54207
X12.16876 Y33.41961
X12.13777 Y33.34146
X12.05047 Y33.26231
X11.94567 Y33.23559
X10.84580 Y33.23803
X10.79322 Y33.24951
X10.71011 Y33.30222
X9.92022 Y34.09713
X9.89467 Y34.14496
X9.87923 Y34.22736
X9.87968 Y34.72606
X9.65055 Y35.28062
X9.22672 Y35.70521
X8.67257 Y35.93528
X8.07283 Y35.93589
X7.51830 Y35.70676
X7.09371 Y35.28291
X6.86364 Y34.72878
X6.86303 Y34.12896
X7.09213 Y33.57453
X7.51601 Y33.14992
X8.07016 Y32.91984
X8.58205 Y32.91890
X8.69820 Y32.88113
X9.79899 Y31.78652
X10.11778 Y31.56823
X10.16678 Y31.49483
X10.18212 Y31.42747
X10.16678 Y31.32109
X10.11755 Y31.24743
X10.06122 Y31.20748
X9.95700 Y31.18099
X5.76409 Y31.18342
X5.69760 Y31.20021
X5.62843 Y31.24746
X4.78396 Y32.09196
X4.72904 Y32.18439
X4.71749 Y32.25248
X4.71749 Y35.36899
X4.73296 Y35.45123
X4.80321 Y35.54526
X4.89996 Y35.59154
X5.48939 Y35.59591
X5.95335 Y35.68819
X6.34664 Y35.95098
X9.28669 Y38.89103
X9.54948 Y39.28432
X9.64179 Y39.74820
X9.64179 Y42.80210
X9.54953 Y43.26595
X9.28674 Y43.65924
X7.54049 Y45.40549
X7.14720 Y45.66828
X6.68332 Y45.76059
X5.93328 Y45.76059
X5.84639 Y45.77783
X5.77276 Y45.82706
X4.78066 Y46.81916
X4.74068 Y46.87549
X4.71662 Y46.95482
X4.71419 Y50.81061
X4.73143 Y50.89751
X4.78066 Y50.97117
X5.90791 Y52.09844
X5.96425 Y52.13842
X6.20151 Y52.19585
X6.67583 Y52.51279
X6.81543 Y52.62826
X7.09597 Y52.68861
X7.27133 Y52.69316
X7.36120 Y52.67528
X7.43526 Y52.62481
X7.57367 Y52.41788
X7.64037 Y52.36728
X7.67880 Y52.31135
X7.70105 Y52.24607
X7.70125 Y52.18163
X7.66645 Y52.08458
X7.58253 Y52.00845
X7.48832 Y51.87058
X7.45096 Y51.68615
X7.45096 Y51.29761
X7.41337 Y51.08692
X7.40897 Y49.86911
X7.37545 Y49.78796
X7.26348 Y49.67020
X7.06361 Y49.18882
X7.06308 Y48.66863
X7.26183 Y48.18763
X7.62945 Y47.81936
X8.11012 Y47.61982
X8.63028 Y47.61928
X9.11113 Y47.81799
X9.54532 Y48.25179
X9.63122 Y48.28829
X9.72865 Y48.28547
X9.96020 Y48.51697
X9.89596 Y48.70958
X9.87194 Y48.91712
X9.89162 Y49.12512
X9.95995 Y49.33835
X9.72865 Y49.56967
X9.64595 Y49.56538
X9.54196 Y49.60632
X9.28895 Y49.86048
X9.23373 Y49.96914
X9.22942 Y51.08674
X9.19182 Y51.29761
X9.19182 Y51.68745
X9.15967 Y51.85854
X9.06950 Y51.99865
X8.97544 Y52.08402
X8.93904 Y52.20121
X8.94484 Y52.26019
X8.97626 Y52.33286
X9.06020 Y52.40909
X9.15507 Y52.54790
X9.18085 Y52.65458
X9.21725 Y52.71185
X9.30320 Y52.77596
X9.39002 Y52.79316
X12.28979 Y52.78295
X12.35326 Y52.75432
X12.41595 Y52.69085
X12.44937 Y52.60812
X12.48306 Y52.42900
X12.57323 Y52.28887
X12.67218 Y52.19507
X12.69334 Y52.14493
X12.70063 Y52.04183
X12.66644 Y51.95458
X12.58252 Y51.87846
X12.48831 Y51.74058
X12.45095 Y51.55615
X12.45095 Y51.16761
X12.41336 Y50.95692
X12.40660 Y49.85971
X12.34744 Y49.75362
X12.19761 Y49.60345
X12.11148 Y49.56683
X12.01407 Y49.56965
X11.78280 Y49.33843
X11.84953 Y49.13546
X11.87137 Y48.92756
X11.84681 Y48.70958
X11.78280 Y48.51674
X12.01404 Y48.28547
X12.09670 Y48.28977
X12.20073 Y48.24880
X12.62949 Y47.81933
X13.11011 Y47.61982
X13.63030 Y47.61928
X14.11130 Y47.81804
X14.31193 Y48.01562
X14.41770 Y48.06607
X17.58307 Y48.06957
X17.67004 Y48.05230
X17.74365 Y48.00308
X22.34455 Y43.40215
X22.64052 Y43.20441
X22.98933 Y43.13499
X27.13096 Y43.13499
X27.21782 Y43.11769
X27.30388 Y43.05333
X27.33865 Y42.99933
X27.35549 Y42.93268
X27.35356 Y42.86364
X27.32890 Y42.79912
X27.26410 Y42.72094
X27.20139 Y42.56958
X27.20139 Y42.49310
X27.22709 Y42.46740
X27.50939 Y42.46740
X27.51699 Y42.52663
X27.53868 Y42.55907
X27.60939 Y42.58838
X28.06166 Y42.58838
X28.15567 Y42.61048
X28.25120 Y42.61119
X28.35701 Y42.58838
X28.80939 Y42.58838
X28.88008 Y42.55907
X28.90939 Y42.48838
X28.90746 Y41.71889
X28.89252 Y41.68284
X28.84764 Y41.64601
X28.70939 Y41.63842
X28.70939 Y41.33039
X28.89036 Y41.33039
X29.08358 Y41.41114
X29.17174 Y41.42839
X29.25805 Y41.41084
X29.34639 Y41.35554
X29.53194 Y41.31795
X30.04624 Y41.31795
X30.12993 Y41.30538
X31.48807 Y41.30538
X31.63712 Y41.33075
X36.55679 Y41.32402
X36.66355 Y41.26425
X38.52976 Y39.39806
X38.57701 Y39.32890
X38.59332 Y39.27223
X38.57896 Y39.15067
X38.52976 Y39.07703
X38.45610 Y39.02783
X38.36929 Y39.01059
X29.26862 Y39.01059
X28.95785 Y38.94879
X28.69433 Y38.77272
X27.79326 Y37.87165
X27.61719 Y37.60813
X27.53807 Y37.16787
X27.46235 Y37.07186
X27.37264 Y37.03213
X20.97765 Y37.02781
G04 P0 ( dwell for no time -- G64 should not smooth over this point )
G00 Z5.00000 ( retract )

G00 X19.22460 Y41.42757 ( rapid move to begin. )
F300.00000
G01 Z-0.05000
G04 P0 ( dwell for no time -- G64 should not smooth over this point )
F600.00000
X19.22460 Y41.42757
X19.04926 Y42.30906
X18.54990 Y43.05640
X17.80255 Y43.55576
X16.89859 Y43.73560
X16.84416 Y43.73560
X15.94022 Y43.55582
X15.19288 Y43.05645
X14.69352 Y42.30911
X14.51813 Y41.42757
X14.69346 Y40.54607
X15.19283 Y39.79872
X15.94017 Y39.29936
X16.84388 Y39.11958
X16.89882 Y39.11958
X17.80250 Y39.29931
X18.54985 Y39.79867
X19.04921 Y40.54602
X19.22460 Y41.42757
G04 P0 ( dwell for no time -- G64 should not smooth over this point )
G00 Z5.00000 ( retract )

G00 X16.86125 Y39.42811 ( rapid move to begin. )
F300.00000
G01 Z-0.05000
G04 P0 ( dwell for no time -- G64 should not smooth over this point )
F600.00000
X16.86125 Y39.42811
X16.45899 Y39.47109
X16.07357 Y39.59415
X15.72084 Y39.79227
X15.41521 Y40.05735
X15.16918 Y40.37853
X14.99285 Y40.74266
X14.89649 Y41.11482
X14.87398 Y41.51874
X14.93319 Y41.91894
X15.07180 Y42.29905
X15.28404 Y42.64347
X15.56131 Y42.93811
X15.89217 Y43.17090
X16.26316 Y43.33232
X16.65904 Y43.41578
X16.86631 Y43.42744
X17.26394 Y43.38815
X17.65058 Y43.26900
X18.00529 Y43.07446
X18.31360 Y42.81248
X18.56288 Y42.49384
X18.74286 Y42.13148
X18.84626 Y41.74035
X18.86877 Y41.33644
X18.80956 Y40.93624
X18.67095 Y40.55613
X18.45871 Y40.21170
X18.18144 Y39.91706
X17.85058 Y39.68427
X17.47959 Y39.52285
X17.08371 Y39.43939
X16.86125 Y39.42811
G04 P0 ( dwell for no time -- G64 should not smooth over this point )
G00 Z5.00000 ( retract )

G00 X13.01864 Y35.92489 ( rapid move to begin. )
F300.00000
G01 Z-0.05000
G04 P0 ( dwell for no time -- G64 should not smooth over this point )
F600.00000
X13.01864 Y35.92489
X12.61227 Y35.75657
X12.59245 Y35.70709
X12.81343 Y35.48608
X13.00055 Y35.56884
X13.24597 Y35.62098
X13.48636 Y35.62154
X13.67823 Y35.58293
X13.92557 Y35.83023
X13.62202 Y35.94455
X13.01864 Y35.92489
G04 P0 ( dwell for no time -- G64 should not smooth over this point )
G00 Z5.00000 ( retract )

G00 X4.86125 Y39.52811 ( rapid move to begin. )
F300.00000
G01 Z-0.05000
G04 P0 ( dwell for no time -- G64 should not smooth over this point )
F600.00000
X4.86125 Y39.52811
X4.47911 Y39.56903
X4.11302 Y39.68605
X3.77797 Y39.87434
X3.50162 Y40.11158
X3.26473 Y40.41427
X3.09367 Y40.75841
X2.99534 Y41.12996
X2.97383 Y41.51368
X3.03001 Y41.89389
X3.16159 Y42.25500
X3.36311 Y42.58226
X3.62643 Y42.86224
X3.94073 Y43.08348
X4.29310 Y43.23692
X4.66915 Y43.31629
X4.86631 Y43.32744
X5.24383 Y43.29021
X5.61114 Y43.17710
X5.94817 Y42.99239
X6.24113 Y42.74360
X6.47801 Y42.44091
X6.64908 Y42.09676
X6.74741 Y41.72521
X6.76892 Y41.34149
X6.71273 Y40.96128
X6.58116 Y40.60017
X6.37964 Y40.27292
X6.11632 Y39.99293
X5.80202 Y39.77170
X5.44964 Y39.61826
X5.07360 Y39.53888
X4.86125 Y39.52811
G04 P0 ( dwell for no time -- G64 should not smooth over this point )
G00 Z5.00000 ( retract )

G00 X10.66627 Y47.60976 ( rapid move to begin. )
F300.00000
G01 Z-0.05000
G04 P0 ( dwell for no time -- G64 should not smooth over this point )
F600.00000
X10.66627 Y47.60976
X11.19106 Y47.63180
X11.50333 Y47.76114
X11.51186 Y47.78641
X11.27864 Y48.01969
X11.18039 Y47.97653
X10.98623 Y47.93472
X10.77734 Y47.93254
X10.56236 Y47.97653
X10.46414 Y48.01971
X10.23086 Y47.78646
X10.23752 Y47.76668
X10.66627 Y47.60976
G04 P0 ( dwell for no time -- G64 should not smooth over this point )
G00 Z5.00000 ( retract )

G00 X7.72139 Y49.68527 ( rapid move to begin. )
F300.00000
G01 Z-0.05000
G04 P0 ( dwell for no time -- G64 should not smooth over this point )
F600.00000
X7.72139 Y49.68527
X7.72139 Y51.10878
X7.73473 Y51.23464
X7.77141 Y51.34102
X7.77900 Y51.74704
X7.81583 Y51.79192
X7.87141 Y51.80878
X8.80963 Y51.80116
X8.85451 Y51.76433
X8.86945 Y51.72829
X8.87138 Y51.34094
X8.90798 Y51.23467
X8.92083 Y51.11925
X8.92139 Y49.75791
X9.04788 Y49.66330
X9.17377 Y49.52347
X9.28014 Y49.34361
X9.34951 Y49.13546
X9.37082 Y48.93802
X9.35113 Y48.73002
X9.28489 Y48.52085
X9.18034 Y48.33980
X9.03236 Y48.17785
X8.86203 Y48.05682
X8.68037 Y47.97653
X8.46544 Y47.93254
X8.26686 Y47.93307
X8.06234 Y47.97653
X7.88070 Y48.05682
X7.71037 Y48.17785
X7.56897 Y48.33168
X7.45784 Y48.52085
X7.39594 Y48.70958
X7.37191 Y48.91712
X7.39160 Y49.12512
X7.45784 Y49.33426
X7.55667 Y49.50655
X7.72139 Y49.68527
G04 P0 ( dwell for no time -- G64 should not smooth over this point )
G00 Z5.00000 ( retract )

G00 X8.80320 Y55.07583 ( rapid move to begin. )
F300.00000
G01 Z-0.05000
G04 P0 ( dwell for no time -- G64 should not smooth over this point )
F600.00000
X8.80320 Y55.07583
X8.80953 Y54.00118
X12.73520 Y54.00118
X12.73520 Y54.90263
X11.23203 Y56.40580
X10.13323 Y56.40580
X8.80320 Y55.07583
G04 P0 ( dwell for no time -- G64 should not smooth over this point )
G00 Z5.00000 ( retract )

G00 X7.20664 Y58.15574 ( rapid move to begin. )
F300.00000
G01 Z-0.05000
G04 P0 ( dwell for no time -- G64 should not smooth over this point )
F600.00000
X7.20664 Y58.15574
X7.16076 Y57.74027
X7.03425 Y57.35271
X6.82518 Y56.99061
X6.53730 Y56.67331
X6.19785 Y56.42940
X5.82521 Y56.26410
X5.42658 Y56.17880
X5.00860 Y56.17662
X4.58914 Y56.26410
X4.21652 Y56.42940
X3.87708 Y56.67331
X3.59577 Y56.98248
X3.38013 Y57.35271
X3.25361 Y57.74027
X3.20774 Y58.17664
X3.25361 Y58.59211
X3.38013 Y58.97963
X3.58917 Y59.34174
X3.87708 Y59.65906
X4.21652 Y59.90298
X4.58914 Y60.06828
X4.99813 Y60.15522
X5.40580 Y60.15578
X5.82521 Y60.06828
X6.20717 Y59.89823
X6.53730 Y59.65906
X6.81860 Y59.34989
X7.03425 Y58.97966
X7.16076 Y58.59211
X7.20664 Y58.15574
G04 P0 ( dwell for no time -- G64 should not smooth over this point )
G00 Z5.00000 ( retract )

G00 X13.33515 Y55.99966 ( rapid move to begin. )
F300.00000
G01 Z-0.05000
G04 P0 ( dwell for no time -- G64 should not smooth over this point )
F600.00000
X13.33515 Y55.99966
X13.74130 Y56.40580
X12.92903 Y56.40580
X13.33515 Y55.99966
G04 P0 ( dwell for no time -- G64 should not smooth over this point )
G00 Z5.00000 ( retract )

G00 X17.80474 Y48.37760 ( rapid move to begin. )
F300.00000
G01 Z-0.05000
G04 P0 ( dwell for no time -- G64 should not smooth over this point )
F600.00000
X17.80474 Y48.37760
X14.20284 Y48.37760
X14.03238 Y48.17785
X13.86205 Y48.05682
X13.67028 Y47.97384
X13.46545 Y47.93254
X13.26687 Y47.93307
X13.06235 Y47.97653
X12.86261 Y48.06726
X12.69487 Y48.19185
X12.56240 Y48.33980
X12.46261 Y48.51153
X12.39596 Y48.70958
X12.37193 Y48.91712
X12.39162 Y49.12512
X12.45786 Y49.33426
X12.56238 Y49.51532
X12.72138 Y49.68524
X12.72138 Y50.97879
X12.73472 Y51.10464
X12.77140 Y51.21102
X12.77140 Y51.57879
X12.78824 Y51.63434
X12.81582 Y51.66192
X12.87140 Y51.67879
X13.77137 Y51.67879
X13.82692 Y51.66192
X13.85450 Y51.63434
X13.87137 Y51.57879
X13.87137 Y51.21094
X13.90797 Y51.10467
X13.92138 Y50.97879
X13.92138 Y49.75794
X14.04790 Y49.66330
X14.20279 Y49.47757
X18.03260 Y49.47757
X18.23379 Y49.43899
X18.34601 Y49.37902
X23.19495 Y44.54299
X28.62808 Y44.54106
X28.69171 Y44.49854
X28.70858 Y44.44299
X28.70096 Y43.50474
X28.66413 Y43.45985
X28.60858 Y43.44301
X22.96718 Y43.44301
X22.85034 Y43.45594
X22.74783 Y43.48904
X22.57826 Y43.60408
X17.80474 Y48.37760
G04 P0 ( dwell for no time -- G64 should not smooth over this point )
G00 Z5.00000 ( retract )

G00 X23.57945 Y50.66439 ( rapid move to begin. )
F300.00000
G01 Z-0.05000
G04 P0 ( dwell for no time -- G64 should not smooth over this point )
F600.00000
X23.57945 Y50.66439
X28.50108 Y50.66246
X28.56471 Y50.61994
X28.58158 Y50.56439
X28.57964 Y49.64488
X28.53713 Y49.58125
X28.48158 Y49.56441
X23.57864 Y49.56441
X23.48694 Y49.42299
X23.33216 Y49.26713
X23.14069 Y49.13995
X22.92698 Y49.05535
X22.67862 Y49.01598
X22.20137 Y49.02878
X21.98299 Y49.05116
X21.75393 Y49.12385
X21.55477 Y49.23886
X21.37730 Y49.40084
X21.24397 Y49.58809
X21.15517 Y49.78882
X21.10737 Y50.01377
X21.10684 Y50.23330
X21.15517 Y50.46865
X21.24397 Y50.66944
X21.37732 Y50.85666
X21.54664 Y51.01206
X21.76371 Y51.13741
X21.96254 Y51.20200
X22.19091 Y51.22822
X22.61699 Y51.22877
X22.84085 Y51.20528
X23.04633 Y51.14102
X23.23609 Y51.03736
X23.41552 Y50.88511
X23.57945 Y50.66439
G04 P0 ( dwell for no time -- G64 should not smooth over this point )
G00 Z5.00000 ( retract )

G00 X33.02739 Y49.14643 ( rapid move to begin. )
F300.00000
G01 Z-0.05000
G04 P0 ( dwell for no time -- G64 should not smooth over this point )
F600.00000
X33.02739 Y49.14643
X54.58099 Y27.59283
X56.75818 Y27.59227
X56.95106 Y27.54957
X57.04776 Y27.49245
X57.12338 Y27.42420
X73.57392 Y27.42420
X73.75598 Y27.38943
X73.84328 Y27.34493
X73.92743 Y27.27772
X76.75692 Y24.44823
X76.86111 Y24.29492
X76.89138 Y24.20175
X76.90340 Y24.09472
X76.90340 Y21.18278
X76.86390 Y20.98916
X76.80340 Y20.88334
X76.80340 Y20.18279
X76.78653 Y20.12721
X76.74165 Y20.09038
X76.70340 Y20.08279
X76.10340 Y20.08279
X76.04783 Y20.09963
X76.00531 Y20.16325
X76.00340 Y20.88352
X75.94285 Y20.98916
X75.90340 Y21.18278
X75.90340 Y23.88758
X73.36678 Y26.42420
X56.91634 Y26.42420
X56.80926 Y26.43616
X56.71609 Y26.46644
X56.63064 Y26.51429
X56.54057 Y26.59283
X54.37395 Y26.59283
X54.26687 Y26.60479
X54.10454 Y26.67205
X54.02039 Y26.73926
X32.17382 Y48.58583
X32.06963 Y48.73914
X32.03552 Y48.85154
X32.02739 Y49.61440
X30.76773 Y49.61440
X30.73715 Y49.58125
X30.68160 Y49.56441
X29.44332 Y49.57201
X29.39844 Y49.60884
X29.38160 Y49.66441
X29.38919 Y50.60264
X29.42602 Y50.64752
X29.48160 Y50.66439
X30.68160 Y50.66439
X30.73715 Y50.64752
X30.76768 Y50.61440
X32.52739 Y50.61440
X32.67727 Y50.58938
X33.16564 Y50.58176
X33.21052 Y50.54493
X33.22739 Y50.48938
X33.22739 Y49.73942
X33.21052 Y49.68384
X33.16564 Y49.64701
X33.02739 Y49.63942
X33.02739 Y49.14643
G04 P0 ( dwell for no time -- G64 should not smooth over this point )
G00 Z5.00000 ( retract )

G00 X34.78139 Y49.35710 ( rapid move to begin. )
F300.00000
G01 Z-0.05000
G04 P0 ( dwell for no time -- G64 should not smooth over this point )
F600.00000
X34.78139 Y49.35710
X34.80709 Y49.33139
X35.10854 Y49.33139
X35.25845 Y49.39347
X35.37321 Y49.50823
X35.43538 Y49.66441
X35.09287 Y49.66441
X35.02738 Y49.63942
X34.78139 Y49.63942
X34.78139 Y49.35710
G04 P0 ( dwell for no time -- G64 should not smooth over this point )
G00 Z5.00000 ( retract )

G00 X35.43538 Y50.56439 ( rapid move to begin. )
F300.00000
G01 Z-0.05000
G04 P0 ( dwell for no time -- G64 should not smooth over this point )
F600.00000
X35.43538 Y50.56439
X35.37326 Y50.72047
X35.25850 Y50.83520
X35.10846 Y50.89738
X34.80714 Y50.89738
X34.78139 Y50.87162
X34.78139 Y50.58938
X35.02738 Y50.58938
X35.09281 Y50.56439
X35.43538 Y50.56439
G04 P0 ( dwell for no time -- G64 should not smooth over this point )
G00 Z5.00000 ( retract )

G00 X36.72466 Y41.63880 ( rapid move to begin. )
F300.00000
G01 Z-0.05000
G04 P0 ( dwell for no time -- G64 should not smooth over this point )
F600.00000
X36.72466 Y41.63880
X31.66074 Y41.63880
X31.50938 Y41.61340
X30.10939 Y41.61340
X29.96019 Y41.63842
X29.47111 Y41.64601
X29.42623 Y41.68284
X29.40939 Y41.73842
X29.41129 Y42.50789
X29.43867 Y42.55907
X29.48985 Y42.58645
X29.70860 Y42.58838
X29.70860 Y43.44301
X29.57032 Y43.45061
X29.52544 Y43.48744
X29.51050 Y43.52348
X29.51619 Y44.48124
X29.55302 Y44.52612
X29.60860 Y44.54299
X30.80860 Y44.54299
X30.86415 Y44.52612
X30.89173 Y44.49854
X30.90860 Y44.44299
X30.90860 Y43.54301
X30.89173 Y43.48744
X30.84685 Y43.45061
X30.70860 Y43.44301
X30.70860 Y42.61340
X31.38271 Y42.61340
X31.53478 Y42.63880
X36.93180 Y42.63880
X37.11387 Y42.60403
X37.21745 Y42.54865
X53.48480 Y26.29281
X56.21708 Y26.29248
X56.37842 Y26.26281
X56.47245 Y26.21734
X56.65647 Y26.05260
X57.03366 Y26.05204
X57.13725 Y26.03893
X57.23933 Y26.00259
X73.17773 Y26.00259
X73.27503 Y25.99154
X73.41931 Y25.93175
X73.49589 Y25.87076
X75.45156 Y23.91509
X75.55242 Y23.75987
X75.58339 Y23.59693
X75.58339 Y21.18278
X75.57081 Y21.07910
X75.53340 Y20.97951
X75.53340 Y20.18279
X75.51653 Y20.12721
X75.47165 Y20.09038
X75.43340 Y20.08279
X74.83340 Y20.08279
X74.77783 Y20.09963
X74.73531 Y20.16325
X74.73340 Y20.97936
X74.69594 Y21.07910
X74.68341 Y21.18278
X74.68341 Y23.41049
X72.99129 Y25.10261
X57.23948 Y25.10261
X57.13725 Y25.06622
X57.03364 Y25.05313
X56.44944 Y25.05260
X56.34235 Y25.06456
X56.18002 Y25.13182
X56.00209 Y25.29281
X53.27777 Y25.29281
X53.16367 Y25.30642
X53.06504 Y25.34076
X52.92420 Y25.43924
X36.72466 Y41.63880
G04 P0 ( dwell for no time -- G64 should not smooth over this point )
G00 Z5.00000 ( retract )

G00 X38.62496 Y37.80261 ( rapid move to begin. )
F300.00000
G01 Z-0.05000
G04 P0 ( dwell for no time -- G64 should not smooth over this point )
F600.00000
X38.62496 Y37.80261
X29.43258 Y37.80261
X28.76336 Y37.13340
X28.76336 Y36.71979
X28.95163 Y36.71217
X28.99651 Y36.67534
X29.01338 Y36.61979
X29.01338 Y35.71981
X28.99651 Y35.66424
X28.96339 Y35.63371
X28.96339 Y34.84138
X29.10164 Y34.83376
X29.14652 Y34.79693
X29.16339 Y34.74138
X29.16339 Y33.99142
X29.14652 Y33.93584
X29.08290 Y33.89332
X28.61122 Y33.89142
X28.51706 Y33.86927
X28.42156 Y33.86859
X28.31554 Y33.89142
X27.84386 Y33.89332
X27.78023 Y33.93584
X27.76339 Y33.99142
X27.76530 Y34.76089
X27.78023 Y34.79693
X27.82511 Y34.83376
X27.96339 Y34.84138
X27.96339 Y35.61981
X21.18301 Y35.61981
X17.55185 Y31.98866
X17.38228 Y31.87362
X17.26054 Y31.83669
X10.42139 Y31.82759
X10.30455 Y31.84052
X10.12423 Y31.91520
X10.03246 Y31.98866
X8.73620 Y33.28494
X8.48634 Y33.23364
X8.23562 Y33.23580
X7.99079 Y33.29007
X7.76262 Y33.39406
X7.57656 Y33.52922
X7.39485 Y33.73102
X7.27514 Y33.93950
X7.19597 Y34.18842
X7.17192 Y34.43803
X7.20031 Y34.68718
X7.27514 Y34.91562
X7.39485 Y35.12413
X7.56102 Y35.31194
X7.76262 Y35.46109
X8.00054 Y35.56884
X8.24595 Y35.62098
X8.50712 Y35.61936
X8.74217 Y35.56884
X8.98012 Y35.46109
X9.17430 Y35.31936
X9.34219 Y35.13292
X9.46759 Y34.91565
X9.54676 Y34.66673
X9.57082 Y34.41712
X9.54511 Y34.17806
X9.50960 Y34.06711
X10.64915 Y32.92757
X16.93517 Y32.92757
X20.56628 Y36.55867
X20.66236 Y36.63503
X20.83071 Y36.70503
X20.95520 Y36.71979
X27.86339 Y36.71979
X27.86385 Y37.32954
X27.87439 Y37.41704
X27.93413 Y37.56131
X27.99517 Y37.63795
X28.92798 Y38.57076
X29.06506 Y38.66411
X29.16806 Y38.69537
X38.81140 Y38.70259
X38.90871 Y38.69154
X39.05298 Y38.63175
X39.12956 Y38.57076
X52.96151 Y24.73878
X72.74445 Y24.73878
X72.84176 Y24.72773
X72.98603 Y24.66794
X73.06261 Y24.60696
X74.18156 Y23.48801
X74.28242 Y23.33279
X74.31339 Y23.16985
X74.31339 Y21.18278
X74.30081 Y21.07910
X74.26340 Y20.97951
X74.25578 Y20.14451
X74.21895 Y20.09963
X74.16340 Y20.08279
X73.56340 Y20.08279
X73.50783 Y20.09963
X73.47100 Y20.14451
X73.46340 Y20.97936
X73.42594 Y21.07910
X73.41341 Y21.18278
X73.41341 Y22.98342
X72.55802 Y23.83881
X52.77518 Y23.83881
X52.67149 Y23.85133
X52.58511 Y23.88115
X52.45697 Y23.97059
X38.62496 Y37.80261
G04 P0 ( dwell for no time -- G64 should not smooth over this point )
G00 Z5.00000 ( retract )

G00 X31.06338 Y34.01240 ( rapid move to begin. )
F300.00000
G01 Z-0.05000
G04 P0 ( dwell for no time -- G64 should not smooth over this point )
F600.00000
X31.06338 Y34.01240
X31.05576 Y33.95314
X31.01893 Y33.90826
X30.98289 Y33.89332
X30.86338 Y33.89142
X30.86338 Y33.58339
X31.04454 Y33.58339
X31.19445 Y33.64547
X31.30921 Y33.76023
X31.37138 Y33.91027
X31.37138 Y33.98659
X31.34558 Y34.01240
X31.06338 Y34.01240
G04 P0 ( dwell for no time -- G64 should not smooth over this point )
G00 Z5.00000 ( retract )

G00 X30.78797 Y28.88325 ( rapid move to begin. )
F300.00000
G01 Z-0.05000
G04 P0 ( dwell for no time -- G64 should not smooth over this point )
F600.00000
X30.78797 Y28.88325
X33.85502 Y31.95030
X34.04194 Y32.23006
X34.10760 Y32.56000
X34.10760 Y34.76112
X34.04199 Y35.09101
X33.85507 Y35.37077
X32.50062 Y36.72522
X32.22086 Y36.91214
X31.89071 Y36.97782
X31.33748 Y36.98217
X31.09054 Y37.04023
X29.93468 Y37.04023
X29.76356 Y37.00805
X29.57599 Y36.89126
X29.46275 Y36.87374
X29.35102 Y36.91702
X29.27914 Y37.00615
X29.26057 Y37.12461
X29.27825 Y37.19037
X29.31830 Y37.25197
X29.52440 Y37.45377
X29.65422 Y37.49456
X38.45712 Y37.48783
X38.56388 Y37.42807
X51.75765 Y24.23426
X51.81419 Y24.14016
X51.81605 Y24.01372
X51.75311 Y23.91011
X51.68813 Y23.86632
X51.62446 Y23.84956
X51.33106 Y23.84689
X51.01894 Y23.78481
X50.89682 Y23.70803
X50.77292 Y23.67932
X50.49235 Y23.49187
X48.93175 Y21.93127
X48.81067 Y21.86830
X34.43000 Y21.86480
X34.13854 Y21.92723
X32.98268 Y21.92723
X32.81159 Y21.89508
X32.67143 Y21.80488
X32.58611 Y21.71082
X32.50839 Y21.67885
X32.44928 Y21.67468
X32.33724 Y21.71164
X32.26102 Y21.79566
X32.12317 Y21.88982
X31.93852 Y21.92723
X30.78266 Y21.92723
X30.61164 Y21.89508
X30.52607 Y21.84214
X30.44479 Y21.81707
X30.04439 Y21.81524
X29.92747 Y21.85337
X29.84807 Y21.94720
X29.82978 Y22.06835
X29.86669 Y22.16980
X29.97240 Y22.32454
X30.00982 Y22.50920
X30.00982 Y23.36505
X29.97766 Y23.53614
X29.88749 Y23.67625
X29.75112 Y23.76944
X29.56654 Y23.80683
X28.41068 Y23.80683
X28.23959 Y23.77468
X28.09943 Y23.68448
X28.01411 Y23.59042
X27.89692 Y23.55403
X27.83794 Y23.55982
X27.76524 Y23.59124
X27.68902 Y23.67526
X27.55117 Y23.76942
X27.36652 Y23.80683
X25.68504 Y23.80109
X25.57828 Y23.86086
X24.66197 Y24.77716
X24.36601 Y24.97493
X24.01692 Y25.04440
X23.86190 Y25.05595
X23.55037 Y25.25217
X23.07193 Y25.35174
X22.91626 Y25.48316
X22.86703 Y25.55679
X22.84979 Y25.64368
X22.84979 Y28.40378
X22.86525 Y28.48602
X22.89385 Y28.53773
X22.98987 Y28.61345
X23.07679 Y28.63078
X30.17857 Y28.63078
X30.50822 Y28.69633
X30.78797 Y28.88325
G04 P0 ( dwell for no time -- G64 should not smooth over this point )
G00 Z5.00000 ( retract )

G00 X29.68940 Y21.50679 ( rapid move to begin. )
F300.00000
G01 Z-0.05000
G04 P0 ( dwell for no time -- G64 should not smooth over this point )
F600.00000
X29.68940 Y21.50679
X30.66138 Y21.50679
X30.69066 Y21.57747
X30.76138 Y21.60679
X31.99963 Y21.59917
X32.04451 Y21.56234
X32.06138 Y21.50679
X32.05376 Y20.56854
X32.01693 Y20.52365
X31.96138 Y20.50681
X30.76138 Y20.50681
X30.69066 Y20.53610
X30.66138 Y20.60681
X29.68940 Y20.60681
X29.67253 Y20.55124
X29.62765 Y20.51441
X29.48940 Y20.50681
X29.48940 Y19.69455
X29.53273 Y19.65853
X29.54959 Y19.60298
X29.54959 Y18.85302
X29.53273 Y18.79744
X29.46910 Y18.75492
X29.00037 Y18.75302
X28.83380 Y18.72866
X28.69781 Y18.75302
X28.24960 Y18.75302
X28.19402 Y18.76986
X28.15719 Y18.81474
X28.14960 Y18.85302
X28.15719 Y19.64123
X28.19402 Y19.68611
X28.23006 Y19.70105
X28.48940 Y19.70298
X28.48940 Y20.50681
X28.35112 Y20.51441
X28.30624 Y20.55124
X28.28940 Y20.60681
X28.29130 Y21.52629
X28.30624 Y21.56234
X28.35112 Y21.59917
X28.48940 Y21.60679
X28.48940 Y22.38641
X28.35112 Y22.39401
X28.30624 Y22.43084
X28.28940 Y22.48641
X28.28940 Y23.38639
X28.29699 Y23.42464
X28.33382 Y23.46952
X28.38940 Y23.48639
X29.58940 Y23.48639
X29.64495 Y23.46952
X29.67253 Y23.44194
X29.68940 Y23.38639
X29.68747 Y22.46688
X29.67253 Y22.43084
X29.62765 Y22.39401
X29.48940 Y22.38641
X29.48940 Y21.60679
X29.62765 Y21.59917
X29.67253 Y21.56234
X29.68940 Y21.50679
G04 P0 ( dwell for no time -- G64 should not smooth over this point )
G00 Z5.00000 ( retract )

G00 X25.94158 Y18.77179 ( rapid move to begin. )
F300.00000
G01 Z-0.05000
G04 P0 ( dwell for no time -- G64 should not smooth over this point )
F600.00000
X25.94158 Y18.77179
X26.00365 Y18.62185
X26.11841 Y18.50712
X26.26835 Y18.44499
X26.34960 Y18.44499
X26.34960 Y18.75302
X26.27889 Y18.78231
X26.25720 Y18.81474
X26.24960 Y18.87400
X25.96733 Y18.87400
X25.94158 Y18.84824
X25.94158 Y18.77179
G04 P0 ( dwell for no time -- G64 should not smooth over this point )
G00 Z5.00000 ( retract )

G00 X17.31810 Y10.30782 ( rapid move to begin. )
F300.00000
G01 Z-0.05000
G04 P0 ( dwell for no time -- G64 should not smooth over this point )
F600.00000
X17.31810 Y10.30782
X17.54479 Y10.34427
X17.76405 Y10.33333
X17.99656 Y10.27272
X18.19242 Y10.17353
X18.38017 Y10.02357
X18.91357 Y9.49017
X19.06353 Y9.30242
X19.16272 Y9.10656
X19.22333 Y8.87405
X19.23427 Y8.65479
X19.19828 Y8.42764
X19.12013 Y8.22254
X18.99064 Y8.02012
X18.82800 Y7.85749
X18.64421 Y7.73750
X18.41025 Y7.64768
X18.19333 Y7.61388
X17.97410 Y7.62482
X17.73202 Y7.68969
X17.52821 Y7.79599
X17.35798 Y7.93458
X16.82458 Y8.46798
X16.67461 Y8.65573
X16.57543 Y8.85157
X16.51482 Y9.08410
X16.50388 Y9.30333
X16.54032 Y9.53000
X16.20614 Y9.86421
X15.51160 Y9.86421
X15.47332 Y9.87181
X15.42844 Y9.90864
X15.41160 Y9.96421
X15.41919 Y10.90244
X15.45602 Y10.94732
X15.51160 Y10.96419
X16.74985 Y10.95657
X16.80398 Y10.90244
X16.81160 Y10.81298
X17.31810 Y10.30782
G04 P0 ( dwell for no time -- G64 should not smooth over this point )
G00 Z5.00000 ( retract )

G00 X39.03738 Y13.67000 ( rapid move to begin. )
F300.00000
G01 Z-0.05000
G04 P0 ( dwell for no time -- G64 should not smooth over this point )
F600.00000
X39.03738 Y13.67000
X39.41269 Y13.65463
X39.58046 Y13.60058
X39.74683 Y13.49253
X39.88803 Y13.33898
X63.15250 Y13.33898
X69.55340 Y19.73986
X69.55340 Y21.18278
X69.59285 Y21.37636
X69.65340 Y21.48222
X69.66100 Y22.22103
X69.69783 Y22.26592
X69.75340 Y22.28278
X70.35340 Y22.28278
X70.40895 Y22.26592
X70.45147 Y22.20229
X70.45340 Y21.48192
X70.51390 Y21.37636
X70.55340 Y21.18278
X70.55340 Y19.53277
X70.51863 Y19.35066
X70.46325 Y19.24708
X63.71310 Y12.48542
X63.62890 Y12.41816
X63.46662 Y12.35095
X63.35959 Y12.33899
X39.88592 Y12.33899
X39.80517 Y12.23795
X39.24808 Y11.68085
X39.20419 Y11.57059
X39.20419 Y9.86741
X39.28343 Y9.64648
X39.30416 Y9.44897
X39.28072 Y9.24138
X39.22204 Y9.06259
X39.12273 Y8.89061
X38.99725 Y8.75042
X38.82918 Y8.62627
X38.64775 Y8.54550
X38.46380 Y8.50585
X38.25491 Y8.50420
X38.05085 Y8.54926
X37.87917 Y8.62627
X37.72664 Y8.73645
X37.57993 Y8.89939
X37.48633 Y9.06259
X37.42766 Y9.24138
X37.40475 Y9.43854
X37.42332 Y9.63615
X37.50421 Y9.86744
X37.50421 Y11.57053
X37.42332 Y11.80183
X37.40475 Y11.97854
X37.42332 Y12.17615
X37.49108 Y12.38471
X37.58562 Y12.54734
X37.71112 Y12.68755
X37.87917 Y12.81168
X38.05252 Y12.88935
X38.60315 Y13.43997
X38.73271 Y13.54566
X38.88996 Y13.62821
X39.03738 Y13.67000
G04 P0 ( dwell for no time -- G64 should not smooth over this point )
G00 Z5.00000 ( retract )

G00 X39.45930 Y13.64704 ( rapid move to begin. )
F300.00000
G01 Z-0.05000
G04 P0 ( dwell for no time -- G64 should not smooth over this point )
F600.00000
X39.45930 Y13.64704
X39.03507 Y13.67038
X38.96388 Y13.73756
X38.93568 Y13.80065
X38.93566 Y13.92672
X38.99212 Y14.02420
X39.63677 Y14.66888
X39.81914 Y14.79247
X39.91493 Y14.81399
X56.40374 Y14.81399
X56.53387 Y14.77289
X56.61487 Y14.67955
X57.07024 Y14.37525
X57.62955 Y14.26398
X58.37257 Y14.26398
X58.93183 Y14.37520
X59.38720 Y14.67947
X59.69147 Y15.13484
X59.79835 Y15.67197
X59.69152 Y16.20903
X59.38725 Y16.66440
X58.93188 Y16.96867
X58.61260 Y17.03220
X58.53077 Y17.06608
X58.46813 Y17.12874
X58.43427 Y17.21055
X58.43427 Y17.29910
X58.45891 Y17.36361
X58.63727 Y17.55124
X58.76742 Y17.59229
X58.85352 Y17.57537
X58.97435 Y17.49963
X59.53455 Y17.38818
X59.92197 Y17.38818
X60.48123 Y17.49940
X60.93660 Y17.80367
X61.24087 Y18.25904
X61.34775 Y18.79617
X61.24092 Y19.33323
X60.93665 Y19.78860
X60.48128 Y20.09287
X59.92175 Y20.20420
X59.53483 Y20.20420
X58.97529 Y20.09292
X58.51931 Y19.78822
X58.41438 Y19.63877
X58.04128 Y19.38703
X57.28271 Y18.62846
X57.20905 Y18.57923
X57.12223 Y18.56199
X37.99563 Y18.56199
X37.64656 Y18.49257
X37.35060 Y18.29483
X36.44219 Y17.38642
X36.28428 Y17.15777
X33.56871 Y14.44221
X33.38179 Y14.16248
X33.32706 Y13.88745
X33.52673 Y13.85262
X33.62419 Y13.81165
X33.63231 Y13.94279
X33.65891 Y14.03705
X33.70336 Y14.12430
X33.77062 Y14.20850
X36.51867 Y16.95655
X36.56690 Y17.05467
X36.64448 Y17.15307
X37.58428 Y18.09287
X37.75385 Y18.20791
X37.87556 Y18.24482
X57.34385 Y18.25399
X58.28220 Y19.19168
X58.44451 Y19.30011
X58.55398 Y19.33458
X58.68835 Y19.52409
X58.86579 Y19.68606
X59.07473 Y19.80483
X59.29401 Y19.87377
X59.51240 Y19.89620
X59.94420 Y19.89620
X60.17288 Y19.87214
X60.39160 Y19.80107
X60.59076 Y19.68609
X60.75423 Y19.53961
X60.89680 Y19.34619
X60.99035 Y19.13608
X61.03871 Y18.90072
X61.03815 Y18.68119
X60.99304 Y18.46638
X60.89111 Y18.23740
X60.76823 Y18.06826
X60.59888 Y17.91286
X60.39157 Y17.79127
X60.18299 Y17.72292
X59.95464 Y17.69674
X59.51240 Y17.69620
X59.29401 Y17.71858
X59.05563 Y17.79602
X58.86579 Y17.90629
X58.70026 Y18.05480
X57.90107 Y17.26387
X57.76127 Y17.18797
X57.58210 Y17.15455
X38.20101 Y17.15401
X37.42227 Y16.37528
X37.33289 Y16.30289
X37.22535 Y16.24906
X34.62418 Y13.64790
X34.62418 Y12.83899
X34.61217 Y12.73190
X34.53404 Y12.55329
X34.19782 Y12.20553
X34.22416 Y11.98897
X34.20506 Y11.80183
X34.12419 Y11.57059
X34.12419 Y9.86741
X34.20506 Y9.63615
X34.22416 Y9.44897
X34.20506 Y9.26183
X34.14204 Y9.06259
X34.04273 Y8.89061
X33.90173 Y8.73645
X33.73986 Y8.62152
X33.56775 Y8.54550
X33.36302 Y8.50366
X33.16457 Y8.50585
X32.98060 Y8.54550
X32.80852 Y8.62152
X32.64664 Y8.73645
X32.50565 Y8.89061
X32.40633 Y9.06259
X32.34766 Y9.24138
X32.32475 Y9.43854
X32.34332 Y9.63615
X32.42421 Y9.86744
X32.42421 Y11.57053
X32.34766 Y11.78138
X32.32475 Y11.99944
X32.34766 Y12.19659
X32.42421 Y12.40744
X32.42421 Y12.91803
X32.20669 Y12.70086
X32.12797 Y12.59880
X32.05188 Y12.56357
X31.98672 Y12.55781
X31.84144 Y12.59563
X31.60717 Y12.36139
X31.66343 Y12.18648
X31.68416 Y11.98897
X31.66506 Y11.80183
X31.60717 Y11.61661
X31.84283 Y11.38092
X31.94992 Y11.37849
X32.03336 Y11.33498
X32.09193 Y11.26147
X32.11619 Y11.16010
X32.10854 Y10.22073
X32.07872 Y10.15349
X32.03328 Y10.10285
X31.95002 Y10.05949
X31.84283 Y10.05700
X31.60717 Y9.82139
X31.66343 Y9.64648
X31.68416 Y9.44897
X31.66506 Y9.26183
X31.60717 Y9.07661
X31.84141 Y8.84230
X31.96846 Y8.87948
X32.03331 Y8.87704
X32.15297 Y8.81758
X32.20547 Y8.73871
X32.50928 Y8.42830
X32.54679 Y8.31220
X32.54182 Y8.25342
X32.51159 Y8.18050
X32.42439 Y8.10206
X32.33978 Y8.07750
X31.52912 Y8.07887
X31.46440 Y8.09980
X31.39089 Y8.15838
X31.34738 Y8.24181
X31.34261 Y8.33988
X31.10380 Y8.57877
X31.02775 Y8.54550
X30.82302 Y8.50366
X30.62457 Y8.50585
X30.44060 Y8.54550
X30.36458 Y8.57877
X30.12572 Y8.33996
X30.11444 Y8.22200
X30.04378 Y8.12528
X29.93923 Y8.07887
X29.67294 Y8.07560
X29.58604 Y8.09284
X29.52755 Y8.12962
X29.25003 Y8.40440
X29.19356 Y8.50191
X29.18790 Y8.60925
X29.22066 Y8.68936
X29.28762 Y8.78614
X29.36069 Y8.85093
X29.49090 Y8.88027
X29.62689 Y8.84230
X29.86120 Y9.07659
X29.80332 Y9.26183
X29.78475 Y9.43854
X29.80332 Y9.63615
X29.86120 Y9.82131
X29.62696 Y10.05560
X29.48188 Y10.01793
X29.41663 Y10.02378
X29.34048 Y10.05913
X29.26283 Y10.15926
X29.02971 Y10.39891
X28.99714 Y10.47607
X28.99242 Y10.53521
X29.02160 Y10.63447
X29.07909 Y10.70183
X29.19219 Y10.74956
X29.33405 Y10.84087
X29.42724 Y10.97722
X29.46631 Y11.17013
X29.50352 Y11.25583
X29.86115 Y11.61679
X29.80332 Y11.80183
X29.78475 Y11.97854
X29.80332 Y12.17615
X29.86113 Y12.36114
X29.51762 Y12.70429
X29.47456 Y12.77912
X29.43245 Y12.98874
X29.34225 Y13.12885
X29.20591 Y13.22204
X29.02079 Y13.25953
X28.79486 Y13.26385
X28.17172 Y13.39700
X26.44782 Y13.39700
X25.88829 Y13.28572
X25.41397 Y12.96878
X18.29663 Y5.86100
X18.17890 Y5.82780
X13.08394 Y5.83130
X12.96289 Y5.89427
X7.28548 Y11.57168
X6.81108 Y11.88867
X6.25142 Y12.00000
X5.15005 Y12.00437
X5.04121 Y12.05987
X4.98472 Y12.14010
X4.96747 Y12.22700
X4.96747 Y16.38282
X4.85622 Y16.94230
X4.75571 Y17.09270
X4.72183 Y17.17456
X4.72183 Y18.28383
X4.75574 Y18.36567
X4.81436 Y18.42551
X4.86227 Y18.45109
X4.94461 Y18.46653
X5.03151 Y18.44921
X5.51451 Y18.24870
X6.01517 Y18.24817
X6.47811 Y18.43948
X6.83257 Y18.79330
X7.02462 Y19.25591
X7.02515 Y19.75657
X6.83384 Y20.21951
X6.48002 Y20.57397
X6.01741 Y20.76602
X5.51675 Y20.76655
X5.03115 Y20.56587
X4.94423 Y20.54870
X4.85747 Y20.56600
X4.78746 Y20.61182
X4.72181 Y20.73143
X4.71993 Y27.95986
X4.73672 Y28.02638
X4.78396 Y28.09557
X5.48685 Y28.79847
X5.56046 Y28.84767
X5.64738 Y28.86499
X20.30679 Y28.86499
X20.39366 Y28.84769
X20.46727 Y28.79847
X20.51649 Y28.72486
X20.53379 Y28.63799
X20.53379 Y25.09217
X20.62599 Y24.62857
X20.88878 Y24.23528
X21.74062 Y23.38341
X21.89650 Y23.25850
X21.93038 Y23.17663
X21.93038 Y23.08809
X21.89650 Y23.00625
X21.83788 Y22.94643
X21.70778 Y22.90539
X16.97502 Y22.90539
X16.84487 Y22.94646
X16.76384 Y23.03978
X16.30847 Y23.34407
X15.74866 Y23.45545
X15.31046 Y23.45974
X14.96608 Y23.59807
X14.34894 Y23.59870
X13.77858 Y23.36302
X13.34188 Y22.92710
X13.10525 Y22.35715
X13.10462 Y21.74034
X13.34031 Y21.16998
X13.77622 Y20.73328
X14.34650 Y20.49650
X14.67833 Y20.49190
X14.75976 Y20.45799
X14.82232 Y20.39533
X14.85757 Y20.30372
X14.84881 Y20.20110
X14.66730 Y19.75881
X14.66677 Y19.25815
X14.85808 Y18.79521
X15.21190 Y18.44078
X15.67451 Y18.24870
X16.17517 Y18.24817
X16.63811 Y18.43948
X16.99257 Y18.79330
X17.18462 Y19.25591
X17.18515 Y19.75657
X16.99384 Y20.21951
X16.59008 Y20.61380
X16.54162 Y20.68670
X16.52437 Y20.77354
X16.54162 Y20.86038
X16.59039 Y20.93361
X16.76346 Y21.05439
X16.84482 Y21.14824
X16.89267 Y21.17384
X16.97505 Y21.18936
X23.65839 Y21.18583
X23.76434 Y21.13531
X24.03553 Y20.86681
X24.29898 Y20.69079
X24.60955 Y20.62899
X25.58049 Y20.62899
X25.66337 Y20.61321
X25.71148 Y20.58726
X25.76731 Y20.53074
X25.89156 Y20.31631
X26.04970 Y20.20425
X26.11369 Y20.08520
X26.09829 Y19.95033
X26.00370 Y19.83409
X25.94158 Y19.68418
X25.94158 Y19.60770
X25.96728 Y19.58200
X26.24960 Y19.58200
X26.26644 Y19.65853
X26.31132 Y19.69536
X26.57574 Y19.70298
X26.75440 Y19.79485
X26.88686 Y19.82470
X27.00185 Y19.82526
X27.13497 Y19.79861
X27.31185 Y19.70298
X27.54960 Y19.70298
X27.60515 Y19.68611
X27.63273 Y19.65853
X27.64960 Y19.60298
X27.64960 Y18.85302
X27.62029 Y18.78231
X27.54960 Y18.75302
X27.54960 Y18.44499
X27.63055 Y18.44499
X27.82379 Y18.52574
X27.91196 Y18.54299
X27.99826 Y18.52544
X28.08661 Y18.47014
X28.27215 Y18.43255
X29.42851 Y18.43255
X29.59935 Y18.46468
X29.73949 Y18.55485
X29.83260 Y18.69115
X29.87002 Y18.87580
X29.87002 Y19.58164
X29.83743 Y19.75500
X29.80078 Y19.84354
X29.79930 Y20.09127
X29.81464 Y20.15861
X29.86384 Y20.23227
X29.98495 Y20.29523
X30.46463 Y20.29424
X30.59955 Y20.22371
X30.78393 Y20.18634
X31.94029 Y20.18634
X32.11113 Y20.21845
X32.25129 Y20.30864
X32.33656 Y20.40267
X32.45378 Y20.43910
X32.51278 Y20.43331
X32.58548 Y20.40189
X32.66170 Y20.31786
X32.79955 Y20.22371
X32.98398 Y20.18634
X34.14031 Y20.18634
X34.42492 Y20.24878
X49.17777 Y20.24878
X49.50742 Y20.31433
X49.78717 Y20.50125
X51.55016 Y22.26427
X51.66637 Y22.32639
X62.76835 Y22.33076
X62.85524 Y22.31349
X62.91371 Y22.27671
X62.98140 Y22.18133
X62.99289 Y22.12893
X62.99484 Y21.64661
X63.07912 Y21.75891
X63.20401 Y21.87059
X63.30340 Y21.92772
X63.30531 Y22.20229
X63.33269 Y22.25347
X63.38387 Y22.28085
X64.04165 Y22.27516
X64.08653 Y22.23833
X64.10147 Y22.20229
X64.10340 Y22.03277
X64.57340 Y22.03277
X64.58100 Y22.22103
X64.61783 Y22.26592
X64.67340 Y22.28278
X65.31165 Y22.27516
X65.35653 Y22.23833
X65.37147 Y22.20229
X65.37340 Y22.03277
X65.84340 Y22.03277
X65.85100 Y22.22103
X65.88783 Y22.26592
X65.92387 Y22.28085
X66.54340 Y22.28278
X66.59895 Y22.26592
X66.63578 Y22.22103
X66.64340 Y21.61705
X66.71797 Y21.45517
X66.75925 Y21.26117
X66.75869 Y21.09391
X66.72443 Y20.93021
X66.64340 Y20.74847
X66.63578 Y20.14451
X66.59895 Y20.09963
X66.54340 Y20.08279
X65.92387 Y20.08469
X65.88783 Y20.09963
X65.85100 Y20.14451
X65.84340 Y20.33280
X65.82339 Y20.33280
X65.80848 Y19.98624
X65.75841 Y19.81776
X65.86430 Y19.77479
X65.99072 Y19.89556
X66.05331 Y19.92345
X66.15577 Y19.93001
X66.22051 Y19.90699
X66.30774 Y19.82846
X66.34162 Y19.71177
X66.39837 Y19.62543
X66.40799 Y19.50344
X66.37411 Y19.42167
X64.91269 Y17.95406
X64.83990 Y17.90517
X64.72933 Y17.87898
X64.41625 Y17.66979
X63.30208 Y16.56059
X63.19154 Y16.52150
X63.03045 Y16.51960
X62.66007 Y16.44594
X62.56515 Y16.40469
X62.42057 Y16.41764
X61.87089 Y16.30832
X61.41552 Y16.00405
X61.11125 Y15.54868
X61.00437 Y15.01157
X61.11120 Y14.47449
X61.42822 Y14.00007
X61.46213 Y13.91823
X61.46210 Y13.82964
X61.42822 Y13.74782
X61.36553 Y13.68519
X61.30249 Y13.65702
X39.45930 Y13.64704
G04 P0 ( dwell for no time -- G64 should not smooth over this point )
G00 Z5.00000 ( retract )

G00 X39.72501 Y15.12201 ( rapid move to begin. )
F300.00000
G01 Z-0.05000
G04 P0 ( dwell for no time -- G64 should not smooth over this point )
F600.00000
X39.72501 Y15.12201
X39.55117 Y14.96286
X39.43515 Y14.90286
X36.73779 Y12.20556
X36.76416 Y11.98897
X36.74506 Y11.80183
X36.66419 Y11.57059
X36.66419 Y9.86741
X36.74343 Y9.64648
X36.76416 Y9.44897
X36.74506 Y9.26183
X36.68580 Y9.07237
X36.58273 Y8.89061
X36.45725 Y8.75042
X36.28918 Y8.62627
X36.10775 Y8.54550
X35.92380 Y8.50585
X35.70457 Y8.50585
X35.52060 Y8.54550
X35.33041 Y8.63198
X35.17112 Y8.75042
X35.04565 Y8.89061
X34.95108 Y9.05327
X34.88766 Y9.24138
X34.86475 Y9.43854
X34.88766 Y9.65659
X34.96421 Y9.86744
X34.96421 Y11.57053
X34.88766 Y11.78138
X34.86475 Y11.99944
X34.88766 Y12.19659
X34.96421 Y12.40744
X34.98113 Y12.79796
X35.04242 Y12.98661
X35.12652 Y13.13116
X35.23803 Y13.25582
X35.38039 Y13.36197
X35.54176 Y13.43619
X35.71499 Y13.47526
X35.89258 Y13.47747
X36.06673 Y13.44264
X36.23917 Y13.36769
X36.38204 Y13.26393
X38.72847 Y15.61035
X38.77670 Y15.70847
X38.84726 Y15.79910
X39.10828 Y16.06087
X39.20005 Y16.13433
X39.38036 Y16.20901
X39.49720 Y16.22199
X56.65475 Y16.22199
X56.79732 Y16.41541
X56.96079 Y16.56186
X57.15995 Y16.67687
X57.36856 Y16.74523
X57.60740 Y16.77200
X58.39480 Y16.77200
X58.62348 Y16.74794
X58.84220 Y16.67687
X59.04136 Y16.56189
X59.20483 Y16.41541
X59.35215 Y16.21266
X59.44095 Y16.01188
X59.48931 Y15.77652
X59.48875 Y15.55699
X59.44095 Y15.33205
X59.34171 Y15.11320
X59.20483 Y14.92854
X59.04133 Y14.78206
X58.84217 Y14.66707
X58.63359 Y14.59872
X58.39480 Y14.57200
X57.60740 Y14.57200
X57.36856 Y14.59872
X57.15995 Y14.66707
X56.96079 Y14.78209
X56.78332 Y14.94406
X56.65475 Y15.12201
X39.72501 Y15.12201
G04 P0 ( dwell for no time -- G64 should not smooth over this point )
G00 Z5.00000 ( retract )

G00 X48.33874 Y10.09360 ( rapid move to begin. )
F300.00000
G01 Z-0.05000
G04 P0 ( dwell for no time -- G64 should not smooth over this point )
F600.00000
X48.33874 Y10.09360
X48.32845 Y9.82548
X48.27112 Y9.61357
X48.16056 Y9.40023
X48.02197 Y9.22998
X47.60831 Y8.81697
X47.44047 Y8.68169
X47.24946 Y8.58179
X47.04265 Y8.52106
X46.78700 Y8.50140
X46.54816 Y8.52812
X46.33955 Y8.59647
X46.14039 Y8.71149
X45.96292 Y8.87346
X45.82960 Y9.06071
X45.74080 Y9.26145
X45.69246 Y9.49685
X45.69246 Y9.70592
X45.73811 Y9.93117
X45.84004 Y10.16015
X45.97692 Y10.34481
X46.14039 Y10.49126
X46.21682 Y10.53602
X46.46638 Y10.78557
X46.65411 Y10.93556
X46.85990 Y11.03792
X47.07206 Y11.09423
X47.30171 Y11.10627
X47.42444 Y11.08738
X47.55426 Y11.19751
X47.65880 Y11.25121
X47.77181 Y11.28346
X47.87920 Y11.29357
X62.94508 Y11.29309
X70.87341 Y19.22140
X70.87341 Y21.18278
X70.88594 Y21.28642
X70.92340 Y21.38611
X70.92531 Y22.20229
X70.96783 Y22.26592
X71.02340 Y22.28278
X71.62340 Y22.28278
X71.67895 Y22.26592
X71.71578 Y22.22103
X71.72340 Y21.38606
X71.76081 Y21.28642
X71.77339 Y21.18278
X71.77339 Y19.03501
X71.74242 Y18.87202
X71.69167 Y18.77710
X63.57922 Y10.65448
X63.55257 Y10.50815
X63.49583 Y10.38479
X63.42042 Y10.28471
X63.34275 Y10.21476
X63.23530 Y10.15019
X63.11676 Y10.10940
X62.98196 Y10.09360
X48.33874 Y10.09360
G04 P0 ( dwell for no time -- G64 should not smooth over this point )
G00 Z5.00000 ( retract )

G00 X51.49459 Y22.63881 ( rapid move to begin. )
F300.00000
G01 Z-0.05000
G04 P0 ( dwell for no time -- G64 should not smooth over this point )
F600.00000
X51.49459 Y22.63881
X49.55354 Y20.70323
X49.40018 Y20.59902
X49.28781 Y20.56493
X34.24753 Y20.55680
X34.21695 Y20.52365
X34.16140 Y20.50681
X32.96140 Y20.50681
X32.90582 Y20.52365
X32.86330 Y20.58728
X32.86140 Y21.50679
X32.89069 Y21.57747
X32.96140 Y21.60679
X34.16140 Y21.60679
X34.21695 Y21.58992
X34.24748 Y21.55680
X48.99291 Y21.55680
X50.73380 Y23.29693
X50.81630 Y23.36091
X50.91031 Y23.40638
X51.01973 Y23.43173
X51.12707 Y23.50031
X51.29837 Y23.53830
X72.24740 Y23.53879
X72.41814 Y23.50437
X72.55779 Y23.41397
X72.91816 Y23.05370
X73.00491 Y22.92385
X73.03234 Y22.84011
X73.04339 Y22.74280
X73.04339 Y21.18278
X73.03081 Y21.07910
X72.99340 Y20.97951
X72.99147 Y20.16325
X72.94895 Y20.09963
X72.89340 Y20.08279
X72.29340 Y20.08279
X72.23783 Y20.09963
X72.20100 Y20.14451
X72.19340 Y20.97936
X72.15594 Y21.07910
X72.14341 Y21.18278
X72.14341 Y22.55637
X72.06097 Y22.63881
X51.49459 Y22.63881
G04 P0 ( dwell for no time -- G64 should not smooth over this point )
G00 Z5.00000 ( retract )

G00 X62.99537 Y20.10158 ( rapid move to begin. )
F300.00000
G01 Z-0.05000
G04 P0 ( dwell for no time -- G64 should not smooth over this point )
F600.00000
X62.99537 Y20.10158
X63.05748 Y19.95167
X63.17224 Y19.83691
X63.32215 Y19.77479
X63.34940 Y19.80054
X63.34940 Y20.09876
X63.30531 Y20.16325
X63.30340 Y20.43775
X63.20404 Y20.49493
X63.07912 Y20.60661
X62.99537 Y20.71817
X62.99537 Y20.10158
G04 P0 ( dwell for no time -- G64 should not smooth over this point )
G00 Z5.00000 ( retract )

G00 X62.64902 Y16.08945 ( rapid move to begin. )
F300.00000
G01 Z-0.05000
G04 P0 ( dwell for no time -- G64 should not smooth over this point )
F600.00000
X62.64902 Y16.08945
X62.76634 Y16.16075
X62.92187 Y16.20510
X63.39367 Y16.21160
X64.65768 Y17.47484
X64.75641 Y17.55198
X64.85910 Y17.60372
X65.03372 Y17.63951
X67.06341 Y19.66917
X67.06341 Y21.18278
X67.07441 Y21.28009
X67.11340 Y21.38543
X67.12100 Y22.22103
X67.15783 Y22.26592
X67.21340 Y22.28278
X67.81340 Y22.28278
X67.88409 Y22.25347
X67.91340 Y22.18278
X67.91340 Y21.53356
X68.01734 Y21.41654
X68.05757 Y21.33158
X68.08145 Y21.14618
X68.05757 Y21.03394
X67.96339 Y20.87765
X67.96290 Y19.47296
X67.93242 Y19.31980
X67.88167 Y19.22488
X65.67012 Y17.00316
X65.63431 Y16.82856
X65.57736 Y16.71680
X65.50543 Y16.62709
X64.06642 Y15.18732
X63.96705 Y15.10764
X63.86251 Y15.05394
X63.74950 Y15.02166
X63.52791 Y15.01160
X63.52735 Y14.89659
X63.47955 Y14.67165
X63.38031 Y14.45280
X63.24343 Y14.26814
X63.07993 Y14.12166
X62.89012 Y14.01142
X62.67219 Y13.93832
X62.44384 Y13.91214
X62.17983 Y13.93550
X61.96055 Y14.00667
X61.76139 Y14.12169
X61.59792 Y14.26814
X61.46104 Y14.45280
X61.36180 Y14.67165
X61.31400 Y14.89659
X61.31346 Y15.11612
X61.35911 Y15.34137
X61.46106 Y15.57037
X61.59792 Y15.75501
X61.77018 Y15.90718
X61.96055 Y16.01647
X62.17981 Y16.08765
X62.42405 Y16.11114
X62.64902 Y16.08945
G04 P0 ( dwell for no time -- G64 should not smooth over this point )
G00 Z5.00000 ( retract )

G00 X68.38340 Y20.18279 ( rapid move to begin. )
F300.00000
G01 Z-0.05000
G04 P0 ( dwell for no time -- G64 should not smooth over this point )
F600.00000
X68.38340 Y20.18279
X68.39100 Y22.22103
X68.42783 Y22.26592
X68.48340 Y22.28278
X69.12165 Y22.27516
X69.16653 Y22.23833
X69.18340 Y22.18278
X69.17578 Y20.14451
X69.13895 Y20.09963
X69.08340 Y20.08279
X68.48340 Y20.08279
X68.41269 Y20.11207
X68.38340 Y20.18279
G04 P0 ( dwell for no time -- G64 should not smooth over this point )
G00 Z5.00000 ( retract )

G00 X67.11340 Y29.58279 ( rapid move to begin. )
F300.00000
G01 Z-0.05000
G04 P0 ( dwell for no time -- G64 should not smooth over this point )
F600.00000
X67.11340 Y29.58279
X67.12100 Y31.62104
X67.15783 Y31.66592
X67.21340 Y31.68279
X67.85165 Y31.67517
X67.89653 Y31.63834
X67.91340 Y31.58279
X67.90578 Y29.54451
X67.86895 Y29.49963
X67.81340 Y29.48279
X67.21340 Y29.48279
X67.14269 Y29.51208
X67.11340 Y29.58279
G04 P0 ( dwell for no time -- G64 should not smooth over this point )
G00 Z5.00000 ( retract )

G00 X63.30340 Y29.58279 ( rapid move to begin. )
F300.00000
G01 Z-0.05000
G04 P0 ( dwell for no time -- G64 should not smooth over this point )
F600.00000
X63.30340 Y29.58279
X63.31100 Y31.62104
X63.34783 Y31.66592
X63.40340 Y31.68279
X64.04165 Y31.67517
X64.08653 Y31.63834
X64.10340 Y31.58279
X64.09578 Y29.54451
X64.05895 Y29.49963
X64.00340 Y29.48279
X63.40340 Y29.48279
X63.33269 Y29.51208
X63.30340 Y29.58279
G04 P0 ( dwell for no time -- G64 should not smooth over this point )
G00 Z5.00000 ( retract )

G00 X61.45939 Y32.65441 ( rapid move to begin. )
F300.00000
G01 Z-0.05000
G04 P0 ( dwell for no time -- G64 should not smooth over this point )
F600.00000
X61.45939 Y32.65441
X61.45939 Y31.71680
X61.43007 Y31.64609
X61.35939 Y31.61680
X60.45941 Y31.61680
X60.38870 Y31.64609
X60.35941 Y31.71680
X60.36132 Y32.93630
X60.37625 Y32.97235
X60.42114 Y33.00918
X60.55593 Y33.01680
X60.57928 Y33.04519
X60.49182 Y33.09516
X60.31392 Y33.25746
X60.19104 Y33.42660
X60.09556 Y33.63569
X60.04346 Y33.88085
X60.04346 Y34.08992
X60.08911 Y34.31517
X60.18535 Y34.53539
X60.32792 Y34.72881
X60.49139 Y34.87526
X60.70033 Y34.99403
X60.91961 Y35.06297
X61.13800 Y35.08540
X61.82380 Y35.08540
X62.05248 Y35.06134
X62.27120 Y34.99027
X62.46157 Y34.88098
X62.64780 Y34.71329
X62.77640 Y34.53539
X62.86995 Y34.32528
X62.91775 Y34.10023
X62.91798 Y33.95279
X63.51199 Y33.94814
X63.63119 Y33.91438
X63.72004 Y33.86196
X65.29156 Y32.29696
X65.35255 Y32.22038
X65.41234 Y32.07611
X65.42339 Y31.97880
X65.42339 Y30.58279
X65.41081 Y30.47911
X65.37340 Y30.37951
X65.37340 Y29.58279
X65.35653 Y29.52722
X65.31165 Y29.49039
X65.27340 Y29.48279
X64.67340 Y29.48279
X64.63512 Y29.49039
X64.59024 Y29.52722
X64.57340 Y29.58279
X64.57340 Y30.37936
X64.53594 Y30.47911
X64.52341 Y30.58279
X64.52341 Y31.79236
X63.26296 Y33.05281
X62.90368 Y33.05281
X62.80145 Y33.01642
X62.69784 Y33.00333
X62.31397 Y33.00455
X62.04214 Y32.90778
X61.69037 Y32.88540
X61.45939 Y32.65441
G04 P0 ( dwell for no time -- G64 should not smooth over this point )
G00 Z5.00000 ( retract )

G00 X58.33773 Y36.49279 ( rapid move to begin. )
F300.00000
G01 Z-0.05000
G04 P0 ( dwell for no time -- G64 should not smooth over this point )
F600.00000
X58.33773 Y36.49279
X62.68740 Y36.49279
X62.85034 Y36.46182
X62.99830 Y36.36756
X66.56156 Y32.80496
X66.65491 Y32.66785
X66.69339 Y32.48680
X66.69339 Y30.58279
X66.68081 Y30.47911
X66.64340 Y30.37951
X66.64340 Y29.58279
X66.61409 Y29.51208
X66.54340 Y29.48279
X65.94340 Y29.48279
X65.88783 Y29.49963
X65.84531 Y29.56326
X65.84340 Y30.37936
X65.80594 Y30.47911
X65.79341 Y30.58279
X65.79341 Y32.30036
X62.50096 Y35.59281
X58.50008 Y35.59281
X58.61227 Y35.39800
X58.68334 Y35.17928
X58.70740 Y34.95060
X58.70740 Y34.39180
X58.68497 Y34.17341
X58.61603 Y33.95413
X58.49726 Y33.74519
X58.35081 Y33.58172
X58.16617 Y33.44486
X57.93717 Y33.34291
X57.71192 Y33.29726
X57.49239 Y33.29780
X57.26745 Y33.34560
X57.06671 Y33.43440
X56.87946 Y33.56772
X56.71749 Y33.74519
X56.60247 Y33.94435
X56.52978 Y34.17341
X56.50740 Y34.39180
X56.50740 Y34.95060
X56.53412 Y35.18939
X56.60247 Y35.39797
X56.71746 Y35.59713
X56.87946 Y35.77463
X57.05741 Y35.90320
X57.05741 Y36.35893
X56.69506 Y36.73599
X56.63671 Y36.84686
X56.60893 Y36.94884
X53.64696 Y39.91081
X52.04140 Y39.91081
X52.01208 Y39.84010
X51.94140 Y39.81081
X50.74140 Y39.81081
X50.68582 Y39.82765
X50.64899 Y39.87254
X50.64140 Y39.91081
X50.64140 Y40.81079
X50.65824 Y40.86634
X50.68582 Y40.89392
X50.74140 Y40.91079
X51.94140 Y40.91079
X52.01208 Y40.88147
X52.04140 Y40.81079
X53.83339 Y40.81079
X53.93070 Y40.79974
X54.07497 Y40.73995
X54.15155 Y40.67896
X57.24535 Y37.58516
X57.34725 Y37.55743
X57.44065 Y37.51044
X57.53907 Y37.43287
X58.00288 Y36.96840
X58.11131 Y36.80610
X58.14847 Y36.68204
X58.33773 Y36.49279
G04 P0 ( dwell for no time -- G64 should not smooth over this point )
G00 Z5.00000 ( retract )

G00 X54.03291 Y49.63934 ( rapid move to begin. )
F300.00000
G01 Z-0.05000
G04 P0 ( dwell for no time -- G64 should not smooth over this point )
F600.00000
X54.03291 Y49.63934
X64.35511 Y39.31714
X64.48785 Y39.24599
X64.57365 Y39.16944
X64.65478 Y39.06057
X64.68938 Y38.98417
X69.62947 Y34.04407
X69.70705 Y33.94565
X69.75447 Y33.85111
X69.77626 Y33.76381
X70.41256 Y33.12099
X70.47298 Y33.01278
X70.50339 Y32.85035
X70.50339 Y30.58279
X70.49081 Y30.47911
X70.45340 Y30.37951
X70.45340 Y29.58279
X70.43653 Y29.52722
X70.40895 Y29.49963
X70.35340 Y29.48279
X69.75340 Y29.48279
X69.69783 Y29.49963
X69.65531 Y29.56326
X69.65340 Y30.37936
X69.61594 Y30.47911
X69.60341 Y30.58279
X69.60341 Y32.66391
X69.15487 Y33.11245
X69.03392 Y33.14598
X68.93260 Y33.20006
X68.85168 Y33.26628
X63.94518 Y38.17277
X63.82468 Y38.21044
X63.72194 Y38.26754
X63.63891 Y38.33632
X53.00863 Y48.96660
X52.93985 Y49.04963
X52.87525 Y49.17049
X52.84297 Y49.28352
X52.83291 Y49.39088
X52.83291 Y54.28132
X52.69331 Y54.36377
X52.55996 Y54.47736
X50.98755 Y56.04980
X50.84569 Y56.22490
X50.74998 Y56.40580
X48.85619 Y56.40580
X48.85619 Y44.25289
X48.90178 Y44.19897
X49.01483 Y43.99882
X49.08214 Y43.78988
X49.10620 Y43.56120
X49.10620 Y43.28180
X49.07943 Y43.04296
X49.01107 Y42.83435
X48.86231 Y42.59691
X49.50150 Y41.95704
X49.59908 Y41.81099
X49.62936 Y41.71782
X49.64138 Y41.61078
X49.64138 Y40.91079
X49.77963 Y40.90317
X49.82451 Y40.86634
X49.84138 Y40.81079
X49.83944 Y39.89128
X49.82451 Y39.85524
X49.77963 Y39.81841
X49.64138 Y39.81081
X49.64138 Y39.31783
X58.34243 Y30.61678
X60.35941 Y30.61678
X60.36701 Y30.75503
X60.40384 Y30.79991
X60.43988 Y30.81484
X61.35939 Y30.81678
X61.43007 Y30.78746
X61.45939 Y30.71678
X61.45939 Y29.51678
X61.44252 Y29.46120
X61.39764 Y29.42437
X60.43988 Y29.41868
X60.40384 Y29.43362
X60.36701 Y29.47850
X60.35941 Y29.61678
X58.13539 Y29.61678
X57.95327 Y29.65150
X57.84969 Y29.70687
X48.78781 Y38.75722
X48.68362 Y38.91054
X48.64183 Y39.10099
X48.64138 Y39.81081
X48.50310 Y39.81841
X48.45822 Y39.85524
X48.44138 Y39.91081
X48.44328 Y40.83029
X48.45822 Y40.86634
X48.50310 Y40.90317
X48.64138 Y40.91079
X48.64138 Y41.40365
X47.88364 Y42.16138
X47.46551 Y42.32440
X47.26274 Y42.47172
X47.11629 Y42.63519
X47.00127 Y42.83435
X46.93292 Y43.04296
X46.90674 Y43.27134
X46.90620 Y43.56120
X46.93292 Y43.79999
X47.00127 Y44.00857
X47.15621 Y44.25292
X47.15621 Y56.40580
X15.43832 Y56.40580
X13.93520 Y54.90271
X13.93520 Y53.55120
X13.91935 Y53.41635
X13.87137 Y53.28536
X13.86944 Y52.55925
X13.85450 Y52.52321
X13.80962 Y52.48638
X12.87140 Y52.47878
X12.81582 Y52.49562
X12.77899 Y52.54051
X12.77140 Y52.57878
X12.77140 Y53.10121
X8.87138 Y53.10121
X8.86945 Y52.68925
X8.84207 Y52.63807
X8.79089 Y52.61069
X7.85187 Y52.61069
X7.80069 Y52.63807
X7.77331 Y52.68925
X7.77141 Y53.00121
X7.08947 Y53.00121
X6.94415 Y52.95168
X6.67001 Y52.94259
X6.44217 Y52.71475
X6.25439 Y52.56479
X6.05856 Y52.46560
X5.77624 Y52.40241
X4.40619 Y51.03236
X4.40619 Y46.75799
X5.71159 Y45.45259
X6.70580 Y45.45259
X6.86191 Y45.43765
X7.03994 Y45.38368
X7.18589 Y45.30346
X7.30679 Y45.20359
X9.08479 Y43.42559
X9.17293 Y43.32206
X9.27981 Y43.12175
X9.32284 Y42.96016
X9.33346 Y42.83245
X9.33379 Y39.72580
X9.31504 Y39.55044
X9.26488 Y39.39161
X9.18466 Y39.24566
X9.08479 Y39.12476
X6.11299 Y36.15296
X5.99206 Y36.05306
X5.82800 Y35.96538
X5.66808 Y35.91887
X5.52178 Y35.90447
X4.40946 Y35.90401
X4.40946 Y32.03079
X5.56724 Y30.87299
X21.10760 Y30.87299
X21.26371 Y30.85805
X21.42360 Y30.81157
X21.58769 Y30.72386
X21.70859 Y30.62399
X22.29279 Y30.03979
X22.37630 Y29.93880
X29.99371 Y29.93880
X32.79960 Y32.74469
X32.79960 Y34.57646
X31.70626 Y35.66980
X31.19953 Y35.66980
X31.16895 Y35.63665
X31.11340 Y35.61981
X29.91340 Y35.61981
X29.85782 Y35.63665
X29.82099 Y35.68154
X29.81340 Y35.71981
X29.81340 Y36.61979
X29.84269 Y36.69047
X29.91340 Y36.71979
X31.11340 Y36.71979
X31.16895 Y36.70292
X31.19948 Y36.66980
X31.91339 Y36.66980
X32.02043 Y36.65778
X32.11360 Y36.62751
X32.26691 Y36.52332
X33.65312 Y35.13711
X33.71276 Y35.06434
X33.76638 Y34.96274
X33.79927 Y34.79144
X33.79960 Y32.53760
X33.76483 Y32.35548
X33.72033 Y32.26818
X33.65312 Y32.18403
X30.55432 Y29.08523
X30.47012 Y29.01797
X30.38287 Y28.97352
X30.20080 Y28.93880
X22.54179 Y28.93880
X22.54179 Y25.42202
X22.92741 Y25.03637
X23.11925 Y25.03581
X23.29561 Y25.01506
X23.45448 Y24.96286
X23.59959 Y24.87970
X23.75471 Y24.73637
X24.13698 Y24.72720
X24.24059 Y24.69779
X24.33650 Y24.64872
X24.42827 Y24.57526
X25.51714 Y23.48639
X27.38938 Y23.48639
X27.44493 Y23.46952
X27.47251 Y23.44194
X27.48938 Y23.38639
X27.48938 Y22.48641
X27.47251 Y22.43084
X27.40888 Y22.38832
X25.28938 Y22.38641
X25.08814 Y22.42495
X24.99223 Y22.47402
X24.90045 Y22.54748
X23.81153 Y23.63640
X23.75476 Y23.63640
X23.60836 Y23.49871
X23.46381 Y23.41461
X23.27516 Y23.35332
X23.10879 Y23.33640
X22.57539 Y23.33640
X22.41926 Y23.35126
X22.25934 Y23.39777
X22.11153 Y23.47458
X21.97432 Y23.58534
X21.09073 Y24.46896
X20.99086 Y24.58989
X20.91067 Y24.73584
X20.86051 Y24.89464
X20.84227 Y25.06020
X20.84181 Y29.08671
X20.75551 Y29.17301
X5.42574 Y29.17301
X4.40946 Y28.15673
X4.40946 Y17.09699
X4.45506 Y17.04307
X4.56811 Y16.84291
X4.63542 Y16.63397
X4.65947 Y16.40530
X4.65947 Y11.69200
X6.28380 Y11.69152
X6.47888 Y11.67229
X6.68568 Y11.61156
X6.89297 Y11.50074
X7.05177 Y11.36977
X12.90175 Y5.51980
X18.40059 Y5.51980
X25.64757 Y12.76677
X25.80635 Y12.89774
X26.01366 Y13.00856
X26.22047 Y13.06929
X26.41556 Y13.08852
X28.19420 Y13.08900
X28.42288 Y13.06494
X28.64160 Y12.99387
X28.73773 Y12.93899
X29.06369 Y12.93705
X29.09974 Y12.92212
X29.13657 Y12.87724
X29.14419 Y12.54244
X29.24304 Y12.31877
X29.28871 Y12.09352
X29.28871 Y11.88445
X29.24035 Y11.64905
X29.14419 Y11.43498
X29.14419 Y11.13901
X29.11487 Y11.06830
X29.04419 Y11.03901
X28.73786 Y11.03901
X28.64157 Y10.98407
X28.43299 Y10.91572
X28.20464 Y10.88954
X26.88099 Y10.88900
X20.87679 Y4.88480
X55.62780 Y4.88480
X56.27078 Y5.52777
X56.45851 Y5.67776
X56.66430 Y5.78012
X56.87646 Y5.83643
X57.10611 Y5.84847
X57.32305 Y5.81467
X57.54794 Y5.73008
X57.73234 Y5.61098
X57.89640 Y5.45000
X58.02343 Y5.25846
X58.11108 Y5.03471
X58.14598 Y4.81800
X58.13285 Y4.56768
X58.07125 Y4.34622
X57.96496 Y4.14243
X57.83338 Y3.97995
X56.86117 Y3.00698
X56.70237 Y2.87599
X56.49506 Y2.76519
X56.28825 Y2.70446
X56.08340 Y2.68480
X19.49119 Y2.68480
X19.26707 Y2.70830
X19.07946 Y2.76519
X18.88845 Y2.86514
X18.71337 Y3.00698
X18.40054 Y3.31980
X12.44620 Y3.31980
X12.24130 Y3.33946
X12.01633 Y3.40771
X11.82718 Y3.51101
X11.66838 Y3.64198
X5.81835 Y9.49200
X3.96260 Y9.49200
X3.73847 Y9.51550
X3.53278 Y9.57989
X3.34360 Y9.68319
X3.18480 Y9.81415
X2.78168 Y10.21725
X2.65069 Y10.37605
X2.53990 Y10.58334
X2.47914 Y10.79017
X2.45948 Y10.99510
X2.45948 Y16.40530
X2.48186 Y16.62364
X2.55079 Y16.84291
X2.66385 Y17.04307
X2.70949 Y17.09702
X2.70949 Y36.32548
X2.72435 Y36.48156
X2.77835 Y36.65959
X2.85854 Y36.80554
X2.95183 Y36.91920
X3.39422 Y37.36159
X3.52415 Y37.46576
X3.65381 Y37.53508
X3.81264 Y37.58524
X3.98800 Y37.60399
X5.15996 Y37.60399
X7.63381 Y40.07784
X7.63381 Y42.47251
X6.35371 Y43.75261
X5.35960 Y43.75261
X5.20347 Y43.76747
X5.02541 Y43.82147
X4.87946 Y43.90169
X4.75856 Y44.00156
X2.95516 Y45.80496
X2.85529 Y45.92586
X2.77507 Y46.07181
X2.72491 Y46.23064
X2.70621 Y46.40600
X2.70621 Y51.38440
X2.71711 Y51.51996
X2.78313 Y51.73713
X2.84480 Y51.84955
X2.94983 Y51.97962
X4.57421 Y53.60441
X4.58010 Y53.67490
X4.64169 Y53.89633
X4.74182 Y54.09166
X4.88658 Y54.27035
X8.89978 Y58.28357
X9.07623 Y58.42683
X9.28095 Y58.53173
X9.45141 Y58.58223
X9.67760 Y58.60580
X97.14024 Y58.60524
X97.35848 Y58.58174
X97.56742 Y58.51443
X97.76757 Y58.40138
X97.93983 Y58.24921
X98.08240 Y58.05579
X100.44559 Y58.05579
X100.64679 Y58.01720
X100.74270 Y57.96813
X100.83447 Y57.89467
X101.79095 Y56.93819
X103.06319 Y56.93819
X103.18762 Y56.92343
X103.33545 Y56.86318
X103.66319 Y56.86318
X103.71874 Y56.84631
X103.74632 Y56.81873
X103.76319 Y56.76318
X103.76126 Y55.99369
X103.74632 Y55.95764
X103.70144 Y55.92081
X103.56319 Y55.91322
X103.56319 Y55.32193
X105.33827 Y53.54678
X105.42270 Y53.55963
X105.60019 Y53.55033
X105.78140 Y53.50007
X105.93862 Y53.41752
X106.10804 Y53.27203
X106.33476 Y53.16245
X106.48188 Y53.03885
X106.61180 Y52.87101
X106.69455 Y52.69766
X106.74073 Y52.51114
X106.74842 Y52.31920
X106.71731 Y52.12964
X106.65759 Y51.96835
X106.54530 Y51.78821
X106.41147 Y51.65036
X106.27032 Y51.55212
X106.07525 Y51.46842
X105.90680 Y51.43380
X105.79056 Y51.42791
X105.59966 Y51.44940
X105.43557 Y51.50086
X105.26661 Y51.59230
X105.11950 Y51.71590
X105.00027 Y51.86654
X104.90263 Y52.07337
X104.76052 Y52.23941
X104.67797 Y52.39664
X104.62770 Y52.57782
X104.61841 Y52.74485
X104.63123 Y52.83972
X102.70962 Y54.76133
X102.64241 Y54.84548
X102.59791 Y54.93278
X102.56365 Y55.10509
X102.56319 Y55.83821
X101.56319 Y55.83821
X101.44635 Y55.85114
X101.34384 Y55.88424
X101.17427 Y55.99928
X100.21773 Y56.95581
X98.08182 Y56.95581
X97.93983 Y56.76234
X97.76757 Y56.61017
X97.57717 Y56.50087
X97.36859 Y56.43252
X97.12980 Y56.40580
X56.08180 Y56.40580
X54.15336 Y54.47736
X54.03291 Y54.37787
X54.03291 Y49.63934
G04 P0 ( dwell for no time -- G64 should not smooth over this point )
G00 Z5.00000 ( retract )

G00 X68.38114 Y48.62832 ( rapid move to begin. )
F300.00000
G01 Z-0.05000
G04 P0 ( dwell for no time -- G64 should not smooth over this point )
F600.00000
X68.38114 Y48.62832
X71.33564 Y51.58282
X71.38055 Y51.76581
X71.43226 Y51.86136
X71.49383 Y51.93467
X71.50112 Y52.07017
X71.54392 Y52.23205
X71.62259 Y52.39126
X71.73264 Y52.53063
X71.88619 Y52.68491
X71.93272 Y52.80459
X72.02370 Y52.95054
X72.15456 Y53.09120
X72.31105 Y53.20263
X72.48682 Y53.28028
X72.67458 Y53.32095
X72.79081 Y53.32684
X72.98172 Y53.30535
X73.16439 Y53.24592
X73.33137 Y53.15089
X73.47582 Y53.02420
X73.59180 Y52.87101
X73.67455 Y52.69766
X73.71768 Y52.53116
X73.72944 Y52.33941
X73.70236 Y52.14919
X73.63759 Y51.96835
X73.52530 Y51.78821
X73.39147 Y51.65036
X73.24138 Y51.54658
X73.08596 Y51.48062
X72.81204 Y51.23065
X72.64524 Y51.14381
X72.48471 Y51.10028
X72.43462 Y51.00444
X72.35494 Y50.90510
X69.00240 Y47.56310
X69.00240 Y44.33450
X69.10237 Y44.26694
X69.26336 Y44.10288
X69.38673 Y43.90895
X69.46707 Y43.69358
X69.50087 Y43.46620
X69.48993 Y43.25742
X69.45160 Y43.10598
X69.45160 Y42.51980
X69.42917 Y42.30141
X69.35172 Y42.06303
X69.24146 Y41.87319
X69.07949 Y41.69575
X68.90159 Y41.56715
X68.69148 Y41.47360
X68.47690 Y41.42745
X68.24705 Y41.42526
X68.01165 Y41.47360
X67.79280 Y41.57284
X67.62366 Y41.69572
X67.46826 Y41.86506
X67.35142 Y42.06303
X67.27832 Y42.28096
X67.25214 Y42.50934
X67.25160 Y43.36831
X67.27510 Y43.59239
X67.33949 Y43.79808
X67.43189 Y43.97098
X67.62458 Y44.19689
X67.80240 Y44.34101
X67.80240 Y48.03160
X67.81629 Y48.15814
X67.89844 Y48.35649
X67.98538 Y48.46243
X68.16389 Y48.58171
X68.28622 Y48.62022
X68.38114 Y48.62832
G04 P0 ( dwell for no time -- G64 should not smooth over this point )
G00 Z5.00000 ( retract )

G00 X71.82340 Y48.06881 ( rapid move to begin. )
F300.00000
G01 Z-0.05000
G04 P0 ( dwell for no time -- G64 should not smooth over this point )
F600.00000
X71.82340 Y48.06881
X71.82340 Y30.58279
X71.78390 Y30.38917
X71.72340 Y30.28335
X71.72340 Y29.58279
X71.70653 Y29.52722
X71.66165 Y29.49039
X71.62340 Y29.48279
X71.02340 Y29.48279
X70.96783 Y29.49963
X70.92531 Y29.56326
X70.92340 Y30.28353
X70.86285 Y30.38917
X70.82340 Y30.58279
X70.82340 Y48.27590
X70.83536 Y48.38293
X70.90257 Y48.54521
X70.96983 Y48.62941
X73.98814 Y51.64772
X74.04732 Y51.79184
X74.03185 Y51.90337
X74.04006 Y52.05994
X74.09142 Y52.25156
X74.16782 Y52.40032
X74.42619 Y52.68491
X74.47272 Y52.80459
X74.56370 Y52.95054
X74.69456 Y53.09120
X74.85105 Y53.20263
X75.02682 Y53.28028
X75.21458 Y53.32095
X75.31562 Y53.32722
X75.50190 Y53.30942
X75.68580 Y53.25389
X75.87137 Y53.15089
X76.01582 Y53.02420
X76.13180 Y52.87101
X76.21455 Y52.69766
X76.26073 Y52.51114
X76.26842 Y52.31920
X76.23731 Y52.12964
X76.16865 Y51.95016
X76.06530 Y51.78821
X75.93147 Y51.65036
X75.78138 Y51.54658
X75.62596 Y51.48062
X75.47391 Y51.32933
X75.33452 Y51.21927
X75.18524 Y51.14381
X75.02385 Y51.10002
X74.84039 Y51.08854
X71.82340 Y48.06881
G04 P0 ( dwell for no time -- G64 should not smooth over this point )
G00 Z5.00000 ( retract )

G00 X73.12340 Y46.96551 ( rapid move to begin. )
F300.00000
G01 Z-0.05000
G04 P0 ( dwell for no time -- G64 should not smooth over this point )
F600.00000
X73.12340 Y46.96551
X73.12340 Y30.58279
X73.11407 Y30.48912
X73.08014 Y30.37939
X72.99340 Y30.24977
X72.99340 Y29.58279
X72.97653 Y29.52722
X72.93165 Y29.49039
X72.89340 Y29.48279
X72.29340 Y29.48279
X72.23783 Y29.49963
X72.19531 Y29.56326
X72.19340 Y30.33186
X72.13701 Y30.46869
X72.12340 Y30.58279
X72.12340 Y47.17260
X72.13536 Y47.27963
X72.20257 Y47.44191
X72.26983 Y47.52611
X76.58468 Y51.84091
X76.57185 Y51.93588
X76.58115 Y52.10284
X76.62392 Y52.26456
X76.70259 Y52.42377
X76.81264 Y52.56314
X76.98531 Y52.73654
X77.10370 Y52.95054
X77.23456 Y53.09120
X77.39105 Y53.20263
X77.56682 Y53.28028
X77.75458 Y53.32095
X77.87081 Y53.32684
X78.06172 Y53.30535
X78.24439 Y53.24592
X78.41137 Y53.15089
X78.54188 Y53.03885
X78.66110 Y52.88821
X78.74752 Y52.71660
X78.79768 Y52.53116
X78.80944 Y52.33941
X78.78236 Y52.14919
X78.71759 Y51.96835
X78.60530 Y51.78821
X78.47147 Y51.65036
X78.31262 Y51.54229
X78.11765 Y51.46482
X77.87452 Y51.25179
X77.72524 Y51.17632
X77.56385 Y51.13253
X77.38661 Y51.12105
X77.31239 Y51.13060
X77.24655 Y51.08867
X73.12340 Y46.96551
G04 P0 ( dwell for no time -- G64 should not smooth over this point )
G00 Z5.00000 ( retract )

G00 X74.42339 Y45.75091 ( rapid move to begin. )
F300.00000
G01 Z-0.05000
G04 P0 ( dwell for no time -- G64 should not smooth over this point )
F600.00000
X74.42339 Y45.75091
X74.42339 Y30.58279
X74.41407 Y30.48912
X74.38014 Y30.37939
X74.32786 Y30.28886
X74.26340 Y30.21665
X74.26340 Y29.58279
X74.24653 Y29.52722
X74.20165 Y29.49039
X74.16340 Y29.48279
X73.56340 Y29.48279
X73.50783 Y29.49963
X73.46531 Y29.56326
X73.46340 Y30.39351
X73.43457 Y30.47763
X73.42340 Y30.58279
X73.42340 Y45.95799
X73.45812 Y46.14006
X73.50257 Y46.22731
X73.56983 Y46.31154
X79.11714 Y51.85615
X79.12333 Y52.08059
X79.16392 Y52.23205
X79.24259 Y52.39126
X79.35264 Y52.53063
X79.50619 Y52.68491
X79.55272 Y52.80459
X79.64370 Y52.95054
X79.77456 Y53.09120
X79.93105 Y53.20263
X80.10682 Y53.28028
X80.29458 Y53.32095
X80.41081 Y53.32684
X80.60172 Y53.30535
X80.78439 Y53.24592
X80.95137 Y53.15089
X81.08188 Y53.03885
X81.20110 Y52.88821
X81.28752 Y52.71660
X81.33768 Y52.53116
X81.34944 Y52.33941
X81.32236 Y52.14919
X81.25759 Y51.96835
X81.14530 Y51.78821
X81.01147 Y51.65036
X80.86138 Y51.54658
X80.70596 Y51.48062
X80.55391 Y51.32933
X80.41452 Y51.21927
X80.26524 Y51.14381
X80.10385 Y51.10002
X79.92661 Y51.08854
X79.81523 Y51.10398
X79.73588 Y51.06339
X74.42339 Y45.75091
G04 P0 ( dwell for no time -- G64 should not smooth over this point )
G00 Z5.00000 ( retract )

G00 X75.62339 Y44.45622 ( rapid move to begin. )
F300.00000
G01 Z-0.05000
G04 P0 ( dwell for no time -- G64 should not smooth over this point )
F600.00000
X75.62339 Y44.45622
X75.62339 Y30.58279
X75.58821 Y30.40951
X75.53340 Y30.31330
X75.53340 Y29.58279
X75.51653 Y29.52722
X75.47165 Y29.49039
X75.43340 Y29.48279
X74.83340 Y29.48279
X74.77783 Y29.49963
X74.73531 Y29.56326
X74.72342 Y30.58279
X74.72342 Y44.64260
X74.75433 Y44.80552
X74.85519 Y44.96077
X79.39049 Y49.49606
X79.42450 Y49.57625
X79.49397 Y49.66932
X79.62211 Y49.76589
X81.66471 Y51.80840
X81.65185 Y51.89288
X81.66115 Y52.07033
X81.71142 Y52.25156
X81.78782 Y52.40032
X82.04619 Y52.68491
X82.09272 Y52.80459
X82.18370 Y52.95054
X82.31456 Y53.09120
X82.47105 Y53.20263
X82.64682 Y53.28028
X82.83458 Y53.32095
X82.95081 Y53.32684
X83.14172 Y53.30535
X83.32439 Y53.24592
X83.49137 Y53.15089
X83.62188 Y53.03885
X83.74110 Y52.88821
X83.82752 Y52.71660
X83.87768 Y52.53116
X83.88944 Y52.33941
X83.86236 Y52.14919
X83.79759 Y51.96835
X83.68530 Y51.78821
X83.55147 Y51.65036
X83.40138 Y51.54658
X83.24596 Y51.48062
X83.09391 Y51.32933
X82.95452 Y51.21927
X82.80524 Y51.14381
X82.63359 Y51.09784
X82.46661 Y51.08854
X82.37176 Y51.10137
X80.24421 Y48.97381
X80.16001 Y48.90655
X80.01221 Y48.84503
X75.62339 Y44.45622
G04 P0 ( dwell for no time -- G64 should not smooth over this point )
G00 Z5.00000 ( retract )

G00 X76.85339 Y43.11370 ( rapid move to begin. )
F300.00000
G01 Z-0.05000
G04 P0 ( dwell for no time -- G64 should not smooth over this point )
F600.00000
X76.85339 Y43.11370
X76.85339 Y30.58279
X76.84081 Y30.47911
X76.80340 Y30.37951
X76.80340 Y29.58279
X76.78653 Y29.52722
X76.72291 Y29.48470
X76.10340 Y29.48279
X76.04783 Y29.49963
X76.00531 Y29.56326
X76.00340 Y30.37936
X75.96594 Y30.47911
X75.95341 Y30.58279
X75.95341 Y43.30006
X75.99182 Y43.48109
X76.08519 Y43.61822
X84.21436 Y51.74734
X84.19185 Y51.90337
X84.20006 Y52.05994
X84.25142 Y52.25156
X84.32782 Y52.40032
X84.58619 Y52.68491
X84.63272 Y52.80459
X84.72370 Y52.95054
X84.85456 Y53.09120
X85.01105 Y53.20263
X85.18682 Y53.28028
X85.37458 Y53.32095
X85.49081 Y53.32684
X85.68172 Y53.30535
X85.86439 Y53.24592
X86.03137 Y53.15089
X86.16188 Y53.03885
X86.28110 Y52.88821
X86.36752 Y52.71660
X86.41768 Y52.53116
X86.42944 Y52.33941
X86.40236 Y52.14919
X86.33759 Y51.96835
X86.22530 Y51.78821
X86.09147 Y51.65036
X85.94138 Y51.54658
X85.78596 Y51.48062
X85.51204 Y51.23065
X85.35482 Y51.14808
X85.16320 Y51.09674
X85.00661 Y51.08854
X84.85073 Y51.11105
X76.85339 Y43.11370
G04 P0 ( dwell for no time -- G64 should not smooth over this point )
G00 Z5.00000 ( retract )

G00 X78.12339 Y41.84370 ( rapid move to begin. )
F300.00000
G01 Z-0.05000
G04 P0 ( dwell for no time -- G64 should not smooth over this point )
F600.00000
X78.12339 Y41.84370
X78.12339 Y30.58279
X78.11081 Y30.47911
X78.07340 Y30.37951
X78.07340 Y29.58279
X78.05653 Y29.52722
X77.99291 Y29.48470
X77.37340 Y29.48279
X77.31783 Y29.49963
X77.27531 Y29.56326
X77.27340 Y30.37936
X77.23594 Y30.47911
X77.22341 Y30.58279
X77.22341 Y42.03006
X77.26182 Y42.21109
X77.35519 Y42.34822
X86.75436 Y51.74734
X86.73185 Y51.90337
X86.74006 Y52.05994
X86.79142 Y52.25156
X86.86782 Y52.40032
X87.12619 Y52.68491
X87.17272 Y52.80459
X87.26370 Y52.95054
X87.39456 Y53.09120
X87.55105 Y53.20263
X87.72682 Y53.28028
X87.91458 Y53.32095
X88.03081 Y53.32684
X88.22172 Y53.30535
X88.40439 Y53.24592
X88.57137 Y53.15089
X88.70188 Y53.03885
X88.82110 Y52.88821
X88.90752 Y52.71660
X88.95768 Y52.53116
X88.96944 Y52.33941
X88.94236 Y52.14919
X88.87759 Y51.96835
X88.76530 Y51.78821
X88.63147 Y51.65036
X88.48138 Y51.54658
X88.32596 Y51.48062
X88.05204 Y51.23065
X87.89482 Y51.14808
X87.70320 Y51.09674
X87.54661 Y51.08854
X87.39073 Y51.11105
X78.12339 Y41.84370
G04 P0 ( dwell for no time -- G64 should not smooth over this point )
G00 Z5.00000 ( retract )

G00 X79.39339 Y40.57370 ( rapid move to begin. )
F300.00000
G01 Z-0.05000
G04 P0 ( dwell for no time -- G64 should not smooth over this point )
F600.00000
X79.39339 Y40.57370
X79.39339 Y30.58279
X79.38081 Y30.47911
X79.34340 Y30.37951
X79.34340 Y29.58279
X79.32653 Y29.52722
X79.26291 Y29.48470
X78.64340 Y29.48279
X78.58783 Y29.49963
X78.54531 Y29.56326
X78.54340 Y30.37936
X78.50594 Y30.47911
X78.49341 Y30.58279
X78.49341 Y40.76006
X78.50441 Y40.85732
X78.56415 Y41.00159
X78.62519 Y41.07822
X89.29436 Y51.74734
X89.27185 Y51.90337
X89.28006 Y52.05994
X89.33142 Y52.25156
X89.40782 Y52.40032
X89.66619 Y52.68491
X89.71272 Y52.80459
X89.80370 Y52.95054
X89.93456 Y53.09120
X90.09105 Y53.20263
X90.26682 Y53.28028
X90.45458 Y53.32095
X90.57081 Y53.32684
X90.76172 Y53.30535
X90.94439 Y53.24592
X91.11137 Y53.15089
X91.24188 Y53.03885
X91.36110 Y52.88821
X91.44752 Y52.71660
X91.49768 Y52.53116
X91.50944 Y52.33941
X91.48236 Y52.14919
X91.41759 Y51.96835
X91.31767 Y51.80421
X91.18681 Y51.66355
X91.02138 Y51.54658
X90.86596 Y51.48062
X90.59204 Y51.23065
X90.42524 Y51.14381
X90.24320 Y51.09674
X90.08661 Y51.08854
X89.93073 Y51.11105
X79.39339 Y40.57370
G04 P0 ( dwell for no time -- G64 should not smooth over this point )
G00 Z5.00000 ( retract )

G00 X80.66339 Y39.30370 ( rapid move to begin. )
F300.00000
G01 Z-0.05000
G04 P0 ( dwell for no time -- G64 should not smooth over this point )
F600.00000
X80.66339 Y39.30370
X80.66339 Y30.58279
X80.65081 Y30.47911
X80.61340 Y30.37951
X80.61340 Y29.58279
X80.59653 Y29.52722
X80.53291 Y29.48470
X79.91340 Y29.48279
X79.85783 Y29.49963
X79.81531 Y29.56326
X79.81340 Y30.37936
X79.77594 Y30.47911
X79.76341 Y30.58279
X79.76341 Y39.49006
X79.77441 Y39.58732
X79.83415 Y39.73159
X79.89519 Y39.80822
X91.83436 Y51.74734
X91.81185 Y51.90337
X91.82006 Y52.05994
X91.87142 Y52.25156
X91.94782 Y52.40032
X92.20619 Y52.68491
X92.25272 Y52.80459
X92.34370 Y52.95054
X92.47456 Y53.09120
X92.63105 Y53.20263
X92.80682 Y53.28028
X92.99458 Y53.32095
X93.11081 Y53.32684
X93.30172 Y53.30535
X93.48439 Y53.24592
X93.65137 Y53.15089
X93.78188 Y53.03885
X93.90110 Y52.88821
X93.98752 Y52.71660
X94.03768 Y52.53116
X94.04944 Y52.33941
X94.02236 Y52.14919
X93.95759 Y51.96835
X93.85767 Y51.80421
X93.72681 Y51.66355
X93.56138 Y51.54658
X93.40596 Y51.48062
X93.13204 Y51.23065
X92.96524 Y51.14381
X92.78320 Y51.09674
X92.62661 Y51.08854
X92.47073 Y51.11105
X80.66339 Y39.30370
G04 P0 ( dwell for no time -- G64 should not smooth over this point )
G00 Z5.00000 ( retract )

G00 X78.34040 Y53.56458 ( rapid move to begin. )
F300.00000
G01 Z-0.05000
G04 P0 ( dwell for no time -- G64 should not smooth over this point )
F600.00000
X78.34040 Y53.56458
X77.86067 Y53.66004
X77.38102 Y53.56463
X76.97404 Y53.29268
X76.75095 Y52.96659
X76.67752 Y52.91759
X76.59065 Y52.90035
X76.50381 Y52.91759
X76.43037 Y52.96659
X76.20739 Y53.29263
X75.80040 Y53.56458
X75.32067 Y53.66004
X74.84102 Y53.56463
X74.43404 Y53.29268
X74.21095 Y52.96659
X74.13752 Y52.91759
X74.05065 Y52.90035
X73.96381 Y52.91759
X73.89037 Y52.96659
X73.66739 Y53.29263
X73.26040 Y53.56458
X72.78067 Y53.66004
X72.30102 Y53.56463
X71.89409 Y53.29273
X71.66394 Y52.95575
X71.59246 Y52.90718
X71.51248 Y52.88910
X71.44585 Y52.89720
X71.36803 Y52.93456
X71.32015 Y52.98127
X71.25017 Y53.12087
X70.88416 Y53.45442
X70.60925 Y53.56834
X70.59470 Y53.56067
X70.59470 Y53.25740
X70.77476 Y53.16245
X70.92188 Y53.03885
X71.04110 Y52.88821
X71.13455 Y52.69766
X71.18073 Y52.51114
X71.18842 Y52.31920
X71.15731 Y52.12964
X71.08865 Y51.95016
X70.98530 Y51.78821
X70.86681 Y51.66355
X70.70138 Y51.54658
X70.54596 Y51.48062
X70.17420 Y51.11630
X70.20887 Y51.03157
X70.21078 Y50.96002
X70.19264 Y50.89649
X70.14654 Y50.82933
X68.26377 Y48.94656
X68.19089 Y48.89766
X68.05737 Y48.86688
X67.76349 Y48.67051
X67.56760 Y48.37734
X67.49435 Y48.00922
X67.48998 Y44.54499
X67.45869 Y44.46732
X67.37185 Y44.37982
X67.05485 Y43.90542
X66.94358 Y43.34611
X66.94358 Y42.54197
X67.05480 Y41.98269
X67.35907 Y41.52732
X67.81444 Y41.22305
X68.35157 Y41.11617
X68.88863 Y41.22300
X69.34400 Y41.52727
X69.64827 Y41.98264
X69.75960 Y42.54220
X69.75960 Y43.16372
X69.80605 Y43.41858
X69.69912 Y43.95617
X69.34868 Y44.46315
X69.31474 Y44.54502
X69.31390 Y47.37034
X69.37687 Y47.49142
X70.12785 Y48.24242
X70.18418 Y48.28240
X70.24888 Y48.30539
X70.31306 Y48.30648
X70.41446 Y48.27066
X70.48213 Y48.19962
X70.51344 Y48.10148
X70.51538 Y34.00836
X70.49805 Y33.92144
X70.44885 Y33.84781
X70.37519 Y33.79861
X70.30786 Y33.78327
X70.19259 Y33.80282
X70.08871 Y33.88703
X69.83143 Y34.27773
X64.91960 Y39.18953
X64.77421 Y39.39961
X64.56022 Y39.54762
X54.39156 Y49.71973
X54.35640 Y49.77869
X54.34281 Y49.84153
X54.34335 Y54.16006
X54.35483 Y54.21279
X54.40743 Y54.29580
X56.16217 Y56.04713
X56.22109 Y56.08223
X56.30341 Y56.09778
X97.10757 Y56.09778
X97.66683 Y56.20900
X98.12342 Y56.51411
X98.18799 Y56.59366
X98.29391 Y56.64423
X99.99601 Y56.64776
X100.08303 Y56.63049
X100.15664 Y56.58127
X100.94056 Y55.79735
X101.23652 Y55.59961
X101.58534 Y55.53019
X102.04772 Y55.52826
X102.11506 Y55.51289
X102.18867 Y55.46367
X102.25156 Y55.34317
X102.25504 Y55.13778
X102.32075 Y54.80743
X102.50767 Y54.52768
X103.06847 Y53.96418
X103.10525 Y53.90565
X103.12250 Y53.81879
X103.08933 Y53.70113
X103.02161 Y53.63006
X102.93980 Y53.59616
X102.78094 Y53.56458
X102.37404 Y53.29268
X102.15095 Y52.96659
X102.07752 Y52.91759
X101.99065 Y52.90035
X101.90381 Y52.91759
X101.83037 Y52.96659
X101.60739 Y53.29263
X101.20040 Y53.56458
X100.72067 Y53.66004
X100.24102 Y53.56463
X99.83404 Y53.29268
X99.61095 Y52.96659
X99.53752 Y52.91759
X99.45065 Y52.90035
X99.36381 Y52.91759
X99.29037 Y52.96659
X99.06739 Y53.29263
X98.66040 Y53.56458
X98.18067 Y53.66004
X97.70102 Y53.56463
X97.29404 Y53.29268
X97.07095 Y52.96659
X96.99752 Y52.91759
X96.91065 Y52.90035
X96.82381 Y52.91759
X96.75037 Y52.96659
X96.52739 Y53.29263
X96.12040 Y53.56458
X95.64067 Y53.66004
X95.16102 Y53.56463
X94.75404 Y53.29268
X94.53095 Y52.96659
X94.45752 Y52.91759
X94.37065 Y52.90035
X94.28381 Y52.91759
X94.21037 Y52.96659
X93.98739 Y53.29263
X93.58040 Y53.56458
X93.10067 Y53.66004
X92.62102 Y53.56463
X92.21404 Y53.29268
X91.99095 Y52.96659
X91.91752 Y52.91759
X91.83065 Y52.90035
X91.74381 Y52.91759
X91.67037 Y52.96659
X91.44739 Y53.29263
X91.04040 Y53.56458
X90.56067 Y53.66004
X90.08102 Y53.56463
X89.67404 Y53.29268
X89.45095 Y52.96659
X89.37752 Y52.91759
X89.29065 Y52.90035
X89.20381 Y52.91759
X89.13037 Y52.96659
X88.90739 Y53.29263
X88.50040 Y53.56458
X88.02067 Y53.66004
X87.54102 Y53.56463
X87.13404 Y53.29268
X86.91095 Y52.96659
X86.83752 Y52.91759
X86.75065 Y52.90035
X86.66381 Y52.91759
X86.59037 Y52.96659
X86.36739 Y53.29263
X85.96040 Y53.56458
X85.48067 Y53.66004
X85.00102 Y53.56463
X84.59404 Y53.29268
X84.37095 Y52.96659
X84.29752 Y52.91759
X84.21065 Y52.90035
X84.12381 Y52.91759
X84.05037 Y52.96659
X83.82739 Y53.29263
X83.42040 Y53.56458
X82.94067 Y53.66004
X82.46102 Y53.56463
X82.05404 Y53.29268
X81.83095 Y52.96659
X81.75752 Y52.91759
X81.67065 Y52.90035
X81.58381 Y52.91759
X81.51037 Y52.96659
X81.28739 Y53.29263
X80.88040 Y53.56458
X80.40067 Y53.66004
X79.92102 Y53.56463
X79.51404 Y53.29268
X79.27604 Y52.95437
X79.19875 Y52.91191
X79.13065 Y52.90035
X79.06258 Y52.91191
X78.97037 Y52.96659
X78.74739 Y53.29263
X78.34040 Y53.56458
G04 P0 ( dwell for no time -- G64 should not smooth over this point )
G00 Z5.00000 ( retract )

G00 X69.59729 Y53.45447 ( rapid move to begin. )
F300.00000
G01 Z-0.05000
G04 P0 ( dwell for no time -- G64 should not smooth over this point )
F600.00000
X69.59729 Y53.45447
X69.23179 Y53.12138
X69.05706 Y52.73139
X69.36338 Y52.73139
X69.48370 Y52.95054
X69.61456 Y53.09120
X69.77105 Y53.20263
X69.88670 Y53.25437
X69.88670 Y53.56060
X69.87212 Y53.56834
X69.59729 Y53.45447
G04 P0 ( dwell for no time -- G64 should not smooth over this point )
G00 Z5.00000 ( retract )

G00 X94.88271 Y50.79636 ( rapid move to begin. )
F300.00000
G01 Z-0.05000
G04 P0 ( dwell for no time -- G64 should not smooth over this point )
F600.00000
X94.88271 Y50.79636
X94.84507 Y51.01282
X94.83128 Y51.31496
X94.79071 Y51.43512
X94.79071 Y51.96296
X94.74682 Y52.05709
X94.70369 Y52.22359
X94.69193 Y52.41534
X94.71901 Y52.60556
X94.78378 Y52.78640
X94.88370 Y52.95054
X95.01456 Y53.09120
X95.17105 Y53.20263
X95.34682 Y53.28028
X95.53458 Y53.32095
X95.65081 Y53.32684
X95.84172 Y53.30535
X96.02439 Y53.24592
X96.19137 Y53.15089
X96.33582 Y53.02420
X96.44110 Y52.88821
X96.53455 Y52.69766
X96.57768 Y52.53116
X96.58944 Y52.33941
X96.56236 Y52.14919
X96.49069 Y51.95427
X96.49069 Y51.17531
X96.46937 Y50.98844
X96.41718 Y50.82956
X96.32830 Y50.67566
X96.21682 Y50.55103
X96.09069 Y50.45669
X96.09069 Y33.57608
X96.12703 Y33.47395
X96.14070 Y33.35990
X96.13252 Y33.11962
X96.09841 Y33.00725
X95.99422 Y32.85393
X83.96950 Y20.82922
X83.87920 Y20.75820
X83.78129 Y20.71172
X82.00476 Y18.93519
X81.86763 Y18.84182
X81.69635 Y18.80387
X80.74680 Y18.80341
X80.56570 Y18.84184
X80.42859 Y18.93519
X79.89519 Y19.46859
X79.83420 Y19.54517
X79.77441 Y19.68944
X79.76341 Y19.78680
X79.76341 Y21.18278
X79.77594 Y21.28642
X79.81340 Y21.38611
X79.81340 Y22.18278
X79.84269 Y22.25347
X79.91340 Y22.28278
X80.51340 Y22.28278
X80.56895 Y22.26592
X80.59653 Y22.23833
X80.61340 Y22.18278
X80.61340 Y21.38606
X80.65081 Y21.28642
X80.66339 Y21.18278
X80.66339 Y19.97313
X80.93313 Y19.70339
X81.50021 Y19.70339
X83.14486 Y21.34804
X83.19142 Y21.44603
X83.26242 Y21.53630
X95.14647 Y33.42035
X95.19071 Y33.57613
X95.19071 Y50.45661
X95.06453 Y50.55103
X94.95305 Y50.67566
X94.88271 Y50.79636
G04 P0 ( dwell for no time -- G64 should not smooth over this point )
G00 Z5.00000 ( retract )

G00 X94.88271 Y50.79634 ( rapid move to begin. )
F300.00000
G01 Z-0.05000
G04 P0 ( dwell for no time -- G64 should not smooth over this point )
F600.00000
X94.88271 Y50.79634
X94.88271 Y33.68621
X94.86539 Y33.59929
X94.81619 Y33.52569
X83.06026 Y21.76975
X82.90222 Y21.54103
X81.43908 Y20.07786
X81.33232 Y20.01809
X81.20070 Y20.01141
X81.11607 Y20.02688
X81.06824 Y20.05246
X81.00961 Y20.11228
X80.97576 Y20.19394
X80.97141 Y21.16071
X80.93382 Y21.37161
X80.93382 Y22.16145
X80.90164 Y22.33257
X80.81147 Y22.47270
X80.67517 Y22.56581
X80.49051 Y22.60323
X79.93466 Y22.60323
X79.76255 Y22.57087
X79.66133 Y22.51059
X79.57566 Y22.49510
X79.49064 Y22.51293
X79.40637 Y22.56559
X79.22054 Y22.60323
X78.66466 Y22.60323
X78.49255 Y22.57087
X78.39133 Y22.51059
X78.30566 Y22.49510
X78.22064 Y22.51293
X78.13637 Y22.56559
X77.95054 Y22.60323
X77.43840 Y22.60323
X77.35608 Y22.61872
X77.30439 Y22.64730
X77.22865 Y22.74333
X77.21140 Y22.83023
X77.21140 Y24.07224
X77.14579 Y24.40213
X76.95887 Y24.68189
X74.16114 Y27.47962
X73.88138 Y27.66654
X73.55144 Y27.73220
X57.27824 Y27.73220
X57.19206 Y27.74917
X57.05594 Y27.83502
X56.72523 Y27.90083
X54.80266 Y27.90083
X54.67251 Y27.94188
X33.66556 Y48.94384
X33.61634 Y49.01750
X33.59919 Y49.09947
X33.60912 Y49.16739
X33.64976 Y49.24562
X33.69592 Y49.29027
X33.75794 Y49.31979
X34.04763 Y49.33139
X34.07339 Y49.35715
X34.07339 Y49.63942
X33.80785 Y49.64132
X33.74423 Y49.68384
X33.72739 Y49.73942
X33.72929 Y50.50889
X33.75667 Y50.56007
X33.80785 Y50.58745
X34.07339 Y50.58938
X34.07339 Y50.87157
X34.04758 Y50.89738
X33.74646 Y50.89738
X33.55312 Y50.81656
X33.46488 Y50.79934
X33.37864 Y50.81694
X33.29033 Y50.87218
X33.10453 Y50.90983
X30.95020 Y50.92240
X30.65874 Y50.98483
X29.50288 Y50.98483
X29.33179 Y50.95268
X29.19163 Y50.86248
X29.10631 Y50.76842
X28.98912 Y50.73203
X28.93014 Y50.73782
X28.85744 Y50.76924
X28.78122 Y50.85326
X28.64337 Y50.94742
X28.45872 Y50.98483
X23.83503 Y50.97239
X23.70488 Y51.01346
X23.61809 Y51.11541
X23.15408 Y51.42547
X22.59454 Y51.53680
X22.22380 Y51.53680
X21.66429 Y51.42552
X21.20892 Y51.12126
X20.90465 Y50.66588
X20.79777 Y50.12875
X20.90460 Y49.59169
X21.20887 Y49.13632
X21.66424 Y48.83206
X22.22352 Y48.72078
X22.62967 Y48.71044
X23.16843 Y48.81760
X23.62380 Y49.12189
X23.70483 Y49.21524
X23.83503 Y49.25639
X28.46049 Y49.24394
X28.63133 Y49.27605
X28.77149 Y49.36624
X28.85676 Y49.46027
X28.97398 Y49.49670
X29.03298 Y49.49091
X29.10568 Y49.45949
X29.18190 Y49.37546
X29.31975 Y49.28131
X29.50418 Y49.24394
X30.66051 Y49.24394
X30.94512 Y49.30638
X31.49239 Y49.30638
X31.57926 Y49.28908
X31.65947 Y49.23259
X31.70931 Y49.14237
X31.71921 Y48.96243
X31.78495 Y48.63190
X31.97187 Y48.35215
X36.98976 Y43.33428
X37.04468 Y43.24192
X37.05080 Y43.12465
X36.99637 Y43.02054
X36.91610 Y42.96405
X36.82929 Y42.94680
X31.55630 Y42.94680
X31.40710 Y42.92140
X31.22485 Y42.93705
X31.17682 Y42.96283
X31.11815 Y43.02313
X31.08091 Y43.14025
X31.11058 Y43.25914
X31.19160 Y43.38114
X31.22902 Y43.56580
X31.22902 Y44.42165
X31.19686 Y44.59274
X31.10669 Y44.73285
X30.97032 Y44.82604
X30.78574 Y44.86343
X29.62988 Y44.86343
X29.45879 Y44.83128
X29.31863 Y44.74108
X29.23331 Y44.64702
X29.11612 Y44.61063
X29.05714 Y44.61642
X28.98444 Y44.64784
X28.90822 Y44.73186
X28.77037 Y44.82602
X28.58572 Y44.86343
X23.41661 Y44.85099
X23.32972 Y44.86823
X23.25608 Y44.91746
X18.65518 Y49.51836
X18.35919 Y49.71613
X18.01012 Y49.78560
X14.45719 Y49.78560
X14.37487 Y49.80109
X14.32285 Y49.82995
X14.24663 Y49.92652
X14.22938 Y50.01341
X14.22938 Y50.95684
X14.19181 Y51.16761
X14.19181 Y51.55745
X14.15966 Y51.72854
X14.06949 Y51.86865
X13.97543 Y51.95402
X13.94345 Y52.03172
X13.93929 Y52.09085
X13.97625 Y52.20286
X14.06022 Y52.27911
X14.15440 Y52.41694
X14.19181 Y52.60159
X14.19181 Y53.29298
X14.24320 Y53.57309
X14.24320 Y54.68107
X14.26045 Y54.76788
X14.30967 Y54.84154
X15.49938 Y56.03125
X15.57299 Y56.08045
X15.64038 Y56.09585
X46.62119 Y56.09778
X46.70806 Y56.08048
X46.80407 Y56.00474
X46.83264 Y55.95307
X46.84819 Y55.87078
X46.84819 Y44.37476
X46.82764 Y44.28114
X46.70945 Y44.09826
X46.59818 Y43.53900
X46.59818 Y43.30397
X46.70940 Y42.74469
X47.01367 Y42.28932
X47.46996 Y41.98444
X47.58212 Y41.95816
X47.72187 Y41.88137
X48.21918 Y41.39024
X48.26894 Y41.31569
X48.28590 Y41.22811
X48.27376 Y41.15963
X48.15845 Y40.97322
X48.12096 Y40.78815
X48.12096 Y39.93182
X48.15306 Y39.76098
X48.29848 Y39.56024
X48.32903 Y39.48356
X48.33328 Y39.13345
X48.39893 Y38.80330
X48.58585 Y38.52357
X57.54812 Y29.56130
X57.82785 Y29.37439
X58.15774 Y29.30875
X60.01001 Y29.30621
X60.11189 Y29.26976
X60.29754 Y29.13372
X60.48197 Y29.09636
X61.33830 Y29.09636
X61.50914 Y29.12849
X61.64925 Y29.21863
X61.74244 Y29.35501
X61.77983 Y29.53959
X61.77983 Y30.69544
X61.74768 Y30.86653
X61.65748 Y31.00669
X61.56345 Y31.09196
X61.53145 Y31.16968
X61.52728 Y31.22881
X61.56421 Y31.34085
X61.64826 Y31.41710
X61.74242 Y31.55495
X61.77983 Y31.73961
X61.78174 Y32.40628
X61.79708 Y32.47362
X61.83386 Y32.53214
X61.91966 Y32.59638
X62.36914 Y32.69028
X62.66459 Y32.69465
X62.89444 Y32.74039
X63.06093 Y32.74286
X63.12827 Y32.72749
X63.20188 Y32.67827
X63.50122 Y32.37893
X63.55059 Y32.30489
X63.56464 Y32.18291
X63.52862 Y32.09104
X63.44777 Y32.01949
X63.25357 Y31.97103
X63.11341 Y31.88086
X63.02032 Y31.74459
X62.98295 Y31.56016
X62.98295 Y29.60382
X63.01509 Y29.43296
X63.10526 Y29.29283
X63.24155 Y29.19971
X63.42596 Y29.16235
X63.98232 Y29.16235
X64.15412 Y29.19466
X64.25532 Y29.25490
X64.34099 Y29.27042
X64.42603 Y29.25264
X64.51041 Y29.19994
X64.69593 Y29.16235
X65.25232 Y29.16235
X65.42412 Y29.19466
X65.52532 Y29.25490
X65.61099 Y29.27042
X65.69603 Y29.25264
X65.78041 Y29.19994
X65.96593 Y29.16235
X66.52232 Y29.16235
X66.69412 Y29.19466
X66.79532 Y29.25490
X66.88099 Y29.27042
X66.96603 Y29.25264
X67.05041 Y29.19994
X67.23593 Y29.16235
X67.79232 Y29.16235
X67.96422 Y29.19468
X68.05638 Y29.24924
X68.14088 Y29.26491
X68.33341 Y29.20324
X68.33341 Y31.96226
X68.22711 Y31.91822
X68.13926 Y31.90097
X68.05295 Y31.91842
X67.97657 Y31.96549
X67.79049 Y32.00323
X67.22839 Y32.00323
X67.14149 Y32.02048
X67.06786 Y32.06971
X67.00497 Y32.19033
X67.00149 Y32.46389
X66.93959 Y32.77509
X66.76352 Y33.03861
X63.23927 Y36.56286
X62.97574 Y36.73894
X62.66495 Y36.80079
X58.59256 Y36.80079
X58.50567 Y36.81803
X58.40963 Y36.89378
X58.19823 Y37.20932
X57.77278 Y37.63477
X57.37413 Y37.89197
X54.38526 Y40.88086
X54.12173 Y41.05694
X53.81094 Y41.11879
X52.28318 Y41.11879
X52.19588 Y41.13621
X52.10434 Y41.19359
X51.91854 Y41.23123
X50.76268 Y41.23123
X50.59159 Y41.19908
X50.45143 Y41.10888
X50.36611 Y41.01482
X50.28839 Y40.98285
X50.22928 Y40.97868
X50.11724 Y41.01564
X49.99258 Y41.14927
X49.95123 Y41.26283
X49.94938 Y41.58831
X49.88379 Y41.91823
X49.69687 Y42.19796
X49.36335 Y42.53148
X49.30358 Y42.63824
X49.30122 Y42.73628
X49.41420 Y43.30420
X49.41420 Y43.53870
X49.30292 Y44.09821
X49.18562 Y44.27903
X49.16419 Y44.37476
X49.16419 Y55.87078
X49.19068 Y55.97492
X49.23063 Y56.03125
X49.28699 Y56.07123
X49.39119 Y56.09778
X50.47610 Y56.09778
X50.59377 Y56.06453
X50.66482 Y55.99689
X50.78565 Y55.81606
X52.32687 Y54.27484
X52.45539 Y54.18478
X52.49585 Y54.13022
X52.52240 Y54.04624
X52.52483 Y49.41323
X52.59806 Y49.04514
X52.80665 Y48.73294
X63.43927 Y38.11163
X63.77975 Y37.89614
X63.96487 Y37.72875
X68.65206 Y33.04156
X68.91650 Y32.86488
X68.99615 Y32.83059
X69.25429 Y32.57245
X69.29346 Y32.46188
X69.29539 Y32.21703
X69.27984 Y32.13471
X69.23339 Y32.06338
X69.23339 Y29.20329
X69.42739 Y29.26453
X69.51378 Y29.24711
X69.59015 Y29.19999
X69.77596 Y29.16235
X70.33232 Y29.16235
X70.50412 Y29.19466
X70.60532 Y29.25490
X70.69099 Y29.27042
X70.77603 Y29.25264
X70.86041 Y29.19994
X71.04593 Y29.16235
X71.60232 Y29.16235
X71.77412 Y29.19466
X71.87532 Y29.25490
X71.96099 Y29.27042
X72.04603 Y29.25264
X72.13041 Y29.19994
X72.31593 Y29.16235
X72.87232 Y29.16235
X73.04412 Y29.19466
X73.14532 Y29.25490
X73.23099 Y29.27042
X73.31603 Y29.25264
X73.40041 Y29.19994
X73.58593 Y29.16235
X74.14232 Y29.16235
X74.31412 Y29.19466
X74.41532 Y29.25490
X74.50099 Y29.27042
X74.58603 Y29.25264
X74.67041 Y29.19994
X74.85593 Y29.16235
X75.41232 Y29.16235
X75.58412 Y29.19466
X75.68532 Y29.25490
X75.77099 Y29.27042
X75.85603 Y29.25264
X75.94041 Y29.19994
X76.12593 Y29.16235
X76.68232 Y29.16235
X76.85412 Y29.19466
X76.95532 Y29.25490
X77.04099 Y29.27042
X77.12603 Y29.25264
X77.21041 Y29.19994
X77.39593 Y29.16235
X77.95232 Y29.16235
X78.12412 Y29.19466
X78.22532 Y29.25490
X78.31099 Y29.27042
X78.39603 Y29.25264
X78.48041 Y29.19994
X78.66593 Y29.16235
X79.22232 Y29.16235
X79.39412 Y29.19466
X79.49532 Y29.25490
X79.58099 Y29.27042
X79.66603 Y29.25264
X79.75041 Y29.19994
X79.93593 Y29.16235
X80.49232 Y29.16235
X80.66313 Y29.19445
X80.80329 Y29.28465
X80.89641 Y29.42094
X80.93382 Y29.60560
X80.93382 Y30.39397
X80.97139 Y30.60463
X80.97139 Y39.08206
X81.01243 Y39.21214
X92.84639 Y51.05042
X92.95541 Y51.10599
X93.10067 Y51.09469
X93.58035 Y51.19009
X93.98706 Y51.46184
X94.18193 Y51.75349
X94.24451 Y51.81607
X94.32630 Y51.84998
X94.41490 Y51.85003
X94.53435 Y51.78458
X94.75493 Y51.46073
X94.79887 Y51.41927
X94.83128 Y51.31496
X94.84507 Y51.01282
X94.88271 Y50.79634
G04 P0 ( dwell for no time -- G64 should not smooth over this point )
G00 Z5.00000 ( retract )

G00 X101.52870 Y51.00835 ( rapid move to begin. )
F300.00000
G01 Z-0.05000
G04 P0 ( dwell for no time -- G64 should not smooth over this point )
F600.00000
X101.52870 Y51.00835
X101.57135 Y51.42006
X101.81806 Y51.77322
X101.89928 Y51.83510
X102.01536 Y51.85194
X102.11676 Y51.81615
X102.17942 Y51.75351
X102.37429 Y51.46190
X102.41071 Y51.43754
X102.41071 Y51.96296
X102.36682 Y52.05709
X102.32369 Y52.22359
X102.31193 Y52.41534
X102.33901 Y52.60556
X102.40378 Y52.78640
X102.51607 Y52.96654
X102.64991 Y53.10439
X102.79105 Y53.20263
X102.98613 Y53.28633
X103.25562 Y53.32722
X103.44190 Y53.30942
X103.62580 Y53.25389
X103.95681 Y53.07142
X104.09148 Y52.95351
X104.20809 Y52.79301
X104.27185 Y52.64978
X104.31091 Y52.47655
X104.31256 Y52.28851
X104.27185 Y52.10495
X104.20334 Y51.95234
X104.11069 Y51.82395
X104.11069 Y51.43756
X104.14734 Y51.46205
X104.37032 Y51.78806
X104.44376 Y51.83710
X104.53067 Y51.85438
X104.61749 Y51.83710
X104.69095 Y51.78811
X104.91401 Y51.46207
X105.32097 Y51.19014
X105.80067 Y51.09469
X106.28035 Y51.19009
X106.68904 Y51.46319
X106.76227 Y51.53586
X106.88005 Y51.56911
X106.96692 Y51.55186
X107.04058 Y51.50264
X107.08980 Y51.42900
X107.14479 Y51.29626
X107.25955 Y51.18150
X107.40946 Y51.11938
X107.56602 Y51.11938
X107.51197 Y51.28191
X107.49450 Y51.42740
X107.43514 Y51.44424
X107.39262 Y51.50787
X107.39071 Y52.12529
X107.19397 Y52.34597
X107.11142 Y52.50319
X107.06115 Y52.68437
X107.05185 Y52.85140
X107.06468 Y52.94627
X106.81449 Y53.19646
X106.74601 Y53.22974
X106.68909 Y53.29148
X106.28040 Y53.56458
X105.79778 Y53.66060
X105.70959 Y53.66154
X105.63263 Y53.69430
X104.10317 Y55.21756
X104.05387 Y55.29130
X104.03662 Y55.37819
X104.04818 Y55.44627
X104.11823 Y55.55112
X104.17670 Y55.58787
X104.24409 Y55.60326
X104.48808 Y55.60519
X104.46364 Y55.74510
X104.46319 Y55.91322
X104.32491 Y55.92081
X104.28003 Y55.95764
X104.26509 Y55.99369
X104.26319 Y56.76318
X104.28003 Y56.81873
X104.34365 Y56.86125
X104.60919 Y56.86318
X104.60919 Y57.14537
X104.58338 Y57.17118
X104.28226 Y57.17118
X104.08892 Y57.09036
X104.00068 Y57.07314
X103.91444 Y57.09074
X103.82613 Y57.14598
X103.63992 Y57.18370
X103.33337 Y57.18797
X103.04061 Y57.24619
X101.95885 Y57.25289
X101.85209 Y57.31266
X101.06817 Y58.09658
X100.77221 Y58.29432
X100.42306 Y58.36379
X98.29391 Y58.36729
X98.18804 Y58.41781
X98.12347 Y58.49737
X97.66688 Y58.80247
X97.10735 Y58.91380
X9.70003 Y58.91380
X9.14049 Y58.80252
X8.66610 Y58.48553
X7.90242 Y57.72185
X7.82873 Y57.67263
X7.74677 Y57.65548
X7.61570 Y57.69368
X7.55309 Y57.75635
X7.52492 Y57.81952
X7.51568 Y58.62299
X7.16496 Y59.47181
X6.51627 Y60.12162
X5.66821 Y60.47374
X4.75023 Y60.47463
X3.90151 Y60.12396
X3.25170 Y59.47527
X2.89958 Y58.62721
X2.89870 Y57.70923
X3.24937 Y56.86051
X3.89806 Y56.21070
X4.74624 Y55.85851
X5.55373 Y55.84781
X5.61675 Y55.81957
X5.67928 Y55.75693
X5.71314 Y55.67509
X5.71393 Y55.59138
X5.65099 Y55.47042
X4.68465 Y54.50408
X4.36770 Y54.02976
X4.32275 Y53.81894
X4.27024 Y53.73611
X2.75310 Y52.21897
X2.49603 Y51.84218
X2.42257 Y51.79321
X2.31625 Y51.77787
X2.24889 Y51.79321
X2.17525 Y51.84244
X2.12603 Y51.91607
X2.10878 Y52.00297
X2.11069 Y60.90468
X2.13024 Y60.98093
X2.17878 Y61.04905
X2.24886 Y61.09487
X2.33578 Y61.11219
X107.73892 Y61.11219
X107.85670 Y61.07889
X107.93694 Y60.99391
X107.96155 Y60.92931
X107.96234 Y60.84557
X107.91172 Y60.73965
X107.82559 Y60.67536
X107.22871 Y60.42876
X106.57890 Y59.78007
X106.22678 Y58.93201
X106.22590 Y58.01403
X106.57657 Y57.16531
X107.22526 Y56.51550
X108.07331 Y56.16338
X108.99132 Y56.16250
X109.84001 Y56.51317
X110.48987 Y57.16191
X110.73894 Y57.76170
X110.78474 Y57.83168
X110.88563 Y57.89165
X110.97346 Y57.89920
X111.03998 Y57.88235
X111.11570 Y57.82785
X111.16005 Y57.75693
X111.17559 Y57.67468
X111.17559 Y5.64959
X111.16005 Y5.56724
X111.12484 Y5.50829
X111.07463 Y5.46077
X110.99274 Y5.42691
X110.89464 Y5.42935
X110.80310 Y5.47669
X110.73876 Y5.56288
X110.61916 Y5.85241
X109.97047 Y6.50222
X109.12241 Y6.85434
X108.20443 Y6.85523
X107.35571 Y6.50456
X106.70590 Y5.85587
X106.35378 Y5.00781
X106.35290 Y4.08983
X106.70357 Y3.24111
X107.35279 Y2.59075
