( pcb2gcode 1.3.2 )
( Software-independent Gcode )

G94 ( Millimeters per minute feed rate. )
G21 ( Units == Millimeters. )

G90 ( Absolute coordinates. )
S10000 ( RPM spindle speed. )
G64 P0.01000 ( set maximum deviation from commanded toolpath )
F600.00000 ( Feedrate. )

F600.00000 ( Feedrate. )
M3 ( Spindle on clockwise. )
G04 P0 ( dwell for no time -- G64 should not smooth over this point )
G00 Z5.00000 ( retract )

G00 X0.15123 Y1.65079 ( rapid move to begin. )
G01 Z-2.50000 F300.00000 ( plunge. )
G04 P0 ( dwell for no time -- G64 should not smooth over this point )
F600.00000
X0.15123 Y1.65079
X0.15082 Y61.57016
X0.17963 Y61.86279
X0.26499 Y62.14417
X0.40360 Y62.40350
X0.59014 Y62.63081
X0.81744 Y62.81737
X1.07678 Y62.95598
X1.35816 Y63.04135
X1.65079 Y63.07018
X54.89219 Y63.07018
Z-0.60000
X58.39219 Y63.07018
Z-2.50000 F300.00000
F600.00000X111.63358 Y63.07018
X111.92621 Y63.04135
X112.20760 Y62.95598
X112.46693 Y62.81737
X112.69423 Y62.63083
X112.88077 Y62.40353
X113.01938 Y62.14420
X113.10475 Y61.86281
X113.13358 Y61.57018
X113.13358 Y1.65082
X113.10475 Y1.35819
X113.01938 Y1.07680
X112.88077 Y0.81747
X112.69423 Y0.59017
X112.46693 Y0.40363
X112.20760 Y0.26502
X111.92621 Y0.17965
X111.63358 Y0.15082
X58.39239 Y0.15082
Z-0.60000
X54.89239 Y0.15082
Z-2.50000 F300.00000
F600.00000X1.65120 Y0.15082
X1.35859 Y0.17965
X1.07719 Y0.26502
X0.81788 Y0.40363
X0.59057 Y0.59017
X0.40401 Y0.81747
X0.26540 Y1.07678
X0.18003 Y1.35819
X0.15123 Y1.65079

G04 P0 ( dwell for no time -- G64 should not smooth over this point )
G00 Z10.000 ( retract )

M5 ( Spindle off. )
M9 ( Coolant off. )
M2 ( Program end. )

