( pcb2gcode 1.3.2 )
( Software-independent Gcode )

G94 ( Millimeters per minute feed rate. )
G21 ( Units == Millimeters. )

G90 ( Absolute coordinates. )
S10000 ( RPM spindle speed. )
G64 P0.01000 ( set maximum deviation from commanded toolpath )
F600.00000 ( Feedrate. )

F600.00000 ( Feedrate. )
M3 ( Spindle on clockwise. )
G04 P0 ( dwell for no time -- G64 should not smooth over this point )
G00 Z5.00000 ( retract )

G00 X7.83534 Y10.09195 ( rapid move to begin. )
F300.00000
G01 Z-0.05000
G04 P0 ( dwell for no time -- G64 should not smooth over this point )
F600.00000
X7.83534 Y10.09195
X7.72134 Y10.28918
X7.56594 Y10.45852
X7.39681 Y10.58141
X7.16782 Y10.68334
X6.95302 Y10.72845
X6.73348 Y10.72901
X6.49813 Y10.68065
X6.27923 Y10.58138
X6.09460 Y10.44453
X5.95472 Y10.28918
X5.83313 Y10.08189
X5.76206 Y9.86317
X5.73849 Y9.52385
X5.75772 Y9.32876
X5.81845 Y9.12195
X5.91837 Y8.93092
X6.06023 Y8.75586
X6.56579 Y8.25106
X6.74580 Y8.10811
X6.94164 Y8.00892
X7.17415 Y7.94832
X7.39343 Y7.93737
X7.61032 Y7.97118
X7.82568 Y8.05152
X8.01961 Y8.17488
X8.18367 Y8.33587
X8.32020 Y8.54608
X8.40051 Y8.76140
X8.43432 Y8.97831
X8.42228 Y9.20795
X8.36597 Y9.42014
X8.25220 Y9.64349
X8.11362 Y9.81367
X7.83534 Y10.09195
G04 P0 ( dwell for no time -- G64 should not smooth over this point )
G00 Z5.00000 ( retract )

G00 X4.63928 Y12.52669 ( rapid move to begin. )
F300.00000
G01 Z-0.05000
G04 P0 ( dwell for no time -- G64 should not smooth over this point )
F600.00000
X4.63928 Y12.52669
X4.13903 Y12.52618
X3.67639 Y12.71734
X3.32219 Y13.07091
X3.13027 Y13.53319
X3.12973 Y14.03352
X3.32089 Y14.49611
X3.67446 Y14.85031
X4.13677 Y15.04223
X4.63702 Y15.04274
X5.09965 Y14.85158
X5.45391 Y14.49796
X5.64581 Y14.03581
X5.64631 Y13.53545
X5.45515 Y13.07282
X5.10159 Y12.71864
X4.63928 Y12.52669
G04 P0 ( dwell for no time -- G64 should not smooth over this point )
G00 Z5.00000 ( retract )

G00 X3.43857 Y13.77404 ( rapid move to begin. )
F300.00000
G01 Z-0.05000
G04 P0 ( dwell for no time -- G64 should not smooth over this point )
F600.00000
X3.43857 Y13.77404
X3.46148 Y13.57688
X3.52016 Y13.39809
X3.61947 Y13.22611
X3.74495 Y13.08592
X3.91302 Y12.96177
X4.09445 Y12.88100
X4.27840 Y12.84135
X4.47682 Y12.83916
X4.68160 Y12.88100
X4.85368 Y12.95702
X5.03107 Y13.08592
X5.15655 Y13.22611
X5.25586 Y13.39809
X5.31888 Y13.59733
X5.33745 Y13.79494
X5.31454 Y13.99209
X5.25586 Y14.17086
X5.15658 Y14.34284
X5.03107 Y14.48305
X4.86303 Y14.60718
X4.68160 Y14.68798
X4.48729 Y14.72928
X4.29917 Y14.72984
X4.09445 Y14.68798
X3.92234 Y14.61196
X3.74495 Y14.48305
X3.61944 Y14.34287
X3.52016 Y14.17088
X3.45876 Y13.98198
X3.43857 Y13.77404
G04 P0 ( dwell for no time -- G64 should not smooth over this point )
G00 Z5.00000 ( retract )

G00 X11.83858 Y14.97403 ( rapid move to begin. )
F300.00000
G01 Z-0.05000
G04 P0 ( dwell for no time -- G64 should not smooth over this point )
F600.00000
X11.83858 Y14.97403
X11.86149 Y14.77688
X11.92016 Y14.59809
X12.01948 Y14.42610
X12.14495 Y14.28592
X12.31303 Y14.16177
X12.49446 Y14.08099
X12.67841 Y14.04134
X12.87683 Y14.03916
X13.08160 Y14.08099
X13.25369 Y14.15702
X13.43108 Y14.28592
X13.55656 Y14.42610
X13.65587 Y14.59809
X13.71889 Y14.79732
X13.73746 Y14.99494
X13.71455 Y15.19209
X13.65587 Y15.37086
X13.55658 Y15.54284
X13.43108 Y15.68305
X13.26304 Y15.80718
X13.08160 Y15.88798
X12.88729 Y15.92928
X12.69918 Y15.92983
X12.49446 Y15.88798
X12.32235 Y15.81195
X12.14495 Y15.68305
X12.01945 Y15.54287
X11.92016 Y15.37088
X11.85877 Y15.18198
X11.83858 Y14.97403
G04 P0 ( dwell for no time -- G64 should not smooth over this point )
G00 Z5.00000 ( retract )

G00 X12.53901 Y13.72618 ( rapid move to begin. )
F300.00000
G01 Z-0.05000
G04 P0 ( dwell for no time -- G64 should not smooth over this point )
F600.00000
X12.53901 Y13.72618
X12.07640 Y13.91734
X11.72215 Y14.27096
X11.53025 Y14.73311
X11.52974 Y15.23347
X11.72090 Y15.69610
X12.07447 Y16.05031
X12.53675 Y16.24223
X13.03703 Y16.24274
X13.49966 Y16.05158
X13.85387 Y15.69801
X14.04579 Y15.23573
X14.04630 Y14.73540
X13.85516 Y14.27281
X13.50159 Y13.91864
X13.03929 Y13.72669
X12.53901 Y13.72618
G04 P0 ( dwell for no time -- G64 should not smooth over this point )
G00 Z5.00000 ( retract )

G00 X15.37436 Y17.36344 ( rapid move to begin. )
F300.00000
G01 Z-0.05000
G04 P0 ( dwell for no time -- G64 should not smooth over this point )
F600.00000
X15.37436 Y17.36344
X15.42023 Y16.94797
X15.54675 Y16.56042
X15.75582 Y16.19831
X16.04370 Y15.88102
X16.38315 Y15.63710
X16.75579 Y15.47180
X17.15442 Y15.38650
X17.57240 Y15.38432
X17.99186 Y15.47180
X18.36447 Y15.63710
X18.70392 Y15.88102
X18.98523 Y16.19018
X19.20087 Y16.56042
X19.32739 Y16.94797
X19.37326 Y17.38434
X19.32739 Y17.79981
X19.20087 Y18.18734
X18.99183 Y18.54944
X18.70392 Y18.86676
X18.36447 Y19.11068
X17.99186 Y19.27598
X17.58287 Y19.36292
X17.17520 Y19.36348
X16.75579 Y19.27598
X16.37383 Y19.10593
X16.04370 Y18.86676
X15.76240 Y18.55759
X15.54675 Y18.18736
X15.42023 Y17.79981
X15.37436 Y17.36344
G04 P0 ( dwell for no time -- G64 should not smooth over this point )
G00 Z5.00000 ( retract )

G00 X19.33161 Y16.06821 ( rapid move to begin. )
F300.00000
G01 Z-0.05000
G04 P0 ( dwell for no time -- G64 should not smooth over this point )
F600.00000
X19.33161 Y16.06821
X18.68294 Y15.41841
X17.83486 Y15.06629
X16.91688 Y15.06540
X16.06819 Y15.41607
X15.41835 Y16.06476
X15.06623 Y16.91281
X15.06537 Y17.83082
X15.41604 Y18.67951
X16.06471 Y19.32932
X16.91279 Y19.68144
X17.83077 Y19.68233
X18.67946 Y19.33166
X19.32929 Y18.68297
X19.68141 Y17.83491
X19.68230 Y16.91693
X19.33161 Y16.06821
G04 P0 ( dwell for no time -- G64 should not smooth over this point )
G00 Z5.00000 ( retract )

G00 X21.59957 Y13.72324 ( rapid move to begin. )
F300.00000
G01 Z-0.05000
G04 P0 ( dwell for no time -- G64 should not smooth over this point )
F600.00000
X21.59957 Y13.72324
X21.62248 Y13.52608
X21.68116 Y13.34729
X21.78047 Y13.17531
X21.90595 Y13.03512
X22.07402 Y12.91097
X22.25545 Y12.83020
X22.43940 Y12.79055
X22.63782 Y12.78836
X22.84260 Y12.83020
X23.01468 Y12.90622
X23.19207 Y13.03512
X23.31755 Y13.17531
X23.41686 Y13.34729
X23.47988 Y13.54653
X23.49845 Y13.74414
X23.47554 Y13.94129
X23.41686 Y14.12006
X23.31758 Y14.29204
X23.19207 Y14.43225
X23.02403 Y14.55638
X22.84260 Y14.63718
X22.64829 Y14.67848
X22.46017 Y14.67904
X22.25545 Y14.63718
X22.08334 Y14.56116
X21.90595 Y14.43225
X21.78044 Y14.29207
X21.68116 Y14.12008
X21.61976 Y13.93118
X21.59957 Y13.72324
G04 P0 ( dwell for no time -- G64 should not smooth over this point )
G00 Z5.00000 ( retract )

G00 X25.36880 Y8.73371 ( rapid move to begin. )
F300.00000
G01 Z-0.05000
G04 P0 ( dwell for no time -- G64 should not smooth over this point )
F600.00000
X25.36880 Y8.73371
X25.46108 Y8.68913
X25.61254 Y8.64852
X25.81064 Y8.63813
X25.96550 Y8.66264
X26.13207 Y8.72421
X26.29844 Y8.83224
X26.42250 Y8.95934
X26.51739 Y9.10945
X26.57360 Y9.25583
X26.60464 Y9.45174
X26.59534 Y9.61872
X26.55260 Y9.78042
X26.46873 Y9.94869
X26.35694 Y10.08682
X26.13820 Y10.28453
X25.97414 Y10.37224
X25.81419 Y10.41877
X25.65801 Y10.43368
X24.91938 Y10.44150
X24.73266 Y10.40348
X24.55928 Y10.32449
X24.42227 Y10.22428
X24.30165 Y10.09035
X24.21155 Y9.93429
X24.15585 Y9.76289
X24.13703 Y9.58367
X24.15423 Y9.41481
X24.20780 Y9.24285
X24.30167 Y9.07702
X24.41486 Y8.95050
X24.55923 Y8.84288
X24.72288 Y8.76764
X24.91938 Y8.72589
X25.36880 Y8.73371
G04 P0 ( dwell for no time -- G64 should not smooth over this point )
G00 Z5.00000 ( retract )

G00 X26.09778 Y5.11208 ( rapid move to begin. )
F300.00000
G01 Z-0.05000
G04 P0 ( dwell for no time -- G64 should not smooth over this point )
F600.00000
X26.09778 Y5.11208
X26.09778 Y6.54144
X26.17434 Y6.75228
X26.19725 Y6.94944
X26.17868 Y7.14705
X26.11567 Y7.34626
X26.01638 Y7.51824
X25.89088 Y7.65845
X25.72283 Y7.78258
X25.54140 Y7.86338
X25.34709 Y7.90468
X25.15897 Y7.90524
X24.95425 Y7.86338
X24.78214 Y7.78736
X24.62027 Y7.67242
X24.47925 Y7.51827
X24.37996 Y7.34629
X24.31856 Y7.15739
X24.29784 Y6.95988
X24.31694 Y6.77273
X24.39781 Y6.54149
X24.39781 Y5.54121
X24.31735 Y5.54324
X24.10063 Y5.50824
X23.88600 Y5.42574
X23.69317 Y5.30039
X23.52451 Y5.12925
X23.40122 Y4.93524
X23.32639 Y4.74002
X23.28839 Y4.51335
X23.30163 Y4.26306
X23.36335 Y4.04159
X23.46972 Y3.83789
X23.64165 Y3.63509
X23.80947 Y3.49999
X24.00035 Y3.40022
X24.18786 Y3.34337
X24.41181 Y3.31990
X25.24780 Y3.31990
X25.48663 Y3.34662
X25.69524 Y3.41498
X25.89441 Y3.52999
X26.07185 Y3.69196
X26.20045 Y3.86984
X26.29669 Y4.09008
X26.34180 Y4.30489
X26.34015 Y4.54520
X26.29024 Y4.76956
X26.20045 Y4.96986
X26.09778 Y5.11208
G04 P0 ( dwell for no time -- G64 should not smooth over this point )
G00 Z5.00000 ( retract )

G00 X28.63778 Y4.83834 ( rapid move to begin. )
F300.00000
G01 Z-0.05000
G04 P0 ( dwell for no time -- G64 should not smooth over this point )
F600.00000
X28.63778 Y4.83834
X28.63778 Y6.26811
X28.68343 Y6.32208
X28.79648 Y6.52223
X28.86108 Y6.72106
X28.88726 Y6.94944
X28.88780 Y7.32170
X28.86542 Y7.54004
X28.79648 Y7.75932
X28.67774 Y7.96823
X28.53126 Y8.13173
X28.32849 Y8.27905
X28.12775 Y8.36785
X27.90281 Y8.41565
X27.68328 Y8.41621
X27.44792 Y8.36785
X27.22902 Y8.26859
X27.04439 Y8.13173
X26.90451 Y7.97638
X26.78292 Y7.76909
X26.71023 Y7.54004
X26.68780 Y7.32170
X26.68780 Y6.95990
X26.71023 Y6.74151
X26.78292 Y6.51245
X26.93781 Y6.26821
X26.93781 Y4.83832
X26.85856 Y4.61739
X26.83784 Y4.41988
X26.86128 Y4.21228
X26.91996 Y4.03349
X27.01927 Y3.86151
X27.14475 Y3.72132
X27.31282 Y3.59717
X27.49425 Y3.51640
X27.69897 Y3.47456
X27.88709 Y3.47510
X28.08140 Y3.51640
X28.25348 Y3.59242
X28.41536 Y3.70735
X28.55635 Y3.86151
X28.65567 Y4.03349
X28.71434 Y4.21228
X28.73725 Y4.40944
X28.71868 Y4.60705
X28.63778 Y4.83834
G04 P0 ( dwell for no time -- G64 should not smooth over this point )
G00 Z5.00000 ( retract )

G00 X31.17778 Y4.83834 ( rapid move to begin. )
F300.00000
G01 Z-0.05000
G04 P0 ( dwell for no time -- G64 should not smooth over this point )
F600.00000
X31.17778 Y4.83834
X31.17778 Y6.26742
X31.25477 Y6.36404
X31.34756 Y6.53719
X31.41604 Y6.76254
X31.43580 Y6.96788
X31.43580 Y7.71588
X31.40908 Y7.95467
X31.34073 Y8.16325
X31.22574 Y8.36241
X31.06374 Y8.53991
X30.87649 Y8.67323
X30.67575 Y8.76203
X30.45081 Y8.80983
X30.23128 Y8.81039
X29.99592 Y8.76203
X29.77702 Y8.66277
X29.59239 Y8.52591
X29.45251 Y8.37057
X29.33092 Y8.16328
X29.25823 Y7.93422
X29.23580 Y7.71588
X29.23032 Y6.89366
X29.26270 Y6.68713
X29.34268 Y6.47164
X29.47781 Y6.26237
X29.47781 Y4.83832
X29.39856 Y4.61739
X29.37784 Y4.41988
X29.40128 Y4.21228
X29.45996 Y4.03349
X29.55927 Y3.86151
X29.68475 Y3.72132
X29.85282 Y3.59717
X30.03425 Y3.51640
X30.23897 Y3.47456
X30.42709 Y3.47510
X30.62140 Y3.51640
X30.79348 Y3.59242
X30.95536 Y3.70735
X31.09635 Y3.86151
X31.19567 Y4.03349
X31.25434 Y4.21228
X31.27725 Y4.40944
X31.25868 Y4.60705
X31.17778 Y4.83834
G04 P0 ( dwell for no time -- G64 should not smooth over this point )
G00 Z5.00000 ( retract )

G00 X33.71778 Y4.83834 ( rapid move to begin. )
F300.00000
G01 Z-0.05000
G04 P0 ( dwell for no time -- G64 should not smooth over this point )
F600.00000
X33.71778 Y4.83834
X33.71778 Y6.26811
X33.87272 Y6.51245
X33.94542 Y6.74151
X33.96780 Y6.95990
X33.96780 Y7.77389
X33.94430 Y7.99797
X33.87991 Y8.20366
X33.77661 Y8.39287
X33.61362 Y8.58367
X33.43498 Y8.72840
X33.23960 Y8.82855
X33.00793 Y8.89233
X32.77829 Y8.90437
X32.54118 Y8.86515
X32.33646 Y8.78598
X32.15205 Y8.66688
X31.97484 Y8.48967
X31.85147 Y8.29574
X31.77331 Y8.09061
X31.73841 Y7.87389
X31.74827 Y7.64420
X31.76780 Y7.56290
X31.76780 Y6.95990
X31.79023 Y6.74151
X31.86292 Y6.51245
X32.01781 Y6.26821
X32.01781 Y4.83832
X31.93856 Y4.61739
X31.91784 Y4.41988
X31.94128 Y4.21228
X31.99996 Y4.03349
X32.09927 Y3.86151
X32.22475 Y3.72132
X32.39282 Y3.59717
X32.57425 Y3.51640
X32.77897 Y3.47456
X32.96709 Y3.47510
X33.16140 Y3.51640
X33.33348 Y3.59242
X33.49536 Y3.70735
X33.63635 Y3.86151
X33.73567 Y4.03349
X33.79434 Y4.21228
X33.81725 Y4.40944
X33.79868 Y4.60705
X33.71778 Y4.83834
G04 P0 ( dwell for no time -- G64 should not smooth over this point )
G00 Z5.00000 ( retract )

G00 X35.43002 Y3.01188 ( rapid move to begin. )
F300.00000
G01 Z-0.05000
G04 P0 ( dwell for no time -- G64 should not smooth over this point )
F600.00000
X35.43002 Y3.01188
X34.87077 Y3.12310
X34.41542 Y3.42737
X34.25167 Y3.66890
X34.20150 Y3.71635
X34.11961 Y3.75026
X34.02147 Y3.74782
X33.92987 Y3.70042
X33.58139 Y3.35404
X33.11908 Y3.16209
X32.61883 Y3.16158
X32.15619 Y3.35275
X31.75490 Y3.76946
X31.68477 Y3.81523
X31.59787 Y3.83240
X31.51101 Y3.81505
X31.44095 Y3.76915
X31.04139 Y3.35404
X30.57908 Y3.16209
X30.07883 Y3.16158
X29.61619 Y3.35275
X29.21490 Y3.76946
X29.14477 Y3.81523
X29.05787 Y3.83240
X28.97101 Y3.81505
X28.90095 Y3.76915
X28.50139 Y3.35404
X28.03908 Y3.16209
X27.53883 Y3.16158
X27.07619 Y3.35275
X26.72524 Y3.70034
X26.66677 Y3.73705
X26.57993 Y3.75424
X26.49311 Y3.73697
X26.43464 Y3.70019
X26.24066 Y3.42765
X25.78493 Y3.12315
X25.22565 Y3.01188
X24.43403 Y3.01188
X23.87495 Y3.12305
X23.40061 Y3.44259
X23.08913 Y3.90875
X22.98225 Y4.44586
X23.08908 Y4.98294
X23.39334 Y5.43829
X23.84869 Y5.74256
X23.98897 Y5.78807
X24.06835 Y5.88106
X24.08981 Y5.97684
X24.08981 Y6.42300
X24.07249 Y6.51002
X23.99007 Y6.70859
X23.98953 Y7.20892
X24.18069 Y7.67151
X24.53429 Y8.02571
X24.62977 Y8.06747
X24.69263 Y8.11474
X24.74239 Y8.20503
X24.74991 Y8.29277
X24.73302 Y8.35936
X24.68577 Y8.42845
X24.61206 Y8.47763
X24.33718 Y8.59119
X24.00775 Y8.92002
X23.82923 Y9.34999
X23.82875 Y9.81524
X23.95634 Y10.12398
X23.97061 Y10.24531
X23.92278 Y10.35199
X23.87262 Y10.39944
X23.79083 Y10.43333
X12.65379 Y10.43330
X12.56408 Y10.39357
X12.49758 Y10.31483
X12.39692 Y9.85962
X12.07980 Y9.38499
X11.34955 Y8.65474
X10.87513 Y8.33777
X10.33802 Y8.23089
X9.80097 Y8.33772
X9.34537 Y8.64214
X9.07920 Y9.02258
X8.98756 Y9.06996
X8.88951 Y9.07234
X8.79980 Y9.03259
X8.73330 Y8.95385
X8.63272 Y8.49901
X8.32830 Y8.04344
X7.87295 Y7.73917
X7.33582 Y7.63229
X6.79876 Y7.73912
X6.32437 Y8.05609
X5.85830 Y8.52215
X5.54134 Y8.99655
X5.43001 Y9.55609
X5.54128 Y10.17153
X5.84555 Y10.62690
X6.30090 Y10.93117
X6.83803 Y11.03805
X7.37509 Y10.93122
X7.83074 Y10.62675
X8.03663 Y10.32629
X8.31578 Y10.04714
X8.57973 Y9.65995
X8.64875 Y9.61291
X8.70549 Y9.59657
X8.82693 Y9.61092
X8.90056 Y9.66015
X8.94969 Y9.73353
X9.04113 Y10.17130
X9.35827 Y10.64592
X10.08852 Y11.37617
X10.56292 Y11.69317
X11.00508 Y11.78113
X11.08666 Y11.81486
X11.42039 Y12.14244
X11.76517 Y12.37282
X12.17168 Y12.45369
X21.54626 Y12.45804
X21.62807 Y12.49194
X21.69071 Y12.55461
X21.72459 Y12.63647
X21.72540 Y12.72024
X21.67476 Y12.82618
X21.48319 Y13.02011
X21.29127 Y13.48239
X21.29073 Y13.98270
X21.48189 Y14.44531
X21.83546 Y14.79951
X22.29777 Y14.99143
X22.79802 Y14.99194
X23.26065 Y14.80078
X23.61491 Y14.44716
X23.80681 Y13.98501
X23.80731 Y13.48465
X23.61615 Y13.02202
X23.43548 Y12.84104
X23.37584 Y12.73434
X23.37353 Y12.63627
X23.40744 Y12.55445
X23.47010 Y12.49189
X23.55182 Y12.45804
X26.67523 Y12.44610
X39.70723 Y12.45044
X39.78907 Y12.48435
X39.85171 Y12.54701
X39.88559 Y12.62888
X39.88315 Y12.72700
X39.82331 Y12.83373
X39.64419 Y13.01252
X39.45227 Y13.47480
X39.45173 Y13.97513
X39.64289 Y14.43771
X39.99646 Y14.79189
X40.45877 Y14.98384
X40.95902 Y14.98435
X41.42165 Y14.79318
X41.77591 Y14.43957
X41.96781 Y13.97741
X41.96831 Y13.47706
X41.77715 Y13.01442
X41.59648 Y12.83345
X41.54170 Y12.74104
X41.53016 Y12.67295
X41.54568 Y12.59070
X41.62709 Y12.48712
X41.75711 Y12.44610
X44.83821 Y12.43810
X49.14150 Y12.43810
X49.23729 Y12.45956
X49.44559 Y12.59522
X49.85212 Y12.67609
X57.65223 Y12.68044
X57.73404 Y12.71435
X57.79386 Y12.77300
X57.81944 Y12.82087
X57.83488 Y12.90322
X57.81756 Y12.99011
X57.61967 Y13.46680
X57.61913 Y13.96713
X57.81029 Y14.42971
X58.16386 Y14.78389
X58.62617 Y14.97584
X59.12642 Y14.97634
X59.58906 Y14.78518
X59.94326 Y14.43162
X60.13518 Y13.96934
X60.13571 Y13.46885
X59.92289 Y12.92768
X59.94199 Y12.80718
X60.02141 Y12.71427
X60.14742 Y12.67609
X62.70495 Y12.67609
X63.11140 Y12.59527
X63.45600 Y12.36502
X64.80891 Y11.01712
X64.93896 Y10.97610
X65.54116 Y10.97610
X66.10070 Y10.86482
X66.57555 Y10.54737
X66.89252 Y10.07298
X66.99940 Y9.53587
X66.89257 Y8.99878
X66.58833 Y8.54344
X66.13293 Y8.23917
X65.59514 Y8.13214
X65.43393 Y8.16008
X64.93896 Y8.16008
X64.80888 Y8.11898
X60.40793 Y3.72300
X60.06327 Y3.49272
X59.65703 Y3.41188
X37.29388 Y3.41188
X37.17620 Y3.37863
X36.79294 Y3.12315
X36.23365 Y3.01188
X35.43002 Y3.01188
G04 P0 ( dwell for no time -- G64 should not smooth over this point )
G00 Z5.00000 ( retract )

G00 X36.60368 Y8.04103 ( rapid move to begin. )
F300.00000
G01 Z-0.05000
G04 P0 ( dwell for no time -- G64 should not smooth over this point )
F600.00000
X36.60368 Y8.04103
X36.66581 Y7.89109
X36.66581 Y7.46376
X36.53820 Y7.50293
X36.35778 Y7.51989
X36.35588 Y7.82939
X36.34094 Y7.86544
X36.29606 Y7.90227
X35.76180 Y7.90989
X35.76180 Y8.19208
X35.78760 Y8.21789
X36.33889 Y8.21789
X36.48897 Y8.15573
X36.60368 Y8.04103
G04 P0 ( dwell for no time -- G64 should not smooth over this point )
G00 Z5.00000 ( retract )

G00 X39.76057 Y13.71562 ( rapid move to begin. )
F300.00000
G01 Z-0.05000
G04 P0 ( dwell for no time -- G64 should not smooth over this point )
F600.00000
X39.76057 Y13.71562
X39.78348 Y13.51846
X39.84216 Y13.33967
X39.94147 Y13.16769
X40.06695 Y13.02750
X40.23502 Y12.90335
X40.41645 Y12.82258
X40.60040 Y12.78293
X40.79882 Y12.78074
X41.00360 Y12.82258
X41.17568 Y12.89860
X41.35307 Y13.02750
X41.47855 Y13.16769
X41.57786 Y13.33967
X41.64088 Y13.53891
X41.65945 Y13.73652
X41.63654 Y13.93367
X41.57786 Y14.11244
X41.47858 Y14.28442
X41.35307 Y14.42463
X41.18503 Y14.54876
X41.00360 Y14.62956
X40.80929 Y14.67086
X40.62117 Y14.67142
X40.41645 Y14.62956
X40.24434 Y14.55354
X40.06695 Y14.42463
X39.94144 Y14.28445
X39.84216 Y14.11246
X39.78076 Y13.92356
X39.76057 Y13.71562
G04 P0 ( dwell for no time -- G64 should not smooth over this point )
G00 Z5.00000 ( retract )

G00 X44.50806 Y10.73810 ( rapid move to begin. )
F300.00000
G01 Z-0.05000
G04 P0 ( dwell for no time -- G64 should not smooth over this point )
F600.00000
X44.50806 Y10.73810
X45.56549 Y9.68067
X45.56605 Y9.46109
X45.61385 Y9.23615
X45.71309 Y9.01730
X45.84997 Y8.83264
X46.01347 Y8.68616
X46.21263 Y8.57118
X46.42121 Y8.50282
X46.64956 Y8.47664
X47.73762 Y8.47610
X47.95601 Y8.49848
X48.18507 Y8.57118
X48.38423 Y8.68619
X48.56170 Y8.84816
X48.69502 Y9.03541
X48.78382 Y9.23615
X48.82997 Y9.45075
X48.83216 Y9.68062
X50.11963 Y10.96810
X62.43744 Y10.96810
X63.73289 Y9.67272
X63.73289 Y9.46350
X59.38931 Y5.11990
X37.10015 Y5.11990
X36.89362 Y5.31548
X36.70325 Y5.42478
X36.49464 Y5.49313
X36.25580 Y5.51990
X35.40780 Y5.51990
X35.17912 Y5.49584
X34.95108 Y5.42003
X34.76124 Y5.30979
X34.59777 Y5.16331
X34.45520 Y4.96989
X34.35896 Y4.74967
X34.31329 Y4.52442
X34.31329 Y4.31535
X34.36165 Y4.07995
X34.46089 Y3.86110
X34.58377 Y3.69196
X34.75311 Y3.53657
X34.95108 Y3.41973
X35.16901 Y3.34662
X35.40780 Y3.31990
X36.25580 Y3.31990
X36.49464 Y3.34662
X36.70325 Y3.41498
X36.89362 Y3.52427
X37.10015 Y3.71990
X59.67920 Y3.71990
X59.80607 Y3.73187
X59.95596 Y3.77736
X60.07600 Y3.84370
X60.17420 Y3.92491
X64.72730 Y8.47806
X65.35188 Y8.46810
X65.43415 Y8.44832
X65.65343 Y8.43737
X65.87032 Y8.47118
X66.08569 Y8.55152
X66.27962 Y8.67488
X66.45683 Y8.85210
X66.57594 Y9.03650
X66.65511 Y9.24123
X66.69432 Y9.47831
X66.68010 Y9.71821
X66.61851 Y9.93965
X66.52361 Y10.12593
X66.37362 Y10.31367
X66.18264 Y10.47684
X65.99346 Y10.58016
X65.76852 Y10.64839
X65.56359 Y10.66810
X64.72735 Y10.65809
X63.21511 Y12.16964
X63.10790 Y12.25514
X62.98608 Y12.31808
X62.85425 Y12.35608
X62.72738 Y12.36809
X49.82964 Y12.36809
X49.68356 Y12.35224
X49.55293 Y12.31059
X49.43289 Y12.24424
X49.30175 Y12.13010
X12.13939 Y12.14521
X12.02235 Y12.13368
X11.89057 Y12.09568
X11.75245 Y12.02184
X11.65425 Y11.94064
X11.20211 Y11.48847
X10.93835 Y11.48402
X10.70584 Y11.42342
X10.50998 Y11.32423
X10.33000 Y11.18128
X9.56023 Y10.41227
X9.42164 Y10.24204
X9.30785 Y10.01870
X9.25047 Y9.79614
X9.23952 Y9.57689
X9.27552 Y9.34974
X9.35367 Y9.14463
X9.48316 Y8.94222
X9.64580 Y8.77958
X9.82959 Y8.65959
X10.04336 Y8.57519
X10.28047 Y8.53597
X10.49969 Y8.54692
X10.73223 Y8.60752
X10.94559 Y8.71809
X11.11582 Y8.85667
X11.88483 Y9.62644
X12.02778 Y9.80643
X12.12697 Y10.00226
X12.18758 Y10.23480
X12.19202 Y10.49850
X12.43919 Y10.74569
X26.34706 Y10.74569
X27.65140 Y9.44135
X27.71630 Y9.22375
X27.80167 Y9.07702
X27.91485 Y8.95050
X28.05922 Y8.84288
X28.23265 Y8.76389
X28.39859 Y8.72807
X28.57863 Y8.72589
X28.77515 Y8.76764
X28.93875 Y8.84288
X29.07578 Y8.94308
X29.19636 Y9.07702
X29.28172 Y9.22375
X29.34657 Y9.44128
X30.64339 Y10.73810
X44.50806 Y10.73810
G04 P0 ( dwell for no time -- G64 should not smooth over this point )
G00 Z5.00000 ( retract )

G00 X43.11134 Y8.71829 ( rapid move to begin. )
F300.00000
G01 Z-0.05000
G04 P0 ( dwell for no time -- G64 should not smooth over this point )
F600.00000
X43.11134 Y8.71829
X43.36442 Y8.48916
X43.52165 Y8.40661
X43.70285 Y8.35634
X43.89074 Y8.34814
X44.04560 Y8.37267
X44.21212 Y8.43427
X44.36226 Y8.52916
X44.50252 Y8.66942
X44.59742 Y8.81956
X44.65901 Y8.98608
X44.68355 Y9.14095
X44.67644 Y9.31842
X44.63257 Y9.49053
X44.55391 Y9.64974
X44.43686 Y9.79688
X44.05668 Y10.17709
X43.91949 Y10.28786
X43.77169 Y10.36467
X43.61177 Y10.41118
X43.23963 Y10.43391
X43.05960 Y10.43170
X42.89366 Y10.39589
X42.72028 Y10.31689
X42.58327 Y10.21669
X42.46265 Y10.08275
X42.37255 Y9.92670
X42.31685 Y9.75530
X42.29856 Y9.56564
X42.31957 Y9.38677
X42.36880 Y9.23526
X42.45696 Y9.07821
X42.59138 Y8.92891
X42.73834 Y8.82485
X42.89366 Y8.75629
X43.11134 Y8.71829
G04 P0 ( dwell for no time -- G64 should not smooth over this point )
G00 Z5.00000 ( retract )

G00 X46.12297 Y8.27930 ( rapid move to begin. )
F300.00000
G01 Z-0.05000
G04 P0 ( dwell for no time -- G64 should not smooth over this point )
F600.00000
X46.12297 Y8.27930
X45.66760 Y8.58357
X45.33397 Y9.07760
X45.25375 Y9.13414
X45.16686 Y9.15139
X45.06267 Y9.12490
X44.97545 Y9.04636
X44.94420 Y8.96869
X44.90161 Y8.75446
X44.65154 Y8.38019
X44.27728 Y8.13013
X43.83585 Y8.04227
X43.39417 Y8.13013
X43.00397 Y8.38670
X42.49818 Y8.58360
X42.16875 Y8.91242
X41.99023 Y9.34237
X41.98975 Y9.80765
X42.11734 Y10.11638
X42.13451 Y10.20323
X42.11721 Y10.29002
X42.06801 Y10.36363
X41.99440 Y10.41280
X41.90751 Y10.43010
X30.86496 Y10.43010
X30.77809 Y10.41280
X30.70435 Y10.36345
X29.75612 Y9.41176
X29.71561 Y9.33366
X29.70603 Y9.28042
X29.72282 Y9.18375
X29.76867 Y9.11367
X29.88830 Y9.04798
X29.97685 Y9.04801
X30.33582 Y9.11943
X30.87288 Y9.01260
X31.32823 Y8.70834
X31.42968 Y8.58769
X31.54608 Y8.54994
X31.64263 Y8.56673
X31.70113 Y8.60351
X31.84286 Y8.79797
X32.29871 Y9.10257
X32.83582 Y9.20945
X33.37290 Y9.10262
X33.84730 Y8.78563
X34.18326 Y8.28383
X34.27486 Y8.21006
X34.39086 Y8.19325
X34.47488 Y8.21789
X35.02804 Y8.21789
X35.05380 Y8.19213
X35.05380 Y7.90989
X34.53831 Y7.90796
X34.48712 Y7.88057
X34.45974 Y7.82939
X34.45781 Y6.10992
X34.48712 Y6.03920
X34.55781 Y6.00992
X35.16782 Y6.00992
X35.23404 Y5.95807
X35.38179 Y5.88129
X35.54171 Y5.83478
X35.68801 Y5.82038
X36.38224 Y5.82046
X36.53820 Y5.83684
X36.65461 Y5.87235
X36.72654 Y5.75922
X37.17625 Y5.46107
X37.29388 Y5.42790
X59.18713 Y5.42980
X59.25454 Y5.44515
X59.32817 Y5.49437
X61.63579 Y7.80196
X61.68501 Y7.87560
X61.70226 Y7.96244
X61.68679 Y8.04473
X61.66121 Y8.09256
X61.60142 Y8.15121
X61.51956 Y8.18510
X61.43099 Y8.18510
X61.30526 Y8.16008
X60.70770 Y8.16008
X60.54656 Y8.13214
X60.00877 Y8.23912
X59.55339 Y8.54339
X59.24913 Y8.99873
X59.14224 Y9.53587
X59.24908 Y10.07292
X59.40546 Y10.30696
X59.44323 Y10.42329
X59.42644 Y10.51991
X59.37725 Y10.59357
X59.30361 Y10.64277
X59.21667 Y10.66007
X50.30180 Y10.65654
X50.24988 Y10.64082
X50.18062 Y10.59350
X49.16149 Y9.57044
X49.12233 Y9.48108
X49.03442 Y9.03899
X48.73015 Y8.58362
X48.27478 Y8.27935
X47.71547 Y8.16808
X46.68222 Y8.16808
X46.12297 Y8.27930
G04 P0 ( dwell for no time -- G64 should not smooth over this point )
G00 Z5.00000 ( retract )

G00 X47.83780 Y10.66612 ( rapid move to begin. )
F300.00000
G01 Z-0.05000
G04 P0 ( dwell for no time -- G64 should not smooth over this point )
F600.00000
X47.83780 Y10.66612
X46.66000 Y10.67610
X46.55995 Y10.66609
X46.49594 Y10.73010
X47.90175 Y10.73010
X47.83780 Y10.66612
G04 P0 ( dwell for no time -- G64 should not smooth over this point )
G00 Z5.00000 ( retract )

G00 X48.16058 Y14.91561 ( rapid move to begin. )
F300.00000
G01 Z-0.05000
G04 P0 ( dwell for no time -- G64 should not smooth over this point )
F600.00000
X48.16058 Y14.91561
X48.18349 Y14.71846
X48.24216 Y14.53967
X48.34148 Y14.36768
X48.46695 Y14.22750
X48.63503 Y14.10335
X48.81646 Y14.02257
X49.00041 Y13.98292
X49.19883 Y13.98074
X49.40360 Y14.02257
X49.57569 Y14.09860
X49.75308 Y14.22750
X49.87856 Y14.36768
X49.97787 Y14.53967
X50.04089 Y14.73890
X50.05946 Y14.93652
X50.03655 Y15.13367
X49.97787 Y15.31244
X49.87858 Y15.48442
X49.75308 Y15.62463
X49.58504 Y15.74876
X49.40360 Y15.82956
X49.20929 Y15.87086
X49.02118 Y15.87141
X48.81646 Y15.82956
X48.64435 Y15.75353
X48.46695 Y15.62463
X48.34145 Y15.48445
X48.24216 Y15.31246
X48.18077 Y15.12356
X48.16058 Y14.91561
G04 P0 ( dwell for no time -- G64 should not smooth over this point )
G00 Z5.00000 ( retract )

G00 X50.17587 Y15.63961 ( rapid move to begin. )
F300.00000
G01 Z-0.05000
G04 P0 ( dwell for no time -- G64 should not smooth over this point )
F600.00000
X50.17587 Y15.63961
X50.36779 Y15.17733
X50.36830 Y14.67701
X50.17716 Y14.21442
X49.82359 Y13.86022
X49.36129 Y13.66829
X48.86101 Y13.66779
X48.39840 Y13.85895
X48.04415 Y14.21257
X47.85225 Y14.67472
X47.85174 Y15.17507
X48.04290 Y15.63771
X48.39652 Y15.99194
X48.85867 Y16.18383
X49.35903 Y16.18434
X49.82166 Y15.99318
X50.17587 Y15.63961
G04 P0 ( dwell for no time -- G64 should not smooth over this point )
G00 Z5.00000 ( retract )

G00 X52.45836 Y17.44842 ( rapid move to begin. )
F300.00000
G01 Z-0.05000
G04 P0 ( dwell for no time -- G64 should not smooth over this point )
F600.00000
X52.45836 Y17.44842
X52.50423 Y17.03296
X52.63075 Y16.64540
X52.83982 Y16.28330
X53.12770 Y15.96600
X53.46715 Y15.72209
X53.83979 Y15.55678
X54.23842 Y15.47149
X54.65640 Y15.46931
X55.07586 Y15.55678
X55.44847 Y15.72209
X55.78792 Y15.96600
X56.06923 Y16.27517
X56.28487 Y16.64540
X56.41139 Y17.03296
X56.45726 Y17.46933
X56.41139 Y17.88480
X56.28487 Y18.27232
X56.07583 Y18.63443
X55.78792 Y18.95175
X55.44847 Y19.19567
X55.07586 Y19.36097
X54.66687 Y19.44791
X54.25920 Y19.44847
X53.83979 Y19.36097
X53.45783 Y19.19092
X53.12770 Y18.95175
X52.84640 Y18.64258
X52.63075 Y18.27235
X52.50423 Y17.88480
X52.45836 Y17.44842
G04 P0 ( dwell for no time -- G64 should not smooth over this point )
G00 Z5.00000 ( retract )

G00 X56.41561 Y16.15323 ( rapid move to begin. )
F300.00000
G01 Z-0.05000
G04 P0 ( dwell for no time -- G64 should not smooth over this point )
F600.00000
X56.41561 Y16.15323
X55.76694 Y15.50339
X54.91886 Y15.15127
X54.00088 Y15.15038
X53.15219 Y15.50108
X52.50235 Y16.14975
X52.15023 Y16.99785
X52.14937 Y17.91581
X52.50004 Y18.76450
X53.14871 Y19.41433
X53.99679 Y19.76645
X54.91477 Y19.76732
X55.76346 Y19.41665
X56.41329 Y18.76798
X56.76541 Y17.91990
X56.76630 Y17.00192
X56.41561 Y16.15323
G04 P0 ( dwell for no time -- G64 should not smooth over this point )
G00 Z5.00000 ( retract )

G00 X57.92797 Y13.70761 ( rapid move to begin. )
F300.00000
G01 Z-0.05000
G04 P0 ( dwell for no time -- G64 should not smooth over this point )
F600.00000
X57.92797 Y13.70761
X57.95088 Y13.51046
X58.00956 Y13.33167
X58.10887 Y13.15969
X58.23435 Y13.01950
X58.40242 Y12.89535
X58.58385 Y12.81458
X58.76780 Y12.77493
X58.96622 Y12.77274
X59.17100 Y12.81458
X59.34308 Y12.89060
X59.52048 Y13.01950
X59.64595 Y13.15969
X59.74527 Y13.33167
X59.80828 Y13.53091
X59.82685 Y13.72852
X59.80394 Y13.92567
X59.74527 Y14.10444
X59.64598 Y14.27642
X59.52048 Y14.41663
X59.35243 Y14.54076
X59.17100 Y14.62156
X58.97669 Y14.66286
X58.78857 Y14.66342
X58.58385 Y14.62156
X58.41174 Y14.54553
X58.23435 Y14.41663
X58.10885 Y14.27645
X58.00956 Y14.10446
X57.94816 Y13.91556
X57.92797 Y13.70761
G04 P0 ( dwell for no time -- G64 should not smooth over this point )
G00 Z5.00000 ( retract )

G00 X60.78971 Y8.46810 ( rapid move to begin. )
F300.00000
G01 Z-0.05000
G04 P0 ( dwell for no time -- G64 should not smooth over this point )
F600.00000
X60.78971 Y8.46810
X61.33787 Y8.46864
X61.56624 Y8.49482
X61.76507 Y8.55942
X61.97401 Y8.67819
X62.13749 Y8.82464
X62.28481 Y9.02741
X62.37361 Y9.22815
X62.42141 Y9.45309
X62.42194 Y9.67262
X62.37361 Y9.90798
X62.28481 Y10.10874
X62.15148 Y10.29599
X61.97401 Y10.45796
X61.77485 Y10.57297
X61.56624 Y10.64133
X61.32741 Y10.66810
X60.57800 Y10.66810
X60.35393 Y10.64455
X60.14819 Y10.58014
X59.95903 Y10.47684
X59.80750 Y10.35248
X59.62944 Y10.14344
X59.52314 Y9.93963
X59.45827 Y9.69754
X59.44842 Y9.46787
X59.48332 Y9.25113
X59.56147 Y9.04603
X59.69096 Y8.84362
X59.86205 Y8.67483
X60.05598 Y8.55152
X60.25116 Y8.47659
X60.48827 Y8.43737
X60.70749 Y8.44832
X60.78971 Y8.46810
G04 P0 ( dwell for no time -- G64 should not smooth over this point )
G00 Z5.00000 ( retract )

G00 X66.56578 Y13.85095 ( rapid move to begin. )
F300.00000
G01 Z-0.05000
G04 P0 ( dwell for no time -- G64 should not smooth over this point )
F600.00000
X66.56578 Y13.85095
X66.21155 Y14.20457
X66.01965 Y14.66672
X66.01914 Y15.16707
X66.21030 Y15.62971
X66.56392 Y15.98394
X67.02607 Y16.17583
X67.52643 Y16.17634
X67.98906 Y15.98518
X68.20270 Y15.77258
X68.31172 Y15.71714
X68.40024 Y15.71721
X68.48200 Y15.75112
X68.55383 Y15.83103
X68.58279 Y15.93984
X68.58279 Y76.69644
X68.56554 Y76.78331
X68.50903 Y76.86355
X68.41878 Y76.91338
X68.33090 Y76.92095
X68.26432 Y76.90408
X68.21030 Y76.86924
X67.99097 Y76.65222
X67.52869 Y76.46030
X67.02841 Y76.45979
X66.56578 Y76.65095
X66.21155 Y77.00457
X66.01965 Y77.46669
X66.01914 Y77.96707
X66.21030 Y78.42971
X66.56392 Y78.78394
X67.02607 Y78.97584
X67.52643 Y78.97634
X67.98906 Y78.78518
X68.19544 Y78.57916
X68.28787 Y78.52438
X68.35597 Y78.51284
X68.44278 Y78.53014
X68.51637 Y78.57937
X68.56554 Y78.65298
X68.58279 Y78.73984
X68.58279 Y84.48189
X68.56732 Y84.56414
X68.52292 Y84.63511
X68.44271 Y84.69157
X68.35579 Y84.70889
X28.50995 Y84.70889
X28.38538 Y84.67118
X28.26062 Y84.70889
X10.76736 Y84.70889
X10.64968 Y84.67565
X10.57864 Y84.60795
X10.54331 Y84.51644
X10.55197 Y84.41377
X10.58148 Y84.35172
X10.64094 Y84.29335
X10.88354 Y84.18063
X10.64138 Y83.93839
X10.41763 Y83.99231
X10.23759 Y83.99010
X10.03467 Y83.93841
X9.79246 Y84.18060
X10.09479 Y84.30267
X10.14376 Y84.35258
X10.17711 Y84.42566
X10.17414 Y84.54499
X10.14542 Y84.60872
X10.05459 Y84.68662
X9.95723 Y84.70889
X2.33580 Y84.70889
X2.24894 Y84.69160
X2.17533 Y84.64237
X2.12808 Y84.57321
X2.11129 Y84.50666
X2.10883 Y2.33588
X2.12435 Y2.25353
X2.16872 Y2.18262
X2.24899 Y2.12613
X2.33580 Y2.10888
X68.37527 Y2.11079
X68.45157 Y2.13034
X68.51970 Y2.17888
X68.56554 Y2.24899
X68.58279 Y2.33588
X68.57845 Y13.94068
X68.54454 Y14.02252
X68.48190 Y14.08519
X68.40001 Y14.11907
X68.30189 Y14.11663
X68.19516 Y14.05679
X67.99092 Y13.85219
X67.52877 Y13.66029
X67.02841 Y13.65979
X66.56578 Y13.85095
G04 P0 ( dwell for no time -- G64 should not smooth over this point )
G00 Z5.00000 ( retract )

G00 X66.32798 Y14.90761 ( rapid move to begin. )
F300.00000
G01 Z-0.05000
G04 P0 ( dwell for no time -- G64 should not smooth over this point )
F600.00000
X66.32798 Y14.90761
X66.35089 Y14.71046
X66.40957 Y14.53167
X66.50888 Y14.35968
X66.63436 Y14.21950
X66.80243 Y14.09535
X66.98386 Y14.01457
X67.16781 Y13.97492
X67.36623 Y13.97274
X67.57101 Y14.01457
X67.74309 Y14.09060
X67.92048 Y14.21950
X68.04596 Y14.35968
X68.14527 Y14.53167
X68.20829 Y14.73090
X68.22686 Y14.92852
X68.20395 Y15.12567
X68.14527 Y15.30444
X68.04599 Y15.47642
X67.92048 Y15.61663
X67.75244 Y15.74076
X67.57101 Y15.82155
X67.37670 Y15.86285
X67.18858 Y15.86341
X66.98386 Y15.82155
X66.81175 Y15.74553
X66.63436 Y15.61663
X66.50885 Y15.47644
X66.40957 Y15.30446
X66.34817 Y15.11556
X66.32798 Y14.90761
G04 P0 ( dwell for no time -- G64 should not smooth over this point )
G00 Z5.00000 ( retract )

G00 X31.20029 Y13.67589 ( rapid move to begin. )
F300.00000
G01 Z-0.05000
G04 P0 ( dwell for no time -- G64 should not smooth over this point )
F600.00000
X31.20029 Y13.67589
X30.70001 Y13.67538
X30.23740 Y13.86654
X29.88315 Y14.22016
X29.69125 Y14.68231
X29.69074 Y15.18267
X29.88190 Y15.64530
X30.23547 Y15.99951
X30.69775 Y16.19143
X31.19803 Y16.19194
X31.66066 Y16.00078
X32.01487 Y15.64721
X32.20679 Y15.18493
X32.20730 Y14.68460
X32.01616 Y14.22201
X31.66259 Y13.86784
X31.20029 Y13.67589
G04 P0 ( dwell for no time -- G64 should not smooth over this point )
G00 Z5.00000 ( retract )

G00 X29.99958 Y14.92323 ( rapid move to begin. )
F300.00000
G01 Z-0.05000
G04 P0 ( dwell for no time -- G64 should not smooth over this point )
F600.00000
X29.99958 Y14.92323
X30.02249 Y14.72608
X30.08116 Y14.54729
X30.18048 Y14.37530
X30.30595 Y14.23512
X30.47403 Y14.11097
X30.65546 Y14.03019
X30.83941 Y13.99054
X31.03783 Y13.98836
X31.24260 Y14.03019
X31.41469 Y14.10622
X31.59208 Y14.23512
X31.71756 Y14.37530
X31.81687 Y14.54729
X31.87989 Y14.74652
X31.89846 Y14.94414
X31.87555 Y15.14129
X31.81687 Y15.32006
X31.71758 Y15.49204
X31.59208 Y15.63225
X31.42404 Y15.75638
X31.24260 Y15.83718
X31.04829 Y15.87848
X30.86018 Y15.87903
X30.65546 Y15.83718
X30.48335 Y15.76115
X30.30595 Y15.63225
X30.18045 Y15.49207
X30.08116 Y15.32008
X30.01977 Y15.13118
X29.99958 Y14.92323
G04 P0 ( dwell for no time -- G64 should not smooth over this point )
G00 Z5.00000 ( retract )

G00 X19.33161 Y71.69421 ( rapid move to begin. )
F300.00000
G01 Z-0.05000
G04 P0 ( dwell for no time -- G64 should not smooth over this point )
F600.00000
X19.33161 Y71.69421
X18.68294 Y71.04441
X17.83486 Y70.69229
X16.91688 Y70.69140
X16.06819 Y71.04207
X15.41835 Y71.69076
X15.06623 Y72.53881
X15.06537 Y73.45682
X15.41604 Y74.30551
X16.06471 Y74.95532
X16.91279 Y75.30744
X17.83077 Y75.30833
X18.67946 Y74.95766
X19.32929 Y74.30897
X19.68141 Y73.46091
X19.68230 Y72.54293
X19.33161 Y71.69421
G04 P0 ( dwell for no time -- G64 should not smooth over this point )
G00 Z5.00000 ( retract )

G00 X15.37436 Y72.98944 ( rapid move to begin. )
F300.00000
G01 Z-0.05000
G04 P0 ( dwell for no time -- G64 should not smooth over this point )
F600.00000
X15.37436 Y72.98944
X15.42023 Y72.57397
X15.54675 Y72.18642
X15.75582 Y71.82431
X16.04370 Y71.50702
X16.38315 Y71.26310
X16.75579 Y71.09780
X17.15442 Y71.01250
X17.57240 Y71.01032
X17.99186 Y71.09780
X18.36447 Y71.26310
X18.70392 Y71.50702
X18.98523 Y71.81618
X19.20087 Y72.18642
X19.32739 Y72.57397
X19.37326 Y73.01034
X19.32739 Y73.42581
X19.20087 Y73.81334
X18.99183 Y74.17544
X18.70392 Y74.49276
X18.36447 Y74.73668
X17.99186 Y74.90198
X17.58287 Y74.98892
X17.17520 Y74.98948
X16.75579 Y74.90198
X16.37383 Y74.73193
X16.04370 Y74.49276
X15.76240 Y74.18359
X15.54675 Y73.81336
X15.42023 Y73.42581
X15.37436 Y72.98944
G04 P0 ( dwell for no time -- G64 should not smooth over this point )
G00 Z5.00000 ( retract )

G00 X12.53901 Y76.52618 ( rapid move to begin. )
F300.00000
G01 Z-0.05000
G04 P0 ( dwell for no time -- G64 should not smooth over this point )
F600.00000
X12.53901 Y76.52618
X12.07640 Y76.71734
X11.72215 Y77.07096
X11.53025 Y77.53312
X11.52974 Y78.03347
X11.72090 Y78.49611
X12.07447 Y78.85031
X12.53675 Y79.04223
X13.03703 Y79.04274
X13.49966 Y78.85158
X13.85387 Y78.49801
X14.04579 Y78.03573
X14.04630 Y77.53540
X13.85516 Y77.07282
X13.50159 Y76.71864
X13.03929 Y76.52669
X12.53901 Y76.52618
G04 P0 ( dwell for no time -- G64 should not smooth over this point )
G00 Z5.00000 ( retract )

G00 X11.83858 Y77.77403 ( rapid move to begin. )
F300.00000
G01 Z-0.05000
G04 P0 ( dwell for no time -- G64 should not smooth over this point )
F600.00000
X11.83858 Y77.77403
X11.86149 Y77.57688
X11.92016 Y77.39809
X12.01948 Y77.22611
X12.14495 Y77.08592
X12.31303 Y76.96177
X12.49446 Y76.88100
X12.67841 Y76.84135
X12.87683 Y76.83916
X13.08160 Y76.88100
X13.25369 Y76.95702
X13.43108 Y77.08592
X13.55656 Y77.22611
X13.65587 Y77.39809
X13.71889 Y77.59733
X13.73746 Y77.79494
X13.71455 Y77.99209
X13.65587 Y78.17086
X13.55658 Y78.34284
X13.43108 Y78.48305
X13.26304 Y78.60718
X13.08160 Y78.68798
X12.88729 Y78.72928
X12.69918 Y78.72984
X12.49446 Y78.68798
X12.32235 Y78.61195
X12.14495 Y78.48305
X12.01945 Y78.34287
X11.92016 Y78.17088
X11.85877 Y77.98198
X11.83858 Y77.77403
G04 P0 ( dwell for no time -- G64 should not smooth over this point )
G00 Z5.00000 ( retract )

G00 X10.51199 Y81.95426 ( rapid move to begin. )
F300.00000
G01 Z-0.05000
G04 P0 ( dwell for no time -- G64 should not smooth over this point )
F600.00000
X10.51199 Y81.95426
X10.04130 Y81.97781
X9.79251 Y82.08830
X10.03470 Y82.33057
X10.25837 Y82.27669
X10.42809 Y82.27723
X10.64130 Y82.33057
X10.88313 Y82.08673
X10.51199 Y81.95426
G04 P0 ( dwell for no time -- G64 should not smooth over this point )
G00 Z5.00000 ( retract )

G00 X9.53449 Y82.83156 ( rapid move to begin. )
F300.00000
G01 Z-0.05000
G04 P0 ( dwell for no time -- G64 should not smooth over this point )
F600.00000
X9.53449 Y82.83156
X9.29027 Y82.58937
X9.15784 Y82.96049
X9.18138 Y83.43120
X9.29187 Y83.68002
X9.53449 Y83.43745
X9.49485 Y83.31370
X9.47602 Y83.13448
X9.49322 Y82.96562
X9.53449 Y82.83156
G04 P0 ( dwell for no time -- G64 should not smooth over this point )
G00 Z5.00000 ( retract )

G00 X11.51821 Y83.30839 ( rapid move to begin. )
F300.00000
G01 Z-0.05000
G04 P0 ( dwell for no time -- G64 should not smooth over this point )
F600.00000
X11.51821 Y83.30839
X11.49466 Y82.83773
X11.38417 Y82.58891
X11.14153 Y82.83153
X11.18280 Y82.96562
X11.19946 Y83.12404
X11.18280 Y83.30336
X11.14155 Y83.43735
X11.38575 Y83.67958
X11.51821 Y83.30839
G04 P0 ( dwell for no time -- G64 should not smooth over this point )
G00 Z5.00000 ( retract )

G00 X3.43857 Y78.97403 ( rapid move to begin. )
F300.00000
G01 Z-0.05000
G04 P0 ( dwell for no time -- G64 should not smooth over this point )
F600.00000
X3.43857 Y78.97403
X3.46148 Y78.77688
X3.52016 Y78.59809
X3.61947 Y78.42610
X3.74495 Y78.28592
X3.91302 Y78.16177
X4.09445 Y78.08099
X4.27840 Y78.04134
X4.47682 Y78.03916
X4.68160 Y78.08099
X4.85368 Y78.15702
X5.03107 Y78.28592
X5.15655 Y78.42610
X5.25586 Y78.59809
X5.31888 Y78.79732
X5.33745 Y78.99494
X5.31454 Y79.19209
X5.25586 Y79.37086
X5.15658 Y79.54284
X5.03107 Y79.68305
X4.86303 Y79.80718
X4.68160 Y79.88797
X4.48729 Y79.92927
X4.29917 Y79.92983
X4.09445 Y79.88797
X3.92234 Y79.81195
X3.74495 Y79.68305
X3.61944 Y79.54286
X3.52016 Y79.37088
X3.45876 Y79.18198
X3.43857 Y78.97403
G04 P0 ( dwell for no time -- G64 should not smooth over this point )
G00 Z5.00000 ( retract )

G00 X3.12973 Y79.23352 ( rapid move to begin. )
F300.00000
G01 Z-0.05000
G04 P0 ( dwell for no time -- G64 should not smooth over this point )
F600.00000
X3.12973 Y79.23352
X3.32089 Y79.69610
X3.67446 Y80.05031
X4.13677 Y80.24223
X4.63702 Y80.24274
X5.09965 Y80.05158
X5.45391 Y79.69796
X5.64581 Y79.23580
X5.64631 Y78.73545
X5.45515 Y78.27281
X5.10159 Y77.91864
X4.63928 Y77.72669
X4.13903 Y77.72618
X3.67639 Y77.91734
X3.32219 Y78.27091
X3.13027 Y78.73319
X3.12973 Y79.23352
G04 P0 ( dwell for no time -- G64 should not smooth over this point )
G00 Z5.00000 ( retract )

G00 X21.59957 Y78.92323 ( rapid move to begin. )
F300.00000
G01 Z-0.05000
G04 P0 ( dwell for no time -- G64 should not smooth over this point )
F600.00000
X21.59957 Y78.92323
X21.62248 Y78.72608
X21.68116 Y78.54729
X21.78047 Y78.37530
X21.90595 Y78.23512
X22.07402 Y78.11097
X22.25545 Y78.03019
X22.43940 Y77.99054
X22.63782 Y77.98836
X22.84260 Y78.03019
X23.01468 Y78.10622
X23.19207 Y78.23512
X23.31755 Y78.37530
X23.41686 Y78.54729
X23.47988 Y78.74652
X23.49845 Y78.94414
X23.47554 Y79.14129
X23.41686 Y79.32006
X23.31758 Y79.49204
X23.19207 Y79.63225
X23.02403 Y79.75638
X22.84260 Y79.83717
X22.64829 Y79.87847
X22.46017 Y79.87903
X22.25545 Y79.83717
X22.08334 Y79.76115
X21.90595 Y79.63225
X21.78044 Y79.49206
X21.68116 Y79.32008
X21.61976 Y79.13118
X21.59957 Y78.92323
G04 P0 ( dwell for no time -- G64 should not smooth over this point )
G00 Z5.00000 ( retract )

G00 X23.26259 Y77.86784 ( rapid move to begin. )
F300.00000
G01 Z-0.05000
G04 P0 ( dwell for no time -- G64 should not smooth over this point )
F600.00000
X23.26259 Y77.86784
X22.80028 Y77.67589
X22.30000 Y77.67538
X21.83739 Y77.86654
X21.48319 Y78.22011
X21.29127 Y78.68239
X21.29073 Y79.18272
X21.48189 Y79.64530
X21.83546 Y79.99951
X22.29777 Y80.19143
X22.79802 Y80.19194
X23.26065 Y80.00078
X23.61491 Y79.64716
X23.80681 Y79.18500
X23.80731 Y78.68465
X23.61615 Y78.22201
X23.26259 Y77.86784
G04 P0 ( dwell for no time -- G64 should not smooth over this point )
G00 Z5.00000 ( retract )

G00 X29.99958 Y77.72323 ( rapid move to begin. )
F300.00000
G01 Z-0.05000
G04 P0 ( dwell for no time -- G64 should not smooth over this point )
F600.00000
X29.99958 Y77.72323
X30.02249 Y77.52608
X30.08116 Y77.34729
X30.18048 Y77.17531
X30.30595 Y77.03512
X30.47403 Y76.91097
X30.65546 Y76.83020
X30.83941 Y76.79055
X31.03783 Y76.78836
X31.24260 Y76.83020
X31.41469 Y76.90622
X31.59208 Y77.03512
X31.71756 Y77.17531
X31.81687 Y77.34729
X31.87989 Y77.54653
X31.89846 Y77.74414
X31.87555 Y77.94129
X31.81687 Y78.12006
X31.71758 Y78.29204
X31.59208 Y78.43225
X31.42404 Y78.55638
X31.24260 Y78.63718
X31.04829 Y78.67848
X30.86018 Y78.67904
X30.65546 Y78.63718
X30.48335 Y78.56115
X30.30595 Y78.43225
X30.18045 Y78.29207
X30.08116 Y78.12008
X30.01977 Y77.93118
X29.99958 Y77.72323
G04 P0 ( dwell for no time -- G64 should not smooth over this point )
G00 Z5.00000 ( retract )

G00 X31.20029 Y76.47589 ( rapid move to begin. )
F300.00000
G01 Z-0.05000
G04 P0 ( dwell for no time -- G64 should not smooth over this point )
F600.00000
X31.20029 Y76.47589
X30.70001 Y76.47538
X30.23740 Y76.66654
X29.88315 Y77.02016
X29.69125 Y77.48232
X29.69074 Y77.98267
X29.88190 Y78.44531
X30.23547 Y78.79951
X30.69775 Y78.99143
X31.19803 Y78.99194
X31.66066 Y78.80078
X32.01487 Y78.44721
X32.20679 Y77.98493
X32.20730 Y77.48460
X32.01616 Y77.02202
X31.66259 Y76.66784
X31.20029 Y76.47589
G04 P0 ( dwell for no time -- G64 should not smooth over this point )
G00 Z5.00000 ( retract )

G00 X29.04459 Y82.03753 ( rapid move to begin. )
F300.00000
G01 Z-0.05000
G04 P0 ( dwell for no time -- G64 should not smooth over this point )
F600.00000
X29.04459 Y82.03753
X28.67299 Y81.90346
X28.20230 Y81.92701
X27.95351 Y82.03750
X28.19570 Y82.27977
X28.41937 Y82.22589
X28.58909 Y82.22643
X28.80230 Y82.27977
X29.04459 Y82.03753
G04 P0 ( dwell for no time -- G64 should not smooth over this point )
G00 Z5.00000 ( retract )

G00 X29.30255 Y83.38655 ( rapid move to begin. )
F300.00000
G01 Z-0.05000
G04 P0 ( dwell for no time -- G64 should not smooth over this point )
F600.00000
X29.30255 Y83.38655
X29.54675 Y83.62878
X29.67921 Y83.25759
X29.65566 Y82.78693
X29.54517 Y82.53811
X29.30253 Y82.78073
X29.34380 Y82.91482
X29.36046 Y83.07324
X29.34380 Y83.25256
X29.30255 Y83.38655
G04 P0 ( dwell for no time -- G64 should not smooth over this point )
G00 Z5.00000 ( retract )

G00 X28.19567 Y83.88761 ( rapid move to begin. )
F300.00000
G01 Z-0.05000
G04 P0 ( dwell for no time -- G64 should not smooth over this point )
F600.00000
X28.19567 Y83.88761
X27.95402 Y84.13168
X28.38523 Y84.29299
X28.47205 Y84.25916
X28.79537 Y84.24047
X29.04210 Y84.13823
X28.80238 Y83.88759
X28.57863 Y83.94151
X28.39859 Y83.93930
X28.19567 Y83.88761
G04 P0 ( dwell for no time -- G64 should not smooth over this point )
G00 Z5.00000 ( retract )

G00 X27.69549 Y83.38665 ( rapid move to begin. )
F300.00000
G01 Z-0.05000
G04 P0 ( dwell for no time -- G64 should not smooth over this point )
F600.00000
X27.69549 Y83.38665
X27.65585 Y83.26290
X27.63702 Y83.08368
X27.65422 Y82.91482
X27.69549 Y82.78076
X27.45127 Y82.53857
X27.31884 Y82.90969
X27.34238 Y83.38040
X27.44444 Y83.62675
X27.69549 Y83.38665
G04 P0 ( dwell for no time -- G64 should not smooth over this point )
G00 Z5.00000 ( retract )

G00 X39.76057 Y78.91561 ( rapid move to begin. )
F300.00000
G01 Z-0.05000
G04 P0 ( dwell for no time -- G64 should not smooth over this point )
F600.00000
X39.76057 Y78.91561
X39.78348 Y78.71846
X39.84216 Y78.53967
X39.94147 Y78.36768
X40.06695 Y78.22750
X40.23502 Y78.10335
X40.41645 Y78.02257
X40.60040 Y77.98292
X40.79882 Y77.98074
X41.00360 Y78.02257
X41.17568 Y78.09860
X41.35307 Y78.22750
X41.47855 Y78.36768
X41.57786 Y78.53967
X41.64088 Y78.73890
X41.65945 Y78.93652
X41.63654 Y79.13367
X41.57786 Y79.31244
X41.47858 Y79.48442
X41.35307 Y79.62463
X41.18503 Y79.74876
X41.00360 Y79.82955
X40.80929 Y79.87085
X40.62117 Y79.87141
X40.41645 Y79.82955
X40.24434 Y79.75353
X40.06695 Y79.62463
X39.94144 Y79.48444
X39.84216 Y79.31246
X39.78076 Y79.12356
X39.76057 Y78.91561
G04 P0 ( dwell for no time -- G64 should not smooth over this point )
G00 Z5.00000 ( retract )

G00 X39.64419 Y78.21251 ( rapid move to begin. )
F300.00000
G01 Z-0.05000
G04 P0 ( dwell for no time -- G64 should not smooth over this point )
F600.00000
X39.64419 Y78.21251
X39.45227 Y78.67479
X39.45173 Y79.17512
X39.64289 Y79.63771
X39.99646 Y79.99189
X40.45877 Y80.18383
X40.95902 Y80.18434
X41.42165 Y79.99318
X41.77591 Y79.63956
X41.96781 Y79.17741
X41.96831 Y78.67705
X41.77715 Y78.21442
X41.42359 Y77.86024
X40.96128 Y77.66829
X40.46103 Y77.66779
X39.99839 Y77.85895
X39.64419 Y78.21251
G04 P0 ( dwell for no time -- G64 should not smooth over this point )
G00 Z5.00000 ( retract )

G00 X45.85649 Y82.77314 ( rapid move to begin. )
F300.00000
G01 Z-0.05000
G04 P0 ( dwell for no time -- G64 should not smooth over this point )
F600.00000
X45.85649 Y82.77314
X45.61230 Y82.53095
X45.47984 Y82.90214
X45.50338 Y83.37280
X45.61387 Y83.62160
X45.85649 Y83.37903
X45.81685 Y83.25528
X45.79802 Y83.07606
X45.81522 Y82.90720
X45.85649 Y82.77314
G04 P0 ( dwell for no time -- G64 should not smooth over this point )
G00 Z5.00000 ( retract )

G00 X47.20559 Y82.02993 ( rapid move to begin. )
F300.00000
G01 Z-0.05000
G04 P0 ( dwell for no time -- G64 should not smooth over this point )
F600.00000
X47.20559 Y82.02993
X46.83394 Y81.89587
X46.36328 Y81.91942
X46.11448 Y82.02991
X46.35667 Y82.27215
X46.58037 Y82.21827
X46.75009 Y82.21881
X46.96335 Y82.27215
X47.20559 Y82.02993
G04 P0 ( dwell for no time -- G64 should not smooth over this point )
G00 Z5.00000 ( retract )

G00 X47.84021 Y83.24997 ( rapid move to begin. )
F300.00000
G01 Z-0.05000
G04 P0 ( dwell for no time -- G64 should not smooth over this point )
F600.00000
X47.84021 Y83.24997
X47.81666 Y82.77931
X47.70617 Y82.53051
X47.46353 Y82.77311
X47.50480 Y82.90720
X47.52146 Y83.06562
X47.50480 Y83.24494
X47.46355 Y83.37893
X47.70775 Y83.62116
X47.84021 Y83.24997
G04 P0 ( dwell for no time -- G64 should not smooth over this point )
G00 Z5.00000 ( retract )

G00 X46.95680 Y84.23272 ( rapid move to begin. )
F300.00000
G01 Z-0.05000
G04 P0 ( dwell for no time -- G64 should not smooth over this point )
F600.00000
X46.95680 Y84.23272
X47.20557 Y84.12221
X46.96338 Y83.87997
X46.73963 Y83.93389
X46.55959 Y83.93168
X46.35667 Y83.87999
X46.11448 Y84.12215
X46.48984 Y84.25761
X46.95680 Y84.23272
G04 P0 ( dwell for no time -- G64 should not smooth over this point )
G00 Z5.00000 ( retract )

G00 X50.17587 Y78.43962 ( rapid move to begin. )
F300.00000
G01 Z-0.05000
G04 P0 ( dwell for no time -- G64 should not smooth over this point )
F600.00000
X50.17587 Y78.43962
X50.36779 Y77.97734
X50.36830 Y77.47701
X50.17716 Y77.01442
X49.82359 Y76.66022
X49.36129 Y76.46830
X48.86101 Y76.46779
X48.39840 Y76.65895
X48.04415 Y77.01257
X47.85225 Y77.47470
X47.85174 Y77.97508
X48.04290 Y78.43771
X48.39652 Y78.79194
X48.85867 Y78.98384
X49.35903 Y78.98434
X49.82166 Y78.79318
X50.17587 Y78.43962
G04 P0 ( dwell for no time -- G64 should not smooth over this point )
G00 Z5.00000 ( retract )

G00 X48.16058 Y77.71561 ( rapid move to begin. )
F300.00000
G01 Z-0.05000
G04 P0 ( dwell for no time -- G64 should not smooth over this point )
F600.00000
X48.16058 Y77.71561
X48.18349 Y77.51846
X48.24216 Y77.33967
X48.34148 Y77.16769
X48.46695 Y77.02750
X48.63503 Y76.90335
X48.81646 Y76.82258
X49.00041 Y76.78293
X49.19883 Y76.78074
X49.40360 Y76.82258
X49.57569 Y76.89860
X49.75308 Y77.02750
X49.87856 Y77.16769
X49.97787 Y77.33967
X50.04089 Y77.53891
X50.05946 Y77.73652
X50.03655 Y77.93367
X49.97787 Y78.11244
X49.87858 Y78.28442
X49.75308 Y78.42463
X49.58504 Y78.54876
X49.40360 Y78.62956
X49.20929 Y78.67086
X49.02118 Y78.67142
X48.81646 Y78.62956
X48.64435 Y78.55353
X48.46695 Y78.42463
X48.34145 Y78.28445
X48.24216 Y78.11246
X48.18077 Y77.92356
X48.16058 Y77.71561
G04 P0 ( dwell for no time -- G64 should not smooth over this point )
G00 Z5.00000 ( retract )

G00 X51.95036 Y72.73544 ( rapid move to begin. )
F300.00000
G01 Z-0.05000
G04 P0 ( dwell for no time -- G64 should not smooth over this point )
F600.00000
X51.95036 Y72.73544
X51.99623 Y72.31997
X52.12275 Y71.93242
X52.33182 Y71.57031
X52.61970 Y71.25302
X52.95915 Y71.00910
X53.33179 Y70.84380
X53.73042 Y70.75850
X54.14840 Y70.75632
X54.56786 Y70.84380
X54.94047 Y71.00910
X55.27992 Y71.25302
X55.56123 Y71.56218
X55.77687 Y71.93242
X55.90339 Y72.31997
X55.94926 Y72.75634
X55.90339 Y73.17181
X55.77687 Y73.55934
X55.56783 Y73.92144
X55.27992 Y74.23876
X54.94047 Y74.48268
X54.56786 Y74.64798
X54.15887 Y74.73492
X53.75120 Y74.73548
X53.33179 Y74.64798
X52.94983 Y74.47793
X52.61970 Y74.23876
X52.33840 Y73.92959
X52.12275 Y73.55936
X51.99623 Y73.17181
X51.95036 Y72.73544
G04 P0 ( dwell for no time -- G64 should not smooth over this point )
G00 Z5.00000 ( retract )

G00 X51.99435 Y71.43676 ( rapid move to begin. )
F300.00000
G01 Z-0.05000
G04 P0 ( dwell for no time -- G64 should not smooth over this point )
F600.00000
X51.99435 Y71.43676
X51.64223 Y72.28481
X51.64137 Y73.20282
X51.99204 Y74.05151
X52.64071 Y74.70132
X53.48879 Y75.05344
X54.40677 Y75.05433
X55.25546 Y74.70366
X55.90529 Y74.05497
X56.25741 Y73.20691
X56.25830 Y72.28893
X55.90761 Y71.44021
X55.25894 Y70.79041
X54.41086 Y70.43829
X53.49288 Y70.43740
X52.64419 Y70.78807
X51.99435 Y71.43676
G04 P0 ( dwell for no time -- G64 should not smooth over this point )
G00 Z5.00000 ( retract )

G00 X57.92797 Y78.90764 ( rapid move to begin. )
F300.00000
G01 Z-0.05000
G04 P0 ( dwell for no time -- G64 should not smooth over this point )
F600.00000
X57.92797 Y78.90764
X57.95088 Y78.71048
X58.00956 Y78.53169
X58.10887 Y78.35971
X58.23435 Y78.21952
X58.40242 Y78.09537
X58.58385 Y78.01460
X58.76780 Y77.97495
X58.96622 Y77.97276
X59.17100 Y78.01460
X59.34308 Y78.09062
X59.52048 Y78.21952
X59.64595 Y78.35971
X59.74527 Y78.53169
X59.80828 Y78.73093
X59.82685 Y78.92854
X59.80394 Y79.12570
X59.74527 Y79.30446
X59.64598 Y79.47644
X59.52048 Y79.61665
X59.35243 Y79.74078
X59.17100 Y79.82158
X58.97669 Y79.86288
X58.78857 Y79.86344
X58.58385 Y79.82158
X58.41174 Y79.74556
X58.23435 Y79.61665
X58.10885 Y79.47647
X58.00956 Y79.30449
X57.94816 Y79.11559
X57.92797 Y78.90764
G04 P0 ( dwell for no time -- G64 should not smooth over this point )
G00 Z5.00000 ( retract )

G00 X57.61913 Y79.16712 ( rapid move to begin. )
F300.00000
G01 Z-0.05000
G04 P0 ( dwell for no time -- G64 should not smooth over this point )
F600.00000
X57.61913 Y79.16712
X57.81029 Y79.62971
X58.16386 Y79.98388
X58.62617 Y80.17583
X59.12642 Y80.17634
X59.58906 Y79.98518
X59.94326 Y79.63161
X60.13518 Y79.16933
X60.13571 Y78.66900
X59.94455 Y78.20642
X59.59099 Y77.85224
X59.12868 Y77.66029
X58.62843 Y77.65978
X58.16579 Y77.85095
X57.81159 Y78.20451
X57.61967 Y78.66679
X57.61913 Y79.16712
G04 P0 ( dwell for no time -- G64 should not smooth over this point )
G00 Z5.00000 ( retract )

G00 X63.67078 Y83.36480 ( rapid move to begin. )
F300.00000
G01 Z-0.05000
G04 P0 ( dwell for no time -- G64 should not smooth over this point )
F600.00000
X63.67078 Y83.36480
X63.78127 Y83.61360
X64.02390 Y83.37103
X63.98425 Y83.24728
X63.96542 Y83.06805
X63.98262 Y82.89920
X64.02390 Y82.76513
X63.78130 Y82.52249
X63.64724 Y82.89414
X63.67078 Y83.36480
G04 P0 ( dwell for no time -- G64 should not smooth over this point )
G00 Z5.00000 ( retract )

G00 X64.52407 Y83.87199 ( rapid move to begin. )
F300.00000
G01 Z-0.05000
G04 P0 ( dwell for no time -- G64 should not smooth over this point )
F600.00000
X64.52407 Y83.87199
X64.28232 Y84.11578
X64.65351 Y84.24824
X65.12420 Y84.22472
X65.37297 Y84.11420
X65.13078 Y83.87196
X64.90703 Y83.92589
X64.72699 Y83.92368
X64.52407 Y83.87199
G04 P0 ( dwell for no time -- G64 should not smooth over this point )
G00 Z5.00000 ( retract )

G00 X65.63095 Y83.37092 ( rapid move to begin. )
F300.00000
G01 Z-0.05000
G04 P0 ( dwell for no time -- G64 should not smooth over this point )
F600.00000
X65.63095 Y83.37092
X65.87515 Y83.61316
X66.00761 Y83.24197
X65.98406 Y82.77131
X65.87357 Y82.52251
X65.63093 Y82.76511
X65.67220 Y82.89920
X65.68887 Y83.05762
X65.67220 Y83.23694
X65.63095 Y83.37092
G04 P0 ( dwell for no time -- G64 should not smooth over this point )
G00 Z5.00000 ( retract )

G00 X64.53068 Y81.91141 ( rapid move to begin. )
F300.00000
G01 Z-0.05000
G04 P0 ( dwell for no time -- G64 should not smooth over this point )
F600.00000
X64.53068 Y81.91141
X64.28188 Y82.02190
X64.52407 Y82.26414
X64.74777 Y82.21027
X64.91749 Y82.21080
X65.13075 Y82.26414
X65.37299 Y82.02193
X65.00134 Y81.88787
X64.53068 Y81.91141
G04 P0 ( dwell for no time -- G64 should not smooth over this point )
G00 Z5.00000 ( retract )

G00 X66.32798 Y77.70761 ( rapid move to begin. )
F300.00000
G01 Z-0.05000
G04 P0 ( dwell for no time -- G64 should not smooth over this point )
F600.00000
X66.32798 Y77.70761
X66.35089 Y77.51046
X66.40957 Y77.33167
X66.50888 Y77.15968
X66.63436 Y77.01950
X66.80243 Y76.89535
X66.98386 Y76.81457
X67.16781 Y76.77493
X67.36623 Y76.77274
X67.57101 Y76.81457
X67.74309 Y76.89060
X67.92048 Y77.01950
X68.04596 Y77.15968
X68.14527 Y77.33167
X68.20829 Y77.53091
X68.22686 Y77.72852
X68.20395 Y77.92567
X68.14527 Y78.10444
X68.04599 Y78.27642
X67.92048 Y78.41663
X67.75244 Y78.54076
X67.57101 Y78.62156
X67.37670 Y78.66286
X67.18858 Y78.66342
X66.98386 Y78.62156
X66.81175 Y78.54553
X66.63436 Y78.41663
X66.50885 Y78.27645
X66.40957 Y78.10446
X66.34817 Y77.91556
X66.32798 Y77.70761

G04 P0 ( dwell for no time -- G64 should not smooth over this point )
G00 Z10.000 ( retract )

M5 ( Spindle off. )
M9 ( Coolant off. )
M2 ( Program end. )

