( pcb2gcode 1.3.2 )
( Software-independent Gcode )

( This file uses 4 drill bit sizes. )
( Bit sizes: [1mm] [1.2mm] [1.7mm] [2.2mm] )

G94       (Millimeters per minute feed rate.)
G21       (Units == Millimeters.)
G91.1     (Incremental arc distance mode.)
G90       (Absolute coordinates.)
S10000     (RPM spindle speed.)

G00 Z10.00000 (Retract)
T1
M5      (Spindle stop.)
(MSG, Change tool bit to drill size 1.00000 mm)
M6      (Tool change.)
M0      (Temporary machine stop.)
M3      (Spindle on clockwise.)

G81 R5.00000 Z-2.50000 F1000.00000 X35.28381 Y4.41990
X37.82381 Y4.41990
X40.36381 Y4.41990
X42.90381 Y4.41990
X45.44381 Y4.41990
X45.44381 Y6.95990
X42.90381 Y6.95990
X40.36381 Y6.95990
X37.82381 Y6.95990
X35.28381 Y6.95990

G00 Z10.00000 (Retract)
T2
M5      (Spindle stop.)
(MSG, Change tool bit to drill size 1.20000 mm)
M6      (Tool change.)
M0      (Temporary machine stop.)
M3      (Spindle on clockwise.)

G81 R5.00000 Z-2.50000 F1000.00000 X5.86381 Y9.56790
X9.36381 Y9.56790
X24.03181 Y9.57590
X27.53181 Y9.57590
X42.19281 Y9.58390
X45.69281 Y9.58390
X60.35381 Y9.63490
X63.85381 Y9.63490
X60.35381 Y83.13490
X42.19281 Y83.08390
X24.03181 Y83.07590
X5.86381 Y83.06790

G00 Z10.00000 (Retract)
T3
M5      (Spindle stop.)
(MSG, Change tool bit to drill size 1.70000 mm)
M6      (Tool change.)
M0      (Temporary machine stop.)
M3      (Spindle on clockwise.)

G81 R5.00000 Z-2.50000 F1000.00000 X3.41381 Y14.91790
X11.81381 Y13.71790
X21.58181 Y14.92590
X29.98181 Y13.72590
X39.74281 Y14.93390
X48.14281 Y13.73390
X57.90381 Y14.98490
X66.30381 Y13.78490
X57.90381 Y77.78490
X66.30381 Y78.98490
X48.14281 Y78.93390
X39.74281 Y77.73390
X29.98181 Y78.92590
X21.58181 Y77.72590
X11.81381 Y78.91790
X3.41381 Y77.71790

G00 Z10.00000 (Retract)
T4
M5      (Spindle stop.)
(MSG, Change tool bit to drill size 2.20000 mm)
M6      (Tool change.)
M0      (Temporary machine stop.)
M3      (Spindle on clockwise.)

G81 R5.00000 Z-2.50000 F1000.00000 X16.23381 Y17.45890
X53.31781 Y17.37390
X53.31781 Y72.99990
X16.74181 Y72.74590

G00 Z10.000 ( All done -- retract )

M5      (Spindle off.)
M9      (Coolant off.)
M2      (Program end.)

