( pcb2gcode 1.3.2 )
( Software-independent Gcode )

G94 ( Millimeters per minute feed rate. )
G21 ( Units == Millimeters. )

G90 ( Absolute coordinates. )
S10000 ( RPM spindle speed. )
G64 P0.01000 ( set maximum deviation from commanded toolpath )
F600.00000 ( Feedrate. )

F600.00000 ( Feedrate. )
M3 ( Spindle on clockwise. )
G04 P0 ( dwell for no time -- G64 should not smooth over this point )
G00 Z5.00000 ( retract )

G00 X5.25147 Y8.46810 ( rapid move to begin. )
F300.00000
G01 Z-0.05000
G04 P0 ( dwell for no time -- G64 should not smooth over this point )
F600.00000
X5.25147 Y8.46810
X5.03930 Y8.45731
X4.82239 Y8.49089
X4.60697 Y8.57097
X4.40438 Y8.70028
X4.23547 Y8.87120
X4.12142 Y9.04641
X4.03679 Y9.26012
X3.99846 Y9.48677
X4.00913 Y9.72682
X4.07268 Y9.95857
X4.17875 Y10.16249
X4.32381 Y10.33896
X4.50453 Y10.48725
X4.69572 Y10.58745
X4.88355 Y10.64450
X5.10799 Y10.66810
X5.86419 Y10.66810
X6.09287 Y10.64404
X6.31159 Y10.57297
X6.51075 Y10.45799
X6.67423 Y10.31151
X6.81680 Y10.11809
X6.91034 Y9.90798
X6.95871 Y9.67262
X6.95815 Y9.45309
X6.91034 Y9.22815
X6.82155 Y9.02741
X6.67423 Y8.82464
X6.51073 Y8.67816
X6.30181 Y8.55942
X6.10298 Y8.49482
X5.87463 Y8.46864
X5.25147 Y8.46810
G04 P0 ( dwell for no time -- G64 should not smooth over this point )
G00 Z5.00000 ( retract )

G00 X5.84197 Y8.16008 ( rapid move to begin. )
F300.00000
G01 Z-0.05000
G04 P0 ( dwell for no time -- G64 should not smooth over this point )
F600.00000
X5.84197 Y8.16008
X6.40123 Y8.27130
X6.85660 Y8.57557
X7.16086 Y9.03094
X7.26775 Y9.56807
X7.16092 Y10.10513
X6.85665 Y10.56050
X6.40128 Y10.86477
X5.84174 Y10.97610
X5.13041 Y10.97610
X4.57090 Y10.86482
X4.10819 Y10.55565
X3.79907 Y10.09299
X3.69219 Y9.55586
X3.79902 Y9.01880
X4.10329 Y8.56343
X4.55866 Y8.25916
X5.09770 Y8.15190
X5.84197 Y8.16008
G04 P0 ( dwell for no time -- G64 should not smooth over this point )
G00 Z5.00000 ( retract )

G00 X4.12582 Y13.85095 ( rapid move to begin. )
F300.00000
G01 Z-0.05000
G04 P0 ( dwell for no time -- G64 should not smooth over this point )
F600.00000
X4.12582 Y13.85095
X4.48005 Y14.20457
X4.67194 Y14.66672
X4.67245 Y15.16707
X4.48129 Y15.62971
X4.12767 Y15.98394
X3.66552 Y16.17583
X3.16517 Y16.17634
X2.70253 Y15.98518
X2.48889 Y15.77258
X2.37987 Y15.71714
X2.29135 Y15.71721
X2.20959 Y15.75112
X2.13776 Y15.83103
X2.10880 Y15.93984
X2.10880 Y76.69644
X2.12605 Y76.78331
X2.18257 Y76.86355
X2.27281 Y76.91338
X2.36070 Y76.92095
X2.42727 Y76.90408
X2.48130 Y76.86924
X2.70062 Y76.65222
X3.16290 Y76.46030
X3.66318 Y76.45979
X4.12582 Y76.65095
X4.48005 Y77.00457
X4.67194 Y77.46669
X4.67245 Y77.96707
X4.48129 Y78.42971
X4.12767 Y78.78394
X3.66552 Y78.97584
X3.16517 Y78.97634
X2.70253 Y78.78518
X2.49615 Y78.57916
X2.40372 Y78.52438
X2.33563 Y78.51284
X2.24881 Y78.53014
X2.17523 Y78.57937
X2.12605 Y78.65298
X2.10880 Y78.73984
X2.10880 Y84.48189
X2.12427 Y84.56414
X2.16867 Y84.63511
X2.24889 Y84.69157
X2.33580 Y84.70889
X42.18165 Y84.70889
X42.30621 Y84.67118
X42.43097 Y84.70889
X59.92423 Y84.70889
X60.04191 Y84.67565
X60.11296 Y84.60795
X60.14829 Y84.51644
X60.13963 Y84.41377
X60.11011 Y84.35172
X60.05065 Y84.29335
X59.80805 Y84.18063
X60.05022 Y83.93839
X60.27397 Y83.99231
X60.45400 Y83.99010
X60.65692 Y83.93841
X60.89914 Y84.18060
X60.59680 Y84.30267
X60.54783 Y84.35258
X60.51448 Y84.42566
X60.51745 Y84.54499
X60.54618 Y84.60872
X60.63701 Y84.68662
X60.73437 Y84.70889
X68.35579 Y84.70889
X68.44266 Y84.69160
X68.51627 Y84.64237
X68.56351 Y84.57321
X68.58030 Y84.50666
X68.58276 Y2.33588
X68.56724 Y2.25353
X68.52287 Y2.18262
X68.44261 Y2.12613
X68.35579 Y2.10888
X2.31632 Y2.11079
X2.24002 Y2.13034
X2.17190 Y2.17888
X2.12605 Y2.24899
X2.10880 Y2.33588
X2.11315 Y13.94068
X2.14706 Y14.02252
X2.20969 Y14.08519
X2.29158 Y14.11907
X2.38970 Y14.11663
X2.49643 Y14.05679
X2.70068 Y13.85219
X3.16283 Y13.66029
X3.66318 Y13.65979
X4.12582 Y13.85095
G04 P0 ( dwell for no time -- G64 should not smooth over this point )
G00 Z5.00000 ( retract )

G00 X4.36361 Y14.90761 ( rapid move to begin. )
F300.00000
G01 Z-0.05000
G04 P0 ( dwell for no time -- G64 should not smooth over this point )
F600.00000
X4.36361 Y14.90761
X4.34070 Y14.71046
X4.28203 Y14.53167
X4.18271 Y14.35968
X4.05724 Y14.21950
X3.88917 Y14.09535
X3.70773 Y14.01457
X3.52379 Y13.97492
X3.32536 Y13.97274
X3.12059 Y14.01457
X2.94850 Y14.09060
X2.77111 Y14.21950
X2.64563 Y14.35968
X2.54632 Y14.53167
X2.48330 Y14.73090
X2.46474 Y14.92852
X2.48765 Y15.12567
X2.54632 Y15.30444
X2.64561 Y15.47642
X2.77111 Y15.61663
X2.93916 Y15.74076
X3.12059 Y15.82155
X3.31490 Y15.86285
X3.50301 Y15.86341
X3.70773 Y15.82155
X3.87985 Y15.74553
X4.05724 Y15.61663
X4.18274 Y15.47644
X4.28203 Y15.30446
X4.34342 Y15.11556
X4.36361 Y14.90761
G04 P0 ( dwell for no time -- G64 should not smooth over this point )
G00 Z5.00000 ( retract )

G00 X12.06317 Y12.45979 ( rapid move to begin. )
F300.00000
G01 Z-0.05000
G04 P0 ( dwell for no time -- G64 should not smooth over this point )
F600.00000
X12.06317 Y12.45979
X12.52580 Y12.65095
X12.88001 Y13.00452
X13.07195 Y13.46682
X13.07246 Y13.96708
X12.88130 Y14.42971
X12.52773 Y14.78389
X12.06543 Y14.97584
X11.56517 Y14.97634
X11.10254 Y14.78518
X10.74834 Y14.43162
X10.55641 Y13.96934
X10.55588 Y13.46901
X10.74704 Y13.00642
X11.10061 Y12.65222
X11.56291 Y12.46030
X12.06317 Y12.45979
G04 P0 ( dwell for no time -- G64 should not smooth over this point )
G00 Z5.00000 ( retract )

G00 X12.76362 Y13.70761 ( rapid move to begin. )
F300.00000
G01 Z-0.05000
G04 P0 ( dwell for no time -- G64 should not smooth over this point )
F600.00000
X12.76362 Y13.70761
X12.74071 Y13.51046
X12.68204 Y13.33167
X12.58272 Y13.15969
X12.45725 Y13.01950
X12.28918 Y12.89535
X12.10774 Y12.81458
X11.92380 Y12.77493
X11.72537 Y12.77274
X11.52060 Y12.81458
X11.34851 Y12.89060
X11.17112 Y13.01950
X11.04564 Y13.15969
X10.94633 Y13.33167
X10.88331 Y13.53091
X10.86474 Y13.72852
X10.88765 Y13.92567
X10.94633 Y14.10444
X11.04562 Y14.27642
X11.17112 Y14.41663
X11.33916 Y14.54076
X11.52060 Y14.62156
X11.71491 Y14.66286
X11.90302 Y14.66342
X12.10774 Y14.62156
X12.27985 Y14.54553
X12.45725 Y14.41663
X12.58275 Y14.27645
X12.68204 Y14.10446
X12.74343 Y13.91556
X12.76362 Y13.70761
G04 P0 ( dwell for no time -- G64 should not smooth over this point )
G00 Z5.00000 ( retract )

G00 X14.27599 Y16.15323 ( rapid move to begin. )
F300.00000
G01 Z-0.05000
G04 P0 ( dwell for no time -- G64 should not smooth over this point )
F600.00000
X14.27599 Y16.15323
X14.92465 Y15.50339
X15.77273 Y15.15127
X16.69072 Y15.15038
X17.53941 Y15.50108
X18.18924 Y16.14975
X18.54136 Y16.99785
X18.54222 Y17.91581
X18.19155 Y18.76450
X17.54289 Y19.41433
X16.69481 Y19.76645
X15.77682 Y19.76732
X14.92813 Y19.41665
X14.27830 Y18.76798
X13.92618 Y17.91990
X13.92529 Y17.00192
X14.27599 Y16.15323
G04 P0 ( dwell for no time -- G64 should not smooth over this point )
G00 Z5.00000 ( retract )

G00 X18.23323 Y17.44842 ( rapid move to begin. )
F300.00000
G01 Z-0.05000
G04 P0 ( dwell for no time -- G64 should not smooth over this point )
F600.00000
X18.23323 Y17.44842
X18.18736 Y17.03296
X18.06084 Y16.64540
X17.85178 Y16.28330
X17.56389 Y15.96600
X17.22445 Y15.72209
X16.85180 Y15.55678
X16.45318 Y15.47149
X16.03519 Y15.46931
X15.61574 Y15.55678
X15.24312 Y15.72209
X14.90367 Y15.96600
X14.62237 Y16.27517
X14.40672 Y16.64540
X14.28021 Y17.03296
X14.23433 Y17.46933
X14.28021 Y17.88480
X14.40672 Y18.27232
X14.61576 Y18.63443
X14.90367 Y18.95175
X15.24312 Y19.19567
X15.61574 Y19.36097
X16.02473 Y19.44791
X16.43240 Y19.44847
X16.85180 Y19.36097
X17.23377 Y19.19092
X17.56389 Y18.95175
X17.84520 Y18.64258
X18.06084 Y18.27235
X18.18736 Y17.88480
X18.23323 Y17.44842
G04 P0 ( dwell for no time -- G64 should not smooth over this point )
G00 Z5.00000 ( retract )

G00 X20.51573 Y15.63961 ( rapid move to begin. )
F300.00000
G01 Z-0.05000
G04 P0 ( dwell for no time -- G64 should not smooth over this point )
F600.00000
X20.51573 Y15.63961
X20.32381 Y15.17733
X20.32330 Y14.67701
X20.51443 Y14.21442
X20.86800 Y13.86022
X21.33031 Y13.66829
X21.83058 Y13.66779
X22.29319 Y13.85895
X22.64745 Y14.21257
X22.83935 Y14.67472
X22.83985 Y15.17507
X22.64869 Y15.63771
X22.29507 Y15.99194
X21.83292 Y16.18383
X21.33257 Y16.18434
X20.86993 Y15.99318
X20.51573 Y15.63961
G04 P0 ( dwell for no time -- G64 should not smooth over this point )
G00 Z5.00000 ( retract )

G00 X22.53101 Y14.91561 ( rapid move to begin. )
F300.00000
G01 Z-0.05000
G04 P0 ( dwell for no time -- G64 should not smooth over this point )
F600.00000
X22.53101 Y14.91561
X22.50810 Y14.71846
X22.44943 Y14.53967
X22.35012 Y14.36768
X22.22464 Y14.22750
X22.05657 Y14.10335
X21.87514 Y14.02257
X21.69119 Y13.98292
X21.49276 Y13.98074
X21.28799 Y14.02257
X21.11590 Y14.09860
X20.93851 Y14.22750
X20.81303 Y14.36768
X20.71372 Y14.53967
X20.65070 Y14.73890
X20.63214 Y14.93652
X20.65505 Y15.13367
X20.71372 Y15.31244
X20.81301 Y15.48442
X20.93851 Y15.62463
X21.10656 Y15.74876
X21.28799 Y15.82956
X21.48230 Y15.87086
X21.67041 Y15.87141
X21.87514 Y15.82956
X22.04725 Y15.75353
X22.22464 Y15.62463
X22.35014 Y15.48445
X22.44943 Y15.31246
X22.51082 Y15.12356
X22.53101 Y14.91561
G04 P0 ( dwell for no time -- G64 should not smooth over this point )
G00 Z5.00000 ( retract )

G00 X23.37727 Y10.67610 ( rapid move to begin. )
F300.00000
G01 Z-0.05000
G04 P0 ( dwell for no time -- G64 should not smooth over this point )
F600.00000
X23.37727 Y10.67610
X24.04204 Y10.67554
X24.26027 Y10.65204
X24.46921 Y10.58473
X24.68628 Y10.45939
X24.84163 Y10.31951
X24.97848 Y10.13488
X25.08044 Y9.90587
X25.12611 Y9.68062
X25.12390 Y9.45075
X25.07775 Y9.23615
X24.97851 Y9.01730
X24.84163 Y8.83264
X24.67813 Y8.68616
X24.47897 Y8.57118
X24.24993 Y8.49848
X24.03160 Y8.47610
X23.27559 Y8.47610
X23.07099 Y8.49571
X22.86449 Y8.55624
X22.65692 Y8.66711
X22.48194 Y8.81481
X22.34399 Y8.98555
X22.23610 Y9.20026
X22.17953 Y9.41235
X22.16721 Y9.63155
X22.20071 Y9.85893
X22.29022 Y10.09307
X22.40386 Y10.26853
X22.56464 Y10.43282
X22.75606 Y10.56007
X22.98994 Y10.65019
X23.19637 Y10.68316
X23.37727 Y10.67610
G04 P0 ( dwell for no time -- G64 should not smooth over this point )
G00 Z5.00000 ( retract )

G00 X28.31604 Y11.24610 ( rapid move to begin. )
F300.00000
G01 Z-0.05000
G04 P0 ( dwell for no time -- G64 should not smooth over this point )
F600.00000
X28.31604 Y11.24610
X27.94784 Y11.17287
X27.70766 Y11.01237
X27.63052 Y10.97953
X26.99842 Y10.98410
X26.43891 Y10.87282
X25.96459 Y10.55588
X25.80571 Y10.39703
X25.63241 Y10.14554
X25.55905 Y10.09662
X25.47218 Y10.07938
X25.37650 Y10.10081
X25.29588 Y10.16513
X25.02402 Y10.56850
X24.56868 Y10.87277
X24.00914 Y10.98410
X23.26830 Y10.98994
X22.72870 Y10.88263
X22.27333 Y10.57836
X21.96906 Y10.12299
X21.86218 Y9.58585
X21.96901 Y9.04880
X22.23752 Y8.64697
X22.27333 Y8.54557
X22.27140 Y8.47653
X22.22505 Y8.37956
X22.14453 Y8.31535
X22.04877 Y8.29388
X11.96276 Y8.30059
X11.85600 Y8.36036
X11.47612 Y8.74024
X11.42359 Y8.82309
X11.41316 Y8.94021
X11.44178 Y9.01529
X11.54935 Y9.55586
X11.44252 Y10.09294
X11.13337 Y10.55563
X10.67069 Y10.86477
X10.11115 Y10.97610
X9.38662 Y10.97610
X8.82710 Y10.86482
X8.37173 Y10.56055
X8.06747 Y10.10518
X7.96058 Y9.56807
X8.06742 Y9.03099
X8.37168 Y8.57562
X8.82705 Y8.27135
X9.44115 Y8.15507
X9.52007 Y8.12185
X10.88844 Y6.75967
X11.20061 Y6.55109
X11.56855 Y6.47789
X28.14759 Y6.47789
X28.51553 Y6.55104
X28.82773 Y6.75965
X29.90344 Y7.83536
X30.01959 Y7.89747
X32.15965 Y7.90186
X32.24664 Y7.88459
X32.32025 Y7.83536
X32.36023 Y7.77903
X32.38324 Y7.71428
X32.38428 Y7.65002
X32.35772 Y7.56602
X32.27738 Y7.47212
X32.21479 Y7.32109
X32.21479 Y7.01959
X32.24049 Y6.99389
X32.51672 Y6.99389
X32.52472 Y7.25939
X32.53966 Y7.29543
X32.58454 Y7.33226
X33.37278 Y7.33988
X33.44346 Y7.31057
X33.47278 Y7.23989
X33.64384 Y7.23989
X33.96472 Y7.56086
X34.08563 Y7.66074
X34.23158 Y7.74095
X34.33381 Y7.77395
X34.35065 Y7.86544
X34.41428 Y7.90796
X36.17203 Y7.90227
X36.21692 Y7.86544
X36.23378 Y7.80989
X36.23378 Y6.10992
X36.21692 Y6.05434
X36.17203 Y6.01751
X34.81191 Y6.00992
X34.70874 Y5.92701
X34.54046 Y5.84311
X34.37874 Y5.80034
X34.19091 Y5.79214
X34.01585 Y5.82206
X33.85990 Y5.88251
X33.71933 Y5.97314
X33.64951 Y6.03989
X33.47278 Y6.03989
X33.44346 Y5.96917
X33.37278 Y5.93989
X32.60328 Y5.94179
X32.55210 Y5.96917
X32.52472 Y6.02035
X32.51672 Y6.28589
X32.24055 Y6.28589
X32.21479 Y6.26013
X32.21479 Y5.95886
X32.29556 Y5.76562
X32.31278 Y5.67743
X32.29521 Y5.59117
X32.23999 Y5.50291
X32.20217 Y5.31632
X32.19866 Y5.17306
X32.16353 Y5.08835
X32.09419 Y4.73989
X32.16346 Y4.39148
X32.19866 Y4.30664
X32.20217 Y4.16189
X32.23450 Y3.99008
X32.32464 Y3.84998
X32.46102 Y3.75678
X32.64535 Y3.71945
X33.00333 Y3.71751
X33.11392 Y3.67835
X33.17252 Y3.61853
X33.48329 Y3.15343
X33.93866 Y2.84916
X34.47577 Y2.74228
X35.01329 Y2.84919
X35.25616 Y3.00642
X35.82065 Y3.12298
X36.27650 Y3.42760
X36.47086 Y3.70055
X36.52936 Y3.73733
X36.61628 Y3.75457
X36.70320 Y3.73728
X36.76172 Y3.70042
X37.11021 Y3.35404
X37.57251 Y3.16209
X38.07277 Y3.16158
X38.53540 Y3.35275
X38.93670 Y3.76946
X39.00236 Y3.81325
X39.05918 Y3.82953
X39.18059 Y3.81505
X39.25064 Y3.76915
X39.65021 Y3.35404
X40.11251 Y3.16209
X40.61277 Y3.16158
X41.07540 Y3.35275
X41.47670 Y3.76946
X41.54683 Y3.81523
X41.63372 Y3.83240
X41.72059 Y3.81505
X41.79064 Y3.76915
X42.19021 Y3.35404
X42.65251 Y3.16209
X43.15277 Y3.16158
X43.61540 Y3.35275
X43.96635 Y3.70034
X44.02482 Y3.73705
X44.11167 Y3.75424
X44.19848 Y3.73697
X44.25696 Y3.70019
X44.45094 Y3.42765
X44.90666 Y3.12315
X45.46594 Y3.01188
X46.28357 Y3.01188
X46.84283 Y3.12310
X47.34991 Y3.47362
X47.47602 Y3.51188
X58.61674 Y3.51188
X58.98469 Y3.58505
X59.29683 Y3.79361
X63.16962 Y7.66297
X63.26659 Y7.70925
X63.87284 Y7.81992
X64.34724 Y8.13689
X64.83329 Y8.62294
X65.15026 Y9.09734
X65.25714 Y9.63447
X65.15031 Y10.17153
X64.84604 Y10.62690
X64.39070 Y10.93117
X63.85356 Y11.03805
X63.31651 Y10.93122
X62.84211 Y10.61422
X62.35590 Y10.12802
X62.09596 Y9.75116
X61.98699 Y9.69563
X61.89845 Y9.69566
X61.81669 Y9.72952
X61.74897 Y9.80061
X61.65049 Y10.22484
X61.33332 Y10.69954
X60.84730 Y11.18557
X60.37287 Y11.50256
X59.83577 Y11.60945
X59.29871 Y11.50261
X58.84334 Y11.19835
X58.53907 Y10.74298
X58.43219 Y10.20587
X58.53902 Y9.66879
X58.85601 Y9.19439
X59.25002 Y8.80038
X59.36053 Y8.64240
X59.81646 Y8.33777
X60.35357 Y8.23089
X60.63368 Y8.28662
X60.74097 Y8.28095
X60.80406 Y8.25274
X60.86670 Y8.19007
X60.90058 Y8.10826
X60.90058 Y8.01972
X60.83846 Y7.90349
X58.32934 Y5.39437
X58.25568 Y5.34515
X58.16887 Y5.32790
X47.47602 Y5.32790
X47.37191 Y5.35437
X46.84255 Y5.71680
X46.47953 Y5.79912
X46.42319 Y5.83910
X46.36828 Y5.93161
X46.35677 Y5.99968
X46.37407 Y6.08655
X46.42337 Y6.16023
X46.50961 Y6.24631
X46.70153 Y6.70859
X46.70206 Y7.20892
X46.51090 Y7.67151
X46.15731 Y8.02571
X46.06183 Y8.06747
X45.99896 Y8.11474
X45.94354 Y8.22375
X45.94278 Y8.30747
X46.00582 Y8.42845
X46.07953 Y8.47763
X46.35441 Y8.59119
X46.68385 Y8.92002
X46.86236 Y9.34999
X46.86284 Y9.81524
X46.68504 Y10.24552
X46.35621 Y10.57493
X45.92624 Y10.75344
X44.63740 Y10.74168
X44.17354 Y10.64945
X43.79930 Y10.39939
X43.68769 Y10.26348
X43.60588 Y10.22962
X43.51733 Y10.22962
X43.43552 Y10.26348
X43.36780 Y10.33457
X43.34629 Y10.38359
X43.26171 Y10.79703
X43.01149 Y11.17153
X42.63722 Y11.42159
X42.19577 Y11.50945
X41.75437 Y11.42164
X41.37820 Y11.17028
X41.12684 Y10.79411
X41.03458 Y10.33048
X41.03458 Y9.89111
X41.01813 Y9.66574
X40.95252 Y9.54704
X40.88244 Y9.50125
X40.79588 Y9.48405
X40.29456 Y9.56937
X40.21279 Y9.60320
X38.84559 Y10.96426
X38.53342 Y11.17282
X38.16520 Y11.24610
X28.31604 Y11.24610
G04 P0 ( dwell for no time -- G64 should not smooth over this point )
G00 Z5.00000 ( retract )

G00 X28.61612 Y9.73808 ( rapid move to begin. )
F300.00000
G01 Z-0.05000
G04 P0 ( dwell for no time -- G64 should not smooth over this point )
F600.00000
X28.61612 Y9.73808
X28.62554 Y9.46109
X28.57398 Y9.22639
X28.47850 Y9.01730
X28.35562 Y8.84816
X28.18627 Y8.69277
X27.97896 Y8.57118
X27.77037 Y8.50282
X27.40157 Y8.47610
X27.18000 Y8.35893
X26.96812 Y8.30161
X26.73873 Y8.28736
X26.50111 Y8.32332
X26.29598 Y8.40148
X26.10205 Y8.52479
X25.93797 Y8.68581
X25.81094 Y8.87735
X25.72110 Y9.11133
X25.68839 Y9.31781
X25.69822 Y9.54745
X25.76306 Y9.78956
X25.86319 Y9.98489
X26.00091 Y10.15583
X26.19809 Y10.35382
X26.35686 Y10.48479
X26.54612 Y10.58814
X26.77104 Y10.65639
X26.97599 Y10.67610
X27.53159 Y10.67610
X27.75874 Y10.65179
X27.96865 Y10.84199
X28.07319 Y10.89568
X28.18620 Y10.92794
X28.29359 Y10.93807
X38.18768 Y10.93807
X38.32247 Y10.92222
X38.50769 Y10.84526
X38.61191 Y10.76231
X40.14068 Y9.23348
X40.24878 Y9.25593
X40.46832 Y9.25649
X40.70367 Y9.20813
X40.92257 Y9.10887
X41.10720 Y8.97201
X41.25368 Y8.80854
X41.37243 Y8.59960
X41.43974 Y8.39066
X41.46323 Y8.17242
X41.46379 Y6.95990
X41.43702 Y6.72106
X41.36392 Y6.50313
X41.25366 Y6.31329
X41.10720 Y6.14982
X40.91378 Y6.00725
X40.70367 Y5.91370
X40.46832 Y5.86536
X40.23845 Y5.86755
X40.01409 Y5.91746
X39.80500 Y6.01294
X39.63586 Y6.13582
X39.47388 Y6.31329
X39.36362 Y6.50313
X39.28618 Y6.74151
X39.26380 Y6.95990
X39.26380 Y8.16198
X39.28805 Y8.38913
X37.93914 Y9.73808
X28.61612 Y9.73808
G04 P0 ( dwell for no time -- G64 should not smooth over this point )
G00 Z5.00000 ( retract )

G00 X31.04741 Y13.01252 ( rapid move to begin. )
F300.00000
G01 Z-0.05000
G04 P0 ( dwell for no time -- G64 should not smooth over this point )
F600.00000
X31.04741 Y13.01252
X31.23935 Y13.47482
X31.23986 Y13.97508
X31.04870 Y14.43771
X30.69513 Y14.79189
X30.23283 Y14.98384
X29.73257 Y14.98435
X29.26994 Y14.79318
X28.91569 Y14.43957
X28.72379 Y13.97741
X28.72328 Y13.47706
X28.91444 Y13.01442
X29.26801 Y12.66022
X29.73031 Y12.46830
X30.23057 Y12.46779
X30.69320 Y12.65895
X31.04741 Y13.01252
G04 P0 ( dwell for no time -- G64 should not smooth over this point )
G00 Z5.00000 ( retract )

G00 X30.93102 Y13.71562 ( rapid move to begin. )
F300.00000
G01 Z-0.05000
G04 P0 ( dwell for no time -- G64 should not smooth over this point )
F600.00000
X30.93102 Y13.71562
X30.90811 Y13.51846
X30.84944 Y13.33967
X30.75012 Y13.16769
X30.62465 Y13.02750
X30.45658 Y12.90335
X30.27514 Y12.82258
X30.09120 Y12.78293
X29.89277 Y12.78074
X29.68800 Y12.82258
X29.51591 Y12.89860
X29.33852 Y13.02750
X29.21304 Y13.16769
X29.11373 Y13.33967
X29.05071 Y13.53891
X29.03214 Y13.73652
X29.05506 Y13.93367
X29.11373 Y14.11244
X29.21302 Y14.28442
X29.33852 Y14.42463
X29.50657 Y14.54876
X29.68800 Y14.62956
X29.88231 Y14.67086
X30.07042 Y14.67142
X30.27514 Y14.62956
X30.44725 Y14.55354
X30.62465 Y14.42463
X30.75015 Y14.28445
X30.84944 Y14.11246
X30.91083 Y13.92356
X30.93102 Y13.71562
G04 P0 ( dwell for no time -- G64 should not smooth over this point )
G00 Z5.00000 ( retract )

G00 X39.49131 Y13.67589 ( rapid move to begin. )
F300.00000
G01 Z-0.05000
G04 P0 ( dwell for no time -- G64 should not smooth over this point )
F600.00000
X39.49131 Y13.67589
X39.99158 Y13.67538
X40.45419 Y13.86654
X40.80845 Y14.22016
X41.00035 Y14.68231
X41.00085 Y15.18267
X40.80969 Y15.64530
X40.45612 Y15.99951
X39.99384 Y16.19143
X39.49357 Y16.19194
X39.03093 Y16.00078
X38.67673 Y15.64721
X38.48481 Y15.18493
X38.48430 Y14.68460
X38.67543 Y14.22201
X39.02900 Y13.86784
X39.49131 Y13.67589
G04 P0 ( dwell for no time -- G64 should not smooth over this point )
G00 Z5.00000 ( retract )

G00 X40.69201 Y14.92323 ( rapid move to begin. )
F300.00000
G01 Z-0.05000
G04 P0 ( dwell for no time -- G64 should not smooth over this point )
F600.00000
X40.69201 Y14.92323
X40.66910 Y14.72608
X40.61043 Y14.54729
X40.51112 Y14.37530
X40.38564 Y14.23512
X40.21757 Y14.11097
X40.03614 Y14.03019
X39.85219 Y13.99054
X39.65376 Y13.98836
X39.44899 Y14.03019
X39.27690 Y14.10622
X39.09951 Y14.23512
X38.97403 Y14.37530
X38.87472 Y14.54729
X38.81170 Y14.74652
X38.79314 Y14.94414
X38.81605 Y15.14129
X38.87472 Y15.32006
X38.97401 Y15.49204
X39.09951 Y15.63225
X39.26756 Y15.75638
X39.44899 Y15.83718
X39.64330 Y15.87848
X39.83141 Y15.87903
X40.03614 Y15.83718
X40.20825 Y15.76115
X40.38564 Y15.63225
X40.51114 Y15.49207
X40.61043 Y15.32008
X40.67182 Y15.13118
X40.69201 Y14.92323
G04 P0 ( dwell for no time -- G64 should not smooth over this point )
G00 Z5.00000 ( retract )

G00 X41.34261 Y9.70328 ( rapid move to begin. )
F300.00000
G01 Z-0.05000
G04 P0 ( dwell for no time -- G64 should not smooth over this point )
F600.00000
X41.34261 Y9.70328
X41.34261 Y10.35268
X41.36130 Y10.52799
X41.41147 Y10.68679
X41.49166 Y10.83274
X41.59907 Y10.96048
X41.72409 Y11.06236
X41.90108 Y11.15260
X42.06278 Y11.19538
X42.25063 Y11.20358
X42.41573 Y11.17691
X42.58165 Y11.11321
X42.73844 Y11.00942
X42.86247 Y10.88232
X42.95736 Y10.73218
X43.01896 Y10.56563
X43.04350 Y10.41080
X43.05404 Y9.57323
X43.03303 Y9.39436
X42.98005 Y9.23307
X42.88993 Y9.07702
X42.76123 Y8.93650
X42.63237 Y8.84288
X42.46872 Y8.76764
X42.27222 Y8.72589
X42.10250 Y8.72642
X41.93634 Y8.76119
X41.77093 Y8.83244
X41.60842 Y8.95050
X41.49524 Y9.07702
X41.40512 Y9.23307
X41.34779 Y9.41481
X41.33113 Y9.57323
X41.34261 Y9.70328
G04 P0 ( dwell for no time -- G64 should not smooth over this point )
G00 Z5.00000 ( retract )

G00 X44.00379 Y7.21139 ( rapid move to begin. )
F300.00000
G01 Z-0.05000
G04 P0 ( dwell for no time -- G64 should not smooth over this point )
F600.00000
X44.00379 Y7.21139
X44.00323 Y6.94944
X43.97702 Y6.72106
X43.90867 Y6.51245
X43.79937 Y6.32208
X43.64720 Y6.14982
X43.46257 Y6.01296
X43.23356 Y5.91101
X43.00832 Y5.86536
X42.78878 Y5.86590
X42.56384 Y5.91370
X42.34500 Y6.01294
X42.16034 Y6.14982
X42.01388 Y6.31329
X41.89887 Y6.51245
X41.83052 Y6.72106
X41.80380 Y6.95990
X41.80380 Y7.32170
X41.82618 Y7.54004
X41.89887 Y7.76907
X42.00817 Y7.95947
X42.17586 Y8.14573
X42.36311 Y8.27905
X42.56384 Y8.36785
X42.79925 Y8.41621
X43.00832 Y8.41621
X43.15378 Y8.38748
X43.15424 Y8.73229
X43.16768 Y8.84905
X43.20362 Y8.96094
X43.32290 Y9.13947
X43.76907 Y9.58631
X43.77126 Y9.68286
X43.80387 Y9.83622
X43.87408 Y9.99932
X43.97672 Y10.14430
X44.10720 Y10.26472
X44.27900 Y10.36393
X44.44855 Y10.41671
X44.61497 Y10.43368
X45.77222 Y10.44150
X45.95893 Y10.40348
X46.13231 Y10.32449
X46.26932 Y10.22428
X46.38995 Y10.09035
X46.48004 Y9.93429
X46.53574 Y9.76289
X46.55456 Y9.58367
X46.53302 Y9.39436
X46.48004 Y9.23307
X46.38992 Y9.07702
X46.27674 Y8.95050
X46.13236 Y8.84288
X45.95893 Y8.76389
X45.79299 Y8.72807
X44.61360 Y8.73379
X44.35378 Y8.47399
X44.35378 Y7.80989
X44.34365 Y7.70250
X44.31139 Y7.58949
X44.24680 Y7.46864
X44.00379 Y7.21139
G04 P0 ( dwell for no time -- G64 should not smooth over this point )
G00 Z5.00000 ( retract )

G00 X46.39322 Y6.94944 ( rapid move to begin. )
F300.00000
G01 Z-0.05000
G04 P0 ( dwell for no time -- G64 should not smooth over this point )
F600.00000
X46.39322 Y6.94944
X46.37031 Y6.75228
X46.31164 Y6.57349
X46.21232 Y6.40151
X46.08685 Y6.26132
X45.91878 Y6.13717
X45.73734 Y6.05640
X45.55340 Y6.01675
X45.35497 Y6.01456
X45.15020 Y6.05640
X44.97811 Y6.13242
X44.80072 Y6.26132
X44.67524 Y6.40151
X44.57593 Y6.57349
X44.51291 Y6.77273
X44.49434 Y6.97034
X44.51725 Y7.16750
X44.57593 Y7.34626
X44.67522 Y7.51824
X44.80072 Y7.65845
X44.96876 Y7.78258
X45.15020 Y7.86338
X45.34451 Y7.90468
X45.53262 Y7.90524
X45.73734 Y7.86338
X45.90945 Y7.78736
X46.08685 Y7.65845
X46.21235 Y7.51827
X46.31164 Y7.34629
X46.37303 Y7.15739
X46.39322 Y6.94944
G04 P0 ( dwell for no time -- G64 should not smooth over this point )
G00 Z5.00000 ( retract )

G00 X47.22271 Y5.01990 ( rapid move to begin. )
F300.00000
G01 Z-0.05000
G04 P0 ( dwell for no time -- G64 should not smooth over this point )
F600.00000
X47.22271 Y5.01990
X58.39048 Y5.01990
X62.26312 Y8.89249
X62.23726 Y9.06960
X62.24930 Y9.28875
X62.31308 Y9.52045
X62.41321 Y9.71578
X62.55796 Y9.89446
X63.07576 Y10.41227
X63.24594 Y10.55085
X63.44978 Y10.65715
X63.68145 Y10.72093
X63.91109 Y10.73297
X64.14820 Y10.69375
X64.35293 Y10.61458
X64.53733 Y10.49548
X64.70139 Y10.33449
X64.82842 Y10.14295
X64.91607 Y9.91920
X64.95206 Y9.69205
X64.94112 Y9.47280
X64.87624 Y9.23071
X64.76994 Y9.02693
X64.63837 Y8.86444
X64.11356 Y8.33887
X63.92578 Y8.18891
X63.71998 Y8.08649
X63.49743 Y8.02911
X63.27815 Y8.01817
X63.11163 Y8.04402
X59.06322 Y3.99562
X58.96386 Y3.91594
X58.76554 Y3.83380
X58.63899 Y3.81990
X47.22279 Y3.81990
X47.11583 Y3.67644
X46.95233 Y3.52996
X46.75317 Y3.41498
X46.54458 Y3.34662
X46.30580 Y3.31990
X45.44380 Y3.31990
X45.22541 Y3.34228
X45.00613 Y3.41122
X44.79719 Y3.52999
X44.63371 Y3.67644
X44.49686 Y3.86108
X44.39760 Y4.07995
X44.34979 Y4.30489
X44.34926 Y4.52442
X44.39760 Y4.75978
X44.48639 Y4.96054
X44.63371 Y5.16331
X44.79719 Y5.30976
X45.00613 Y5.42853
X45.22541 Y5.49747
X45.44380 Y5.51990
X46.30580 Y5.51990
X46.53447 Y5.49584
X46.75319 Y5.42478
X46.95235 Y5.30979
X47.11583 Y5.16331
X47.22271 Y5.01990
G04 P0 ( dwell for no time -- G64 should not smooth over this point )
G00 Z5.00000 ( retract )

G00 X43.85322 Y4.40944 ( rapid move to begin. )
F300.00000
G01 Z-0.05000
G04 P0 ( dwell for no time -- G64 should not smooth over this point )
F600.00000
X43.85322 Y4.40944
X43.83031 Y4.21228
X43.77164 Y4.03349
X43.67232 Y3.86151
X43.54685 Y3.72132
X43.37878 Y3.59717
X43.19734 Y3.51640
X43.01340 Y3.47675
X42.81497 Y3.47456
X42.61020 Y3.51640
X42.43811 Y3.59242
X42.26072 Y3.72132
X42.13524 Y3.86151
X42.03593 Y4.03349
X41.97291 Y4.23273
X41.95434 Y4.43034
X41.97725 Y4.62750
X42.03593 Y4.80626
X42.13522 Y4.97824
X42.26072 Y5.11845
X42.42876 Y5.24258
X42.61020 Y5.32338
X42.80451 Y5.36468
X42.99262 Y5.36524
X43.19734 Y5.32338
X43.36945 Y5.24736
X43.54685 Y5.11845
X43.67235 Y4.97827
X43.77164 Y4.80629
X43.83303 Y4.61739
X43.85322 Y4.40944
G04 P0 ( dwell for no time -- G64 should not smooth over this point )
G00 Z5.00000 ( retract )

G00 X41.31322 Y4.40944 ( rapid move to begin. )
F300.00000
G01 Z-0.05000
G04 P0 ( dwell for no time -- G64 should not smooth over this point )
F600.00000
X41.31322 Y4.40944
X41.29031 Y4.21228
X41.23164 Y4.03349
X41.13232 Y3.86151
X41.00685 Y3.72132
X40.83878 Y3.59717
X40.65734 Y3.51640
X40.47340 Y3.47675
X40.27497 Y3.47456
X40.07020 Y3.51640
X39.89811 Y3.59242
X39.72072 Y3.72132
X39.59524 Y3.86151
X39.49593 Y4.03349
X39.43291 Y4.23273
X39.41434 Y4.43034
X39.43725 Y4.62750
X39.49593 Y4.80626
X39.59522 Y4.97824
X39.72072 Y5.11845
X39.88876 Y5.24258
X40.07020 Y5.32338
X40.26451 Y5.36468
X40.45262 Y5.36524
X40.65734 Y5.32338
X40.82945 Y5.24736
X41.00685 Y5.11845
X41.13235 Y4.97827
X41.23164 Y4.80629
X41.29303 Y4.61739
X41.31322 Y4.40944
G04 P0 ( dwell for no time -- G64 should not smooth over this point )
G00 Z5.00000 ( retract )

G00 X38.77322 Y4.40944 ( rapid move to begin. )
F300.00000
G01 Z-0.05000
G04 P0 ( dwell for no time -- G64 should not smooth over this point )
F600.00000
X38.77322 Y4.40944
X38.75031 Y4.21228
X38.69164 Y4.03349
X38.59232 Y3.86151
X38.46685 Y3.72132
X38.29878 Y3.59717
X38.11734 Y3.51640
X37.93340 Y3.47675
X37.73497 Y3.47456
X37.53020 Y3.51640
X37.35811 Y3.59242
X37.18072 Y3.72132
X37.05524 Y3.86151
X36.95593 Y4.03349
X36.89291 Y4.23273
X36.87434 Y4.43034
X36.89725 Y4.62750
X36.95593 Y4.80626
X37.05522 Y4.97824
X37.18072 Y5.11845
X37.34876 Y5.24258
X37.53020 Y5.32338
X37.72451 Y5.36468
X37.91262 Y5.36524
X38.11734 Y5.32338
X38.28945 Y5.24736
X38.46685 Y5.11845
X38.59235 Y4.97827
X38.69164 Y4.80629
X38.75303 Y4.61739
X38.77322 Y4.40944
G04 P0 ( dwell for no time -- G64 should not smooth over this point )
G00 Z5.00000 ( retract )

G00 X32.52282 Y4.37743 ( rapid move to begin. )
F300.00000
G01 Z-0.05000
G04 P0 ( dwell for no time -- G64 should not smooth over this point )
F600.00000
X32.52282 Y4.37743
X32.42713 Y4.55444
X32.40105 Y4.67715
X32.40051 Y4.79214
X32.43089 Y4.93504
X32.52282 Y5.10222
X32.53041 Y5.37814
X32.56724 Y5.42302
X32.62282 Y5.43989
X33.37278 Y5.43989
X33.44346 Y5.41058
X33.47278 Y5.33989
X34.14770 Y5.33989
X34.33800 Y5.43943
X34.54483 Y5.50019
X34.74979 Y5.51990
X35.28380 Y5.51990
X35.51247 Y5.49584
X35.73119 Y5.42478
X35.92156 Y5.31548
X36.10780 Y5.14779
X36.23640 Y4.96989
X36.32619 Y4.76956
X36.37831 Y4.52442
X36.37775 Y4.30489
X36.33264 Y4.09008
X36.24115 Y3.87921
X36.10782 Y3.69196
X35.93033 Y3.52996
X35.73117 Y3.41498
X35.52258 Y3.34662
X35.19502 Y3.31990
X35.06584 Y3.21813
X34.86007 Y3.11571
X34.64788 Y3.05940
X34.42870 Y3.04736
X34.20132 Y3.08117
X33.98598 Y3.16148
X33.77577 Y3.29798
X33.61479 Y3.46204
X33.50092 Y3.63738
X33.41326 Y3.86110
X33.38423 Y4.04103
X32.62282 Y4.03989
X32.56724 Y4.05673
X32.52472 Y4.12036
X32.52282 Y4.37743
G04 P0 ( dwell for no time -- G64 should not smooth over this point )
G00 Z5.00000 ( retract )

G00 X47.43094 Y14.80078 ( rapid move to begin. )
F300.00000
G01 Z-0.05000
G04 P0 ( dwell for no time -- G64 should not smooth over this point )
F600.00000
X47.43094 Y14.80078
X47.07669 Y14.44716
X46.88479 Y13.98501
X46.88428 Y13.48465
X47.07544 Y13.02202
X47.42901 Y12.66784
X47.89131 Y12.47589
X48.39157 Y12.47538
X48.85420 Y12.66654
X49.20841 Y13.02011
X49.40033 Y13.48239
X49.40086 Y13.98270
X49.20970 Y14.44531
X48.85613 Y14.79951
X48.39383 Y14.99143
X47.89357 Y14.99194
X47.43094 Y14.80078
G04 P0 ( dwell for no time -- G64 should not smooth over this point )
G00 Z5.00000 ( retract )

G00 X49.09202 Y13.72324 ( rapid move to begin. )
F300.00000
G01 Z-0.05000
G04 P0 ( dwell for no time -- G64 should not smooth over this point )
F600.00000
X49.09202 Y13.72324
X49.06911 Y13.52608
X49.01044 Y13.34729
X48.91112 Y13.17531
X48.78565 Y13.03512
X48.61758 Y12.91097
X48.43614 Y12.83020
X48.25220 Y12.79055
X48.05377 Y12.78836
X47.84900 Y12.83020
X47.67691 Y12.90622
X47.49952 Y13.03512
X47.37404 Y13.17531
X47.27473 Y13.34729
X47.21171 Y13.54653
X47.19314 Y13.74414
X47.21606 Y13.94129
X47.27473 Y14.12006
X47.37402 Y14.29204
X47.49952 Y14.43225
X47.66757 Y14.55638
X47.84900 Y14.63718
X48.04331 Y14.67848
X48.23142 Y14.67904
X48.43614 Y14.63718
X48.60825 Y14.56116
X48.78565 Y14.43225
X48.91115 Y14.29207
X49.01044 Y14.12008
X49.07183 Y13.93118
X49.09202 Y13.72324
G04 P0 ( dwell for no time -- G64 should not smooth over this point )
G00 Z5.00000 ( retract )

G00 X51.35999 Y16.06821 ( rapid move to begin. )
F300.00000
G01 Z-0.05000
G04 P0 ( dwell for no time -- G64 should not smooth over this point )
F600.00000
X51.35999 Y16.06821
X52.00865 Y15.41841
X52.85673 Y15.06629
X53.77472 Y15.06540
X54.62341 Y15.41607
X55.27324 Y16.06476
X55.62536 Y16.91281
X55.62622 Y17.83082
X55.27555 Y18.67951
X54.62689 Y19.32932
X53.77881 Y19.68144
X52.86082 Y19.68233
X52.01213 Y19.33166
X51.36230 Y18.68297
X51.01018 Y17.83491
X51.00929 Y16.91693
X51.35999 Y16.06821
G04 P0 ( dwell for no time -- G64 should not smooth over this point )
G00 Z5.00000 ( retract )

G00 X55.31723 Y17.36344 ( rapid move to begin. )
F300.00000
G01 Z-0.05000
G04 P0 ( dwell for no time -- G64 should not smooth over this point )
F600.00000
X55.31723 Y17.36344
X55.27136 Y16.94797
X55.14484 Y16.56042
X54.93578 Y16.19831
X54.64789 Y15.88102
X54.30845 Y15.63710
X53.93580 Y15.47180
X53.53718 Y15.38650
X53.11919 Y15.38432
X52.69974 Y15.47180
X52.32712 Y15.63710
X51.98767 Y15.88102
X51.70637 Y16.19018
X51.49072 Y16.56042
X51.36421 Y16.94797
X51.31833 Y17.38434
X51.36421 Y17.79981
X51.49072 Y18.18734
X51.69976 Y18.54944
X51.98767 Y18.86676
X52.32712 Y19.11068
X52.69974 Y19.27598
X53.10873 Y19.36292
X53.51640 Y19.36348
X53.93580 Y19.27598
X54.31777 Y19.10593
X54.64789 Y18.86676
X54.92920 Y18.55759
X55.14484 Y18.18736
X55.27136 Y17.79981
X55.31723 Y17.36344
G04 P0 ( dwell for no time -- G64 should not smooth over this point )
G00 Z5.00000 ( retract )

G00 X58.85301 Y14.97403 ( rapid move to begin. )
F300.00000
G01 Z-0.05000
G04 P0 ( dwell for no time -- G64 should not smooth over this point )
F600.00000
X58.85301 Y14.97403
X58.83010 Y14.77688
X58.77143 Y14.59809
X58.67212 Y14.42610
X58.54664 Y14.28592
X58.37857 Y14.16177
X58.19714 Y14.08099
X58.01319 Y14.04134
X57.81476 Y14.03916
X57.60999 Y14.08099
X57.43790 Y14.15702
X57.26051 Y14.28592
X57.13503 Y14.42610
X57.03572 Y14.59809
X56.97270 Y14.79732
X56.95414 Y14.99494
X56.97705 Y15.19209
X57.03572 Y15.37086
X57.13501 Y15.54284
X57.26051 Y15.68305
X57.42856 Y15.80718
X57.60999 Y15.88798
X57.80430 Y15.92928
X57.99241 Y15.92983
X58.19714 Y15.88798
X58.36925 Y15.81195
X58.54664 Y15.68305
X58.67214 Y15.54287
X58.77143 Y15.37088
X58.83282 Y15.18198
X58.85301 Y14.97403
G04 P0 ( dwell for no time -- G64 should not smooth over this point )
G00 Z5.00000 ( retract )

G00 X58.15258 Y13.72618 ( rapid move to begin. )
F300.00000
G01 Z-0.05000
G04 P0 ( dwell for no time -- G64 should not smooth over this point )
F600.00000
X58.15258 Y13.72618
X58.61519 Y13.91734
X58.96945 Y14.27096
X59.16135 Y14.73311
X59.16185 Y15.23347
X58.97069 Y15.69610
X58.61712 Y16.05031
X58.15484 Y16.24223
X57.65457 Y16.24274
X57.19193 Y16.05158
X56.83773 Y15.69801
X56.64581 Y15.23573
X56.64530 Y14.73540
X56.83643 Y14.27281
X57.19000 Y13.91864
X57.65231 Y13.72669
X58.15258 Y13.72618
G04 P0 ( dwell for no time -- G64 should not smooth over this point )
G00 Z5.00000 ( retract )

G00 X59.41509 Y9.07095 ( rapid move to begin. )
F300.00000
G01 Z-0.05000
G04 P0 ( dwell for no time -- G64 should not smooth over this point )
F600.00000
X59.41509 Y9.07095
X59.05096 Y9.43584
X58.90801 Y9.61583
X58.80882 Y9.81166
X58.75149 Y10.02357
X58.73727 Y10.25296
X58.77648 Y10.50053
X58.86089 Y10.71430
X58.98088 Y10.89809
X59.14351 Y11.06073
X59.34593 Y11.19022
X59.55103 Y11.26838
X59.77818 Y11.30437
X59.99744 Y11.29342
X60.22995 Y11.23282
X60.44333 Y11.12225
X60.61356 Y10.98367
X61.13137 Y10.46586
X61.27320 Y10.29078
X61.37315 Y10.09977
X61.43388 Y9.89297
X61.45311 Y9.69789
X61.43117 Y9.41611
X61.36223 Y9.19683
X61.23688 Y8.97976
X61.09700 Y8.82441
X60.91237 Y8.68756
X60.69347 Y8.58829
X60.45812 Y8.53996
X60.22825 Y8.54214
X60.01364 Y8.58829
X59.81291 Y8.67709
X59.61014 Y8.82441
X59.46368 Y8.98789
X59.41509 Y9.07095
G04 P0 ( dwell for no time -- G64 should not smooth over this point )
G00 Z5.00000 ( retract )

G00 X66.05231 Y12.52669 ( rapid move to begin. )
F300.00000
G01 Z-0.05000
G04 P0 ( dwell for no time -- G64 should not smooth over this point )
F600.00000
X66.05231 Y12.52669
X66.55257 Y12.52618
X67.01520 Y12.71734
X67.36941 Y13.07091
X67.56133 Y13.53319
X67.56186 Y14.03352
X67.37070 Y14.49611
X67.01713 Y14.85031
X66.55483 Y15.04223
X66.05457 Y15.04274
X65.59194 Y14.85158
X65.23769 Y14.49796
X65.04579 Y14.03581
X65.04528 Y13.53545
X65.23644 Y13.07282
X65.59001 Y12.71864
X66.05231 Y12.52669
G04 P0 ( dwell for no time -- G64 should not smooth over this point )
G00 Z5.00000 ( retract )

G00 X67.25302 Y13.77404 ( rapid move to begin. )
F300.00000
G01 Z-0.05000
G04 P0 ( dwell for no time -- G64 should not smooth over this point )
F600.00000
X67.25302 Y13.77404
X67.23011 Y13.57688
X67.17144 Y13.39809
X67.07212 Y13.22611
X66.94665 Y13.08592
X66.77858 Y12.96177
X66.59714 Y12.88100
X66.41320 Y12.84135
X66.21477 Y12.83916
X66.01000 Y12.88100
X65.83791 Y12.95702
X65.66052 Y13.08592
X65.53504 Y13.22611
X65.43573 Y13.39809
X65.37271 Y13.59733
X65.35414 Y13.79494
X65.37706 Y13.99209
X65.43573 Y14.17086
X65.53502 Y14.34284
X65.66052 Y14.48305
X65.82857 Y14.60718
X66.01000 Y14.68798
X66.20431 Y14.72928
X66.39242 Y14.72984
X66.59714 Y14.68798
X66.76925 Y14.61196
X66.94665 Y14.48305
X67.07215 Y14.34287
X67.17144 Y14.17088
X67.23283 Y13.98198
X67.25302 Y13.77404
G04 P0 ( dwell for no time -- G64 should not smooth over this point )
G00 Z5.00000 ( retract )

G00 X11.79487 Y7.98588 ( rapid move to begin. )
F300.00000
G01 Z-0.05000
G04 P0 ( dwell for no time -- G64 should not smooth over this point )
F600.00000
X11.79487 Y7.98588
X27.92130 Y7.98588
X29.17682 Y9.24072
X29.35533 Y9.36000
X29.48645 Y9.39975
X37.17587 Y9.40988
X37.30241 Y9.39594
X37.50076 Y9.31380
X37.72270 Y9.11151
X37.86184 Y9.10201
X38.06377 Y9.04791
X38.26959 Y8.94550
X38.45735 Y8.79553
X38.73253 Y8.49251
X38.84335 Y8.28522
X38.90408 Y8.07842
X38.92379 Y7.87354
X38.92379 Y6.95990
X38.89702 Y6.72106
X38.82867 Y6.51245
X38.71366 Y6.31329
X38.56720 Y6.14982
X38.37378 Y6.00725
X38.16367 Y5.91370
X37.92832 Y5.86536
X37.70878 Y5.86590
X37.47409 Y5.91746
X37.26500 Y6.01294
X37.09586 Y6.13582
X36.93388 Y6.31329
X36.81887 Y6.51245
X36.75052 Y6.72106
X36.72433 Y6.94944
X36.72380 Y7.48261
X36.65260 Y7.62353
X36.59200 Y7.85606
X36.58105 Y8.07529
X36.60183 Y8.20989
X29.84235 Y8.20989
X28.58678 Y6.95500
X28.40824 Y6.83572
X28.29636 Y6.79978
X28.17959 Y6.78634
X11.43904 Y6.79594
X11.30790 Y6.83572
X11.20515 Y6.89282
X11.12212 Y6.96160
X9.61562 Y8.46810
X9.36419 Y8.46810
X9.14580 Y8.49048
X8.92652 Y8.55942
X8.71758 Y8.67819
X8.55411 Y8.82464
X8.40679 Y9.02741
X8.31799 Y9.22815
X8.27018 Y9.45309
X8.26965 Y9.67262
X8.31529 Y9.89787
X8.41723 Y10.12685
X8.55411 Y10.31151
X8.71758 Y10.45796
X8.91674 Y10.57297
X9.14580 Y10.64567
X9.36419 Y10.66810
X10.13360 Y10.66810
X10.33874 Y10.64831
X10.54582 Y10.58745
X10.73701 Y10.48725
X10.91869 Y10.33790
X11.06871 Y10.15433
X11.16886 Y9.95855
X11.23241 Y9.72680
X11.24419 Y9.50760
X11.20797 Y9.27003
X11.12535 Y9.05543
X10.95931 Y8.82144
X11.79487 Y7.98588
G04 P0 ( dwell for no time -- G64 should not smooth over this point )
G00 Z5.00000 ( retract )

G00 X18.69724 Y71.43676 ( rapid move to begin. )
F300.00000
G01 Z-0.05000
G04 P0 ( dwell for no time -- G64 should not smooth over this point )
F600.00000
X18.69724 Y71.43676
X19.04936 Y72.28481
X19.05022 Y73.20282
X18.69955 Y74.05151
X18.05089 Y74.70132
X17.20281 Y75.05344
X16.28482 Y75.05433
X15.43613 Y74.70366
X14.78630 Y74.05497
X14.43418 Y73.20691
X14.43329 Y72.28893
X14.78399 Y71.44021
X15.43265 Y70.79041
X16.28073 Y70.43829
X17.19872 Y70.43740
X18.04741 Y70.78807
X18.69724 Y71.43676
G04 P0 ( dwell for no time -- G64 should not smooth over this point )
G00 Z5.00000 ( retract )

G00 X18.74123 Y72.73544 ( rapid move to begin. )
F300.00000
G01 Z-0.05000
G04 P0 ( dwell for no time -- G64 should not smooth over this point )
F600.00000
X18.74123 Y72.73544
X18.69536 Y72.31997
X18.56884 Y71.93242
X18.35978 Y71.57031
X18.07189 Y71.25302
X17.73245 Y71.00910
X17.35980 Y70.84380
X16.96118 Y70.75850
X16.54319 Y70.75632
X16.12374 Y70.84380
X15.75112 Y71.00910
X15.41167 Y71.25302
X15.13037 Y71.56218
X14.91472 Y71.93242
X14.78821 Y72.31997
X14.74233 Y72.75634
X14.78821 Y73.17181
X14.91472 Y73.55934
X15.12376 Y73.92144
X15.41167 Y74.23876
X15.75112 Y74.48268
X16.12374 Y74.64798
X16.53273 Y74.73492
X16.94040 Y74.73548
X17.35980 Y74.64798
X17.74177 Y74.47793
X18.07189 Y74.23876
X18.35320 Y73.92959
X18.56884 Y73.55936
X18.69536 Y73.17181
X18.74123 Y72.73544
G04 P0 ( dwell for no time -- G64 should not smooth over this point )
G00 Z5.00000 ( retract )

G00 X20.51573 Y78.43962 ( rapid move to begin. )
F300.00000
G01 Z-0.05000
G04 P0 ( dwell for no time -- G64 should not smooth over this point )
F600.00000
X20.51573 Y78.43962
X20.32381 Y77.97734
X20.32330 Y77.47701
X20.51443 Y77.01442
X20.86800 Y76.66022
X21.33031 Y76.46830
X21.83058 Y76.46779
X22.29319 Y76.65895
X22.64745 Y77.01257
X22.83935 Y77.47470
X22.83985 Y77.97508
X22.64869 Y78.43771
X22.29507 Y78.79194
X21.83292 Y78.98384
X21.33257 Y78.98434
X20.86993 Y78.79318
X20.51573 Y78.43962
G04 P0 ( dwell for no time -- G64 should not smooth over this point )
G00 Z5.00000 ( retract )

G00 X22.53101 Y77.71561 ( rapid move to begin. )
F300.00000
G01 Z-0.05000
G04 P0 ( dwell for no time -- G64 should not smooth over this point )
F600.00000
X22.53101 Y77.71561
X22.50810 Y77.51846
X22.44943 Y77.33967
X22.35012 Y77.16769
X22.22464 Y77.02750
X22.05657 Y76.90335
X21.87514 Y76.82258
X21.69119 Y76.78293
X21.49276 Y76.78074
X21.28799 Y76.82258
X21.11590 Y76.89860
X20.93851 Y77.02750
X20.81303 Y77.16769
X20.71372 Y77.33967
X20.65070 Y77.53891
X20.63214 Y77.73652
X20.65505 Y77.93367
X20.71372 Y78.11244
X20.81301 Y78.28442
X20.93851 Y78.42463
X21.10656 Y78.54876
X21.28799 Y78.62956
X21.48230 Y78.67086
X21.67041 Y78.67142
X21.87514 Y78.62956
X22.04725 Y78.55353
X22.22464 Y78.42463
X22.35014 Y78.28445
X22.44943 Y78.11246
X22.51082 Y77.92356
X22.53101 Y77.71561
G04 P0 ( dwell for no time -- G64 should not smooth over this point )
G00 Z5.00000 ( retract )

G00 X23.48600 Y82.02993 ( rapid move to begin. )
F300.00000
G01 Z-0.05000
G04 P0 ( dwell for no time -- G64 should not smooth over this point )
F600.00000
X23.48600 Y82.02993
X23.85766 Y81.89587
X24.32832 Y81.91942
X24.57711 Y82.02991
X24.33492 Y82.27215
X24.11122 Y82.21827
X23.94150 Y82.21881
X23.72824 Y82.27215
X23.48600 Y82.02993
G04 P0 ( dwell for no time -- G64 should not smooth over this point )
G00 Z5.00000 ( retract )

G00 X22.85138 Y83.24997 ( rapid move to begin. )
F300.00000
G01 Z-0.05000
G04 P0 ( dwell for no time -- G64 should not smooth over this point )
F600.00000
X22.85138 Y83.24997
X22.87493 Y82.77931
X22.98542 Y82.53051
X23.22807 Y82.77311
X23.18679 Y82.90720
X23.17013 Y83.06562
X23.18679 Y83.24494
X23.22804 Y83.37893
X22.98385 Y83.62116
X22.85138 Y83.24997
G04 P0 ( dwell for no time -- G64 should not smooth over this point )
G00 Z5.00000 ( retract )

G00 X23.73480 Y84.23272 ( rapid move to begin. )
F300.00000
G01 Z-0.05000
G04 P0 ( dwell for no time -- G64 should not smooth over this point )
F600.00000
X23.73480 Y84.23272
X23.48603 Y84.12221
X23.72822 Y83.87997
X23.95197 Y83.93389
X24.13200 Y83.93168
X24.33492 Y83.87999
X24.57711 Y84.12215
X24.20175 Y84.25761
X23.73480 Y84.23272
G04 P0 ( dwell for no time -- G64 should not smooth over this point )
G00 Z5.00000 ( retract )

G00 X24.83510 Y82.77314 ( rapid move to begin. )
F300.00000
G01 Z-0.05000
G04 P0 ( dwell for no time -- G64 should not smooth over this point )
F600.00000
X24.83510 Y82.77314
X25.07929 Y82.53095
X25.21176 Y82.90214
X25.18821 Y83.37280
X25.07772 Y83.62160
X24.83510 Y83.37903
X24.87475 Y83.25528
X24.89357 Y83.07606
X24.87637 Y82.90720
X24.83510 Y82.77314
G04 P0 ( dwell for no time -- G64 should not smooth over this point )
G00 Z5.00000 ( retract )

G00 X30.93102 Y78.91561 ( rapid move to begin. )
F300.00000
G01 Z-0.05000
G04 P0 ( dwell for no time -- G64 should not smooth over this point )
F600.00000
X30.93102 Y78.91561
X30.90811 Y78.71846
X30.84944 Y78.53967
X30.75012 Y78.36768
X30.62465 Y78.22750
X30.45658 Y78.10335
X30.27514 Y78.02257
X30.09120 Y77.98292
X29.89277 Y77.98074
X29.68800 Y78.02257
X29.51591 Y78.09860
X29.33852 Y78.22750
X29.21304 Y78.36768
X29.11373 Y78.53967
X29.05071 Y78.73890
X29.03214 Y78.93652
X29.05506 Y79.13367
X29.11373 Y79.31244
X29.21302 Y79.48442
X29.33852 Y79.62463
X29.50657 Y79.74876
X29.68800 Y79.82955
X29.88231 Y79.87085
X30.07042 Y79.87141
X30.27514 Y79.82955
X30.44725 Y79.75353
X30.62465 Y79.62463
X30.75015 Y79.48444
X30.84944 Y79.31246
X30.91083 Y79.12356
X30.93102 Y78.91561
G04 P0 ( dwell for no time -- G64 should not smooth over this point )
G00 Z5.00000 ( retract )

G00 X31.04741 Y78.21251 ( rapid move to begin. )
F300.00000
G01 Z-0.05000
G04 P0 ( dwell for no time -- G64 should not smooth over this point )
F600.00000
X31.04741 Y78.21251
X31.23933 Y78.67479
X31.23986 Y79.17512
X31.04870 Y79.63771
X30.69513 Y79.99189
X30.23283 Y80.18383
X29.73257 Y80.18434
X29.26994 Y79.99318
X28.91569 Y79.63956
X28.72379 Y79.17741
X28.72328 Y78.67705
X28.91444 Y78.21442
X29.26801 Y77.86024
X29.73031 Y77.66829
X30.23057 Y77.66779
X30.69320 Y77.85895
X31.04741 Y78.21251
G04 P0 ( dwell for no time -- G64 should not smooth over this point )
G00 Z5.00000 ( retract )

G00 X39.49131 Y76.47589 ( rapid move to begin. )
F300.00000
G01 Z-0.05000
G04 P0 ( dwell for no time -- G64 should not smooth over this point )
F600.00000
X39.49131 Y76.47589
X39.99158 Y76.47538
X40.45419 Y76.66654
X40.80845 Y77.02016
X41.00035 Y77.48232
X41.00085 Y77.98267
X40.80969 Y78.44531
X40.45612 Y78.79951
X39.99384 Y78.99143
X39.49357 Y78.99194
X39.03093 Y78.80078
X38.67673 Y78.44721
X38.48481 Y77.98493
X38.48430 Y77.48460
X38.67543 Y77.02202
X39.02900 Y76.66784
X39.49131 Y76.47589
G04 P0 ( dwell for no time -- G64 should not smooth over this point )
G00 Z5.00000 ( retract )

G00 X40.69201 Y77.72323 ( rapid move to begin. )
F300.00000
G01 Z-0.05000
G04 P0 ( dwell for no time -- G64 should not smooth over this point )
F600.00000
X40.69201 Y77.72323
X40.66910 Y77.52608
X40.61043 Y77.34729
X40.51112 Y77.17531
X40.38564 Y77.03512
X40.21757 Y76.91097
X40.03614 Y76.83020
X39.85219 Y76.79055
X39.65376 Y76.78836
X39.44899 Y76.83020
X39.27690 Y76.90622
X39.09951 Y77.03512
X38.97403 Y77.17531
X38.87472 Y77.34729
X38.81170 Y77.54653
X38.79314 Y77.74414
X38.81605 Y77.94129
X38.87472 Y78.12006
X38.97401 Y78.29204
X39.09951 Y78.43225
X39.26756 Y78.55638
X39.44899 Y78.63718
X39.64330 Y78.67848
X39.83141 Y78.67904
X40.03614 Y78.63718
X40.20825 Y78.56115
X40.38564 Y78.43225
X40.51114 Y78.29207
X40.61043 Y78.12008
X40.67182 Y77.93118
X40.69201 Y77.72323
G04 P0 ( dwell for no time -- G64 should not smooth over this point )
G00 Z5.00000 ( retract )

G00 X41.64700 Y82.03753 ( rapid move to begin. )
F300.00000
G01 Z-0.05000
G04 P0 ( dwell for no time -- G64 should not smooth over this point )
F600.00000
X41.64700 Y82.03753
X42.01861 Y81.90346
X42.48929 Y81.92701
X42.73809 Y82.03750
X42.49590 Y82.27977
X42.27222 Y82.22589
X42.10250 Y82.22643
X41.88929 Y82.27977
X41.64700 Y82.03753
G04 P0 ( dwell for no time -- G64 should not smooth over this point )
G00 Z5.00000 ( retract )

G00 X41.38904 Y83.38655 ( rapid move to begin. )
F300.00000
G01 Z-0.05000
G04 P0 ( dwell for no time -- G64 should not smooth over this point )
F600.00000
X41.38904 Y83.38655
X41.14485 Y83.62878
X41.01238 Y83.25759
X41.03593 Y82.78693
X41.14642 Y82.53811
X41.38907 Y82.78073
X41.34779 Y82.91482
X41.33113 Y83.07324
X41.34779 Y83.25256
X41.38904 Y83.38655
G04 P0 ( dwell for no time -- G64 should not smooth over this point )
G00 Z5.00000 ( retract )

G00 X42.49592 Y83.88761 ( rapid move to begin. )
F300.00000
G01 Z-0.05000
G04 P0 ( dwell for no time -- G64 should not smooth over this point )
F600.00000
X42.49592 Y83.88761
X42.73758 Y84.13168
X42.30636 Y84.29299
X42.21955 Y84.25916
X41.89623 Y84.24047
X41.64949 Y84.13823
X41.88922 Y83.88759
X42.11297 Y83.94151
X42.29300 Y83.93930
X42.49592 Y83.88761
G04 P0 ( dwell for no time -- G64 should not smooth over this point )
G00 Z5.00000 ( retract )

G00 X42.99610 Y83.38665 ( rapid move to begin. )
F300.00000
G01 Z-0.05000
G04 P0 ( dwell for no time -- G64 should not smooth over this point )
F600.00000
X42.99610 Y83.38665
X43.03575 Y83.26290
X43.05457 Y83.08368
X43.03737 Y82.91482
X42.99610 Y82.78076
X43.24032 Y82.53857
X43.37276 Y82.90969
X43.34921 Y83.38040
X43.24715 Y83.62675
X42.99610 Y83.38665
G04 P0 ( dwell for no time -- G64 should not smooth over this point )
G00 Z5.00000 ( retract )

G00 X47.42901 Y77.86784 ( rapid move to begin. )
F300.00000
G01 Z-0.05000
G04 P0 ( dwell for no time -- G64 should not smooth over this point )
F600.00000
X47.42901 Y77.86784
X47.89131 Y77.67589
X48.39159 Y77.67538
X48.85420 Y77.86654
X49.20841 Y78.22011
X49.40033 Y78.68239
X49.40086 Y79.18272
X49.20970 Y79.64530
X48.85613 Y79.99951
X48.39383 Y80.19143
X47.89357 Y80.19194
X47.43094 Y80.00078
X47.07669 Y79.64716
X46.88479 Y79.18500
X46.88428 Y78.68465
X47.07544 Y78.22201
X47.42901 Y77.86784
G04 P0 ( dwell for no time -- G64 should not smooth over this point )
G00 Z5.00000 ( retract )

G00 X49.09202 Y78.92323 ( rapid move to begin. )
F300.00000
G01 Z-0.05000
G04 P0 ( dwell for no time -- G64 should not smooth over this point )
F600.00000
X49.09202 Y78.92323
X49.06911 Y78.72608
X49.01044 Y78.54729
X48.91112 Y78.37530
X48.78565 Y78.23512
X48.61758 Y78.11097
X48.43614 Y78.03019
X48.25220 Y77.99054
X48.05377 Y77.98836
X47.84900 Y78.03019
X47.67691 Y78.10622
X47.49952 Y78.23512
X47.37404 Y78.37530
X47.27473 Y78.54729
X47.21171 Y78.74652
X47.19314 Y78.94414
X47.21606 Y79.14129
X47.27473 Y79.32006
X47.37402 Y79.49204
X47.49952 Y79.63225
X47.66757 Y79.75638
X47.84900 Y79.83717
X48.04331 Y79.87847
X48.23142 Y79.87903
X48.43614 Y79.83717
X48.60825 Y79.76115
X48.78565 Y79.63225
X48.91115 Y79.49206
X49.01044 Y79.32008
X49.07183 Y79.13118
X49.09202 Y78.92323
G04 P0 ( dwell for no time -- G64 should not smooth over this point )
G00 Z5.00000 ( retract )

G00 X51.35999 Y71.69421 ( rapid move to begin. )
F300.00000
G01 Z-0.05000
G04 P0 ( dwell for no time -- G64 should not smooth over this point )
F600.00000
X51.35999 Y71.69421
X52.00865 Y71.04441
X52.85673 Y70.69229
X53.77472 Y70.69140
X54.62341 Y71.04207
X55.27324 Y71.69076
X55.62536 Y72.53881
X55.62622 Y73.45682
X55.27555 Y74.30551
X54.62689 Y74.95532
X53.77881 Y75.30744
X52.86082 Y75.30833
X52.01213 Y74.95766
X51.36230 Y74.30897
X51.01018 Y73.46091
X51.00929 Y72.54293
X51.35999 Y71.69421
G04 P0 ( dwell for no time -- G64 should not smooth over this point )
G00 Z5.00000 ( retract )

G00 X55.31723 Y72.98944 ( rapid move to begin. )
F300.00000
G01 Z-0.05000
G04 P0 ( dwell for no time -- G64 should not smooth over this point )
F600.00000
X55.31723 Y72.98944
X55.27136 Y72.57397
X55.14484 Y72.18642
X54.93578 Y71.82431
X54.64789 Y71.50702
X54.30845 Y71.26310
X53.93580 Y71.09780
X53.53718 Y71.01250
X53.11919 Y71.01032
X52.69974 Y71.09780
X52.32712 Y71.26310
X51.98767 Y71.50702
X51.70637 Y71.81618
X51.49072 Y72.18642
X51.36421 Y72.57397
X51.31833 Y73.01034
X51.36421 Y73.42581
X51.49072 Y73.81334
X51.69976 Y74.17544
X51.98767 Y74.49276
X52.32712 Y74.73668
X52.69974 Y74.90198
X53.10873 Y74.98892
X53.51640 Y74.98948
X53.93580 Y74.90198
X54.31777 Y74.73193
X54.64789 Y74.49276
X54.92920 Y74.18359
X55.14484 Y73.81336
X55.27136 Y73.42581
X55.31723 Y72.98944
G04 P0 ( dwell for no time -- G64 should not smooth over this point )
G00 Z5.00000 ( retract )

G00 X58.15258 Y76.52618 ( rapid move to begin. )
F300.00000
G01 Z-0.05000
G04 P0 ( dwell for no time -- G64 should not smooth over this point )
F600.00000
X58.15258 Y76.52618
X58.61519 Y76.71734
X58.96945 Y77.07096
X59.16135 Y77.53312
X59.16185 Y78.03347
X58.97069 Y78.49611
X58.61712 Y78.85031
X58.15484 Y79.04223
X57.65457 Y79.04274
X57.19193 Y78.85158
X56.83773 Y78.49801
X56.64581 Y78.03573
X56.64530 Y77.53540
X56.83643 Y77.07282
X57.19000 Y76.71864
X57.65231 Y76.52669
X58.15258 Y76.52618
G04 P0 ( dwell for no time -- G64 should not smooth over this point )
G00 Z5.00000 ( retract )

G00 X58.85301 Y77.77403 ( rapid move to begin. )
F300.00000
G01 Z-0.05000
G04 P0 ( dwell for no time -- G64 should not smooth over this point )
F600.00000
X58.85301 Y77.77403
X58.83010 Y77.57688
X58.77143 Y77.39809
X58.67212 Y77.22611
X58.54664 Y77.08592
X58.37857 Y76.96177
X58.19714 Y76.88100
X58.01319 Y76.84135
X57.81476 Y76.83916
X57.60999 Y76.88100
X57.43790 Y76.95702
X57.26051 Y77.08592
X57.13503 Y77.22611
X57.03572 Y77.39809
X56.97270 Y77.59733
X56.95414 Y77.79494
X56.97705 Y77.99209
X57.03572 Y78.17086
X57.13501 Y78.34284
X57.26051 Y78.48305
X57.42856 Y78.60718
X57.60999 Y78.68798
X57.80430 Y78.72928
X57.99241 Y78.72984
X58.19714 Y78.68798
X58.36925 Y78.61195
X58.54664 Y78.48305
X58.67214 Y78.34287
X58.77143 Y78.17088
X58.83282 Y77.98198
X58.85301 Y77.77403
G04 P0 ( dwell for no time -- G64 should not smooth over this point )
G00 Z5.00000 ( retract )

G00 X60.17961 Y81.95426 ( rapid move to begin. )
F300.00000
G01 Z-0.05000
G04 P0 ( dwell for no time -- G64 should not smooth over this point )
F600.00000
X60.17961 Y81.95426
X60.65029 Y81.97781
X60.89909 Y82.08830
X60.65690 Y82.33057
X60.43322 Y82.27669
X60.26350 Y82.27723
X60.05029 Y82.33057
X59.80846 Y82.08673
X60.17961 Y81.95426
G04 P0 ( dwell for no time -- G64 should not smooth over this point )
G00 Z5.00000 ( retract )

G00 X61.15710 Y82.83156 ( rapid move to begin. )
F300.00000
G01 Z-0.05000
G04 P0 ( dwell for no time -- G64 should not smooth over this point )
F600.00000
X61.15710 Y82.83156
X61.40132 Y82.58937
X61.53376 Y82.96049
X61.51021 Y83.43120
X61.39972 Y83.68002
X61.15710 Y83.43745
X61.19675 Y83.31370
X61.21557 Y83.13448
X61.19837 Y82.96562
X61.15710 Y82.83156
G04 P0 ( dwell for no time -- G64 should not smooth over this point )
G00 Z5.00000 ( retract )

G00 X59.17338 Y83.30839 ( rapid move to begin. )
F300.00000
G01 Z-0.05000
G04 P0 ( dwell for no time -- G64 should not smooth over this point )
F600.00000
X59.17338 Y83.30839
X59.19693 Y82.83773
X59.30742 Y82.58891
X59.55007 Y82.83153
X59.50879 Y82.96562
X59.49213 Y83.12404
X59.50879 Y83.30336
X59.55004 Y83.43735
X59.30585 Y83.67958
X59.17338 Y83.30839
G04 P0 ( dwell for no time -- G64 should not smooth over this point )
G00 Z5.00000 ( retract )

G00 X67.25302 Y78.97403 ( rapid move to begin. )
F300.00000
G01 Z-0.05000
G04 P0 ( dwell for no time -- G64 should not smooth over this point )
F600.00000
X67.25302 Y78.97403
X67.23011 Y78.77688
X67.17144 Y78.59809
X67.07212 Y78.42610
X66.94665 Y78.28592
X66.77858 Y78.16177
X66.59714 Y78.08099
X66.41320 Y78.04134
X66.21477 Y78.03916
X66.01000 Y78.08099
X65.83791 Y78.15702
X65.66052 Y78.28592
X65.53504 Y78.42610
X65.43573 Y78.59809
X65.37271 Y78.79732
X65.35414 Y78.99494
X65.37706 Y79.19209
X65.43573 Y79.37086
X65.53502 Y79.54284
X65.66052 Y79.68305
X65.82857 Y79.80718
X66.01000 Y79.88797
X66.20431 Y79.92927
X66.39242 Y79.92983
X66.59714 Y79.88797
X66.76925 Y79.81195
X66.94665 Y79.68305
X67.07215 Y79.54286
X67.17144 Y79.37088
X67.23283 Y79.18198
X67.25302 Y78.97403
G04 P0 ( dwell for no time -- G64 should not smooth over this point )
G00 Z5.00000 ( retract )

G00 X67.56186 Y79.23352 ( rapid move to begin. )
F300.00000
G01 Z-0.05000
G04 P0 ( dwell for no time -- G64 should not smooth over this point )
F600.00000
X67.56186 Y79.23352
X67.37070 Y79.69610
X67.01713 Y80.05031
X66.55483 Y80.24223
X66.05457 Y80.24274
X65.59194 Y80.05158
X65.23769 Y79.69796
X65.04579 Y79.23580
X65.04528 Y78.73545
X65.23644 Y78.27281
X65.59001 Y77.91864
X66.05231 Y77.72669
X66.55257 Y77.72618
X67.01520 Y77.91734
X67.36941 Y78.27091
X67.56133 Y78.73319
X67.56186 Y79.23352
G04 P0 ( dwell for no time -- G64 should not smooth over this point )
G00 Z5.00000 ( retract )

G00 X13.07246 Y79.16712 ( rapid move to begin. )
F300.00000
G01 Z-0.05000
G04 P0 ( dwell for no time -- G64 should not smooth over this point )
F600.00000
X13.07246 Y79.16712
X12.88130 Y79.62971
X12.52773 Y79.98388
X12.06543 Y80.17583
X11.56517 Y80.17634
X11.10254 Y79.98518
X10.74834 Y79.63161
X10.55641 Y79.16933
X10.55588 Y78.66900
X10.74704 Y78.20642
X11.10061 Y77.85224
X11.56291 Y77.66029
X12.06317 Y77.65978
X12.52580 Y77.85095
X12.88001 Y78.20451
X13.07193 Y78.66679
X13.07246 Y79.16712
G04 P0 ( dwell for no time -- G64 should not smooth over this point )
G00 Z5.00000 ( retract )

G00 X12.76362 Y78.90764 ( rapid move to begin. )
F300.00000
G01 Z-0.05000
G04 P0 ( dwell for no time -- G64 should not smooth over this point )
F600.00000
X12.76362 Y78.90764
X12.74071 Y78.71048
X12.68204 Y78.53169
X12.58272 Y78.35971
X12.45725 Y78.21952
X12.28918 Y78.09537
X12.10774 Y78.01460
X11.92380 Y77.97495
X11.72537 Y77.97276
X11.52060 Y78.01460
X11.34851 Y78.09062
X11.17112 Y78.21952
X11.04564 Y78.35971
X10.94633 Y78.53169
X10.88331 Y78.73093
X10.86474 Y78.92854
X10.88765 Y79.12570
X10.94633 Y79.30446
X11.04562 Y79.47644
X11.17112 Y79.61665
X11.33916 Y79.74078
X11.52060 Y79.82158
X11.71491 Y79.86288
X11.90302 Y79.86344
X12.10774 Y79.82158
X12.27985 Y79.74556
X12.45725 Y79.61665
X12.58275 Y79.47647
X12.68204 Y79.30449
X12.74343 Y79.11559
X12.76362 Y78.90764
G04 P0 ( dwell for no time -- G64 should not smooth over this point )
G00 Z5.00000 ( retract )

G00 X6.16092 Y81.91141 ( rapid move to begin. )
F300.00000
G01 Z-0.05000
G04 P0 ( dwell for no time -- G64 should not smooth over this point )
F600.00000
X6.16092 Y81.91141
X6.40971 Y82.02190
X6.16752 Y82.26414
X5.94382 Y82.21027
X5.77410 Y82.21080
X5.56084 Y82.26414
X5.31860 Y82.02193
X5.69026 Y81.88787
X6.16092 Y81.91141
G04 P0 ( dwell for no time -- G64 should not smooth over this point )
G00 Z5.00000 ( retract )

G00 X7.02081 Y83.36480 ( rapid move to begin. )
F300.00000
G01 Z-0.05000
G04 P0 ( dwell for no time -- G64 should not smooth over this point )
F600.00000
X7.02081 Y83.36480
X6.91032 Y83.61360
X6.66770 Y83.37103
X6.70735 Y83.24728
X6.72617 Y83.06805
X6.70897 Y82.89920
X6.66770 Y82.76513
X6.91029 Y82.52249
X7.04436 Y82.89414
X7.02081 Y83.36480
G04 P0 ( dwell for no time -- G64 should not smooth over this point )
G00 Z5.00000 ( retract )

G00 X6.16752 Y83.87199 ( rapid move to begin. )
F300.00000
G01 Z-0.05000
G04 P0 ( dwell for no time -- G64 should not smooth over this point )
F600.00000
X6.16752 Y83.87199
X6.40928 Y84.11578
X6.03808 Y84.24824
X5.56740 Y84.22472
X5.31863 Y84.11420
X5.56082 Y83.87196
X5.78457 Y83.92589
X5.96460 Y83.92368
X6.16752 Y83.87199
G04 P0 ( dwell for no time -- G64 should not smooth over this point )
G00 Z5.00000 ( retract )

G00 X5.06064 Y83.37092 ( rapid move to begin. )
F300.00000
G01 Z-0.05000
G04 P0 ( dwell for no time -- G64 should not smooth over this point )
F600.00000
X5.06064 Y83.37092
X4.81644 Y83.61316
X4.68398 Y83.24197
X4.70753 Y82.77131
X4.81802 Y82.52251
X5.06067 Y82.76511
X5.01939 Y82.89920
X5.00273 Y83.05762
X5.01939 Y83.23694
X5.06064 Y83.37092
G04 P0 ( dwell for no time -- G64 should not smooth over this point )
G00 Z5.00000 ( retract )

G00 X4.36361 Y77.70761 ( rapid move to begin. )
F300.00000
G01 Z-0.05000
G04 P0 ( dwell for no time -- G64 should not smooth over this point )
F600.00000
X4.36361 Y77.70761
X4.34070 Y77.51046
X4.28203 Y77.33167
X4.18271 Y77.15968
X4.05724 Y77.01950
X3.88917 Y76.89535
X3.70773 Y76.81457
X3.52379 Y76.77493
X3.32536 Y76.77274
X3.12059 Y76.81457
X2.94850 Y76.89060
X2.77111 Y77.01950
X2.64563 Y77.15968
X2.54632 Y77.33167
X2.48330 Y77.53091
X2.46474 Y77.72852
X2.48765 Y77.92567
X2.54632 Y78.10444
X2.64561 Y78.27642
X2.77111 Y78.41663
X2.93916 Y78.54076
X3.12059 Y78.62156
X3.31490 Y78.66286
X3.50301 Y78.66342
X3.70773 Y78.62156
X3.87985 Y78.54553
X4.05724 Y78.41663
X4.18274 Y78.27645
X4.28203 Y78.10446
X4.34342 Y77.91556
X4.36361 Y77.70761

G04 P0 ( dwell for no time -- G64 should not smooth over this point )
G00 Z10.000 ( retract )

M5 ( Spindle off. )
M9 ( Coolant off. )
M2 ( Program end. )

