( pcb2gcode 1.3.2 )
( Software-independent Gcode )

G94 ( Millimeters per minute feed rate. )
G21 ( Units == Millimeters. )

G90 ( Absolute coordinates. )
S10000 ( RPM spindle speed. )
G64 P0.01000 ( set maximum deviation from commanded toolpath )
F600.00000 ( Feedrate. )

F600.00000 ( Feedrate. )
M3 ( Spindle on clockwise. )
G04 P0 ( dwell for no time -- G64 should not smooth over this point )
G00 Z5.00000 ( retract )

G00 X18.35361 Y17.11025 ( rapid move to begin. )
F300.00000
G01 Z-0.05000
G04 P0 ( dwell for no time -- G64 should not smooth over this point )
F600.00000
X18.35361 Y17.11025
X18.30146 Y17.00174
X18.30995 Y16.88968
X18.34698 Y16.82153
X18.39372 Y16.77718
X18.51833 Y16.73552
X22.77258 Y16.73537
X22.90272 Y16.77642
X36.90310 Y30.77184
X36.96607 Y30.89295
X36.96523 Y30.97664
X36.92551 Y31.06636
X36.82949 Y31.14207
X36.74258 Y31.15940
X32.49498 Y31.15940
X32.36489 Y31.11830
X18.35361 Y17.11025
G04 P0 ( dwell for no time -- G64 should not smooth over this point )
G00 Z5.00000 ( retract )

G00 X6.49862 Y26.26957 ( rapid move to begin. )
F300.00000
G01 Z-0.05000
G04 P0 ( dwell for no time -- G64 should not smooth over this point )
F600.00000
X6.49862 Y26.26957
X5.84878 Y26.91826
X5.49666 Y27.76631
X5.49577 Y28.68432
X5.84645 Y29.53301
X6.49514 Y30.18282
X7.34319 Y30.53494
X8.26120 Y30.53583
X9.10989 Y30.18515
X9.75970 Y29.53646
X10.11182 Y28.68841
X10.11271 Y27.77043
X9.76203 Y26.92174
X9.11334 Y26.27190
X8.26529 Y25.91978
X7.34731 Y25.91889
X6.49862 Y26.26957
G04 P0 ( dwell for no time -- G64 should not smooth over this point )
G00 Z5.00000 ( retract )

G00 X5.80479 Y28.21693 ( rapid move to begin. )
F300.00000
G01 Z-0.05000
G04 P0 ( dwell for no time -- G64 should not smooth over this point )
F600.00000
X5.80479 Y28.21693
X5.85066 Y27.80146
X5.97718 Y27.41391
X6.18625 Y27.05181
X6.47413 Y26.73451
X6.81358 Y26.49060
X7.18622 Y26.32529
X7.58485 Y26.24000
X8.00283 Y26.23782
X8.42229 Y26.32529
X8.79490 Y26.49060
X9.13435 Y26.73451
X9.41565 Y27.04368
X9.63130 Y27.41391
X9.75782 Y27.80146
X9.80369 Y28.23784
X9.75782 Y28.65330
X9.63130 Y29.04083
X9.42226 Y29.40293
X9.13435 Y29.72026
X8.79490 Y29.96417
X8.42229 Y30.12948
X8.01330 Y30.21642
X7.60563 Y30.21698
X7.18622 Y30.12948
X6.80426 Y29.95942
X6.47413 Y29.72026
X6.19283 Y29.41109
X5.97718 Y29.04086
X5.85066 Y28.65330
X5.80479 Y28.21693
G04 P0 ( dwell for no time -- G64 should not smooth over this point )
G00 Z5.00000 ( retract )

G00 X5.83265 Y38.27010 ( rapid move to begin. )
F300.00000
G01 Z-0.05000
G04 P0 ( dwell for no time -- G64 should not smooth over this point )
F600.00000
X5.83265 Y38.27010
X5.39595 Y38.70602
X5.15933 Y39.27597
X5.15872 Y39.89280
X5.39438 Y40.46316
X5.83029 Y40.89984
X6.40024 Y41.13649
X7.01708 Y41.13710
X7.58744 Y40.90141
X8.02417 Y40.46545
X8.26077 Y39.89565
X8.26138 Y39.27873
X8.02572 Y38.70838
X7.58978 Y38.27168
X7.01985 Y38.03505
X6.40301 Y38.03444
X5.83265 Y38.27010
G04 P0 ( dwell for no time -- G64 should not smooth over this point )
G00 Z5.00000 ( retract )

G00 X5.46758 Y39.57533 ( rapid move to begin. )
F300.00000
G01 Z-0.05000
G04 P0 ( dwell for no time -- G64 should not smooth over this point )
F600.00000
X5.46758 Y39.57533
X5.49692 Y39.31724
X5.57451 Y39.08021
X5.70446 Y38.85516
X5.87093 Y38.66946
X6.08853 Y38.50932
X6.32595 Y38.40363
X6.56979 Y38.35125
X6.82948 Y38.34907
X7.09415 Y38.40363
X7.32219 Y38.50457
X7.54914 Y38.66946
X7.71561 Y38.85516
X7.84555 Y39.08021
X7.92749 Y39.33769
X7.95249 Y39.59623
X7.92315 Y39.85432
X7.84555 Y40.09133
X7.71563 Y40.31638
X7.54914 Y40.50210
X7.33156 Y40.66222
X7.09415 Y40.76794
X6.83994 Y40.82196
X6.59057 Y40.82252
X6.32595 Y40.76794
X6.08856 Y40.66225
X5.88645 Y40.51610
X5.71104 Y40.32453
X5.57076 Y40.08158
X5.49420 Y39.84421
X5.46758 Y39.57533
G04 P0 ( dwell for no time -- G64 should not smooth over this point )
G00 Z5.00000 ( retract )

G00 X8.37265 Y44.62010 ( rapid move to begin. )
F300.00000
G01 Z-0.05000
G04 P0 ( dwell for no time -- G64 should not smooth over this point )
F600.00000
X8.37265 Y44.62010
X7.93595 Y45.05602
X7.69933 Y45.62597
X7.69872 Y46.24280
X7.93438 Y46.81316
X8.37029 Y47.24984
X8.94024 Y47.48649
X9.55708 Y47.48710
X10.12919 Y47.25070
X10.22190 Y47.18436
X10.30420 Y47.16896
X10.39101 Y47.18629
X10.46462 Y47.23556
X10.51375 Y47.30922
X10.53087 Y47.45497
X10.72215 Y47.91791
X11.07598 Y48.27237
X11.53859 Y48.46444
X12.03925 Y48.46495
X12.50219 Y48.27366
X12.85664 Y47.91984
X13.04872 Y47.45720
X13.04923 Y46.95654
X12.85794 Y46.49360
X12.50412 Y46.13917
X12.04148 Y45.94710
X11.54085 Y45.94659
X11.08164 Y46.13318
X10.98360 Y46.13546
X10.90176 Y46.10145
X10.83922 Y46.03879
X10.80547 Y45.95728
X10.80150 Y45.62906
X10.56541 Y45.05767
X10.46221 Y44.95124
X10.36986 Y44.81599
X10.23585 Y44.72442
X10.13051 Y44.62198
X9.55985 Y44.38505
X8.94301 Y44.38444
X8.37265 Y44.62010
G04 P0 ( dwell for no time -- G64 should not smooth over this point )
G00 Z5.00000 ( retract )

G00 X10.30626 Y45.29180 ( rapid move to begin. )
F300.00000
G01 Z-0.05000
G04 P0 ( dwell for no time -- G64 should not smooth over this point )
F600.00000
X10.30626 Y45.29180
X10.38555 Y45.43021
X10.46749 Y45.68769
X10.49249 Y45.94623
X10.46315 Y46.20432
X10.38555 Y46.44133
X10.25563 Y46.66638
X10.08914 Y46.85210
X9.88032 Y47.00653
X9.63415 Y47.11794
X9.39028 Y47.17031
X9.10979 Y47.17031
X8.86595 Y47.11794
X8.62856 Y47.01225
X8.42645 Y46.86610
X8.24444 Y46.66640
X8.11451 Y46.44136
X8.03420 Y46.19421
X8.00705 Y45.93577
X8.03257 Y45.68769
X8.11451 Y45.43021
X8.24446 Y45.20516
X8.41093 Y45.01946
X8.61975 Y44.86503
X8.86595 Y44.75363
X9.10979 Y44.70125
X9.37994 Y44.69960
X9.62401 Y44.75094
X10.00303 Y44.92010
X10.10008 Y44.98246
X10.20339 Y45.08576
X10.26592 Y45.18322
X10.30626 Y45.29180
G04 P0 ( dwell for no time -- G64 should not smooth over this point )
G00 Z5.00000 ( retract )

G00 X12.26559 Y44.52815 ( rapid move to begin. )
F300.00000
G01 Z-0.05000
G04 P0 ( dwell for no time -- G64 should not smooth over this point )
F600.00000
X12.26559 Y44.52815
X13.14879 Y44.16321
X13.82507 Y43.48812
X14.19152 Y42.60555
X14.19243 Y41.65023
X13.82748 Y40.76700
X13.15240 Y40.09075
X12.26985 Y39.72430
X11.31451 Y39.72339
X10.43127 Y40.08833
X9.75502 Y40.76339
X9.38858 Y41.64596
X9.38766 Y42.60131
X9.75261 Y43.48452
X10.42767 Y44.16079
X11.31024 Y44.52724
X12.26559 Y44.52815
G04 P0 ( dwell for no time -- G64 should not smooth over this point )
G00 Z5.00000 ( retract )

G00 X15.81808 Y43.38533 ( rapid move to begin. )
F300.00000
G01 Z-0.05000
G04 P0 ( dwell for no time -- G64 should not smooth over this point )
F600.00000
X15.81808 Y43.38533
X15.84325 Y43.16686
X15.90856 Y42.96770
X16.01856 Y42.77715
X16.17391 Y42.60705
X16.35311 Y42.47957
X16.54480 Y42.39481
X16.74970 Y42.35071
X16.96956 Y42.34853
X17.20505 Y42.39857
X17.40502 Y42.49001
X17.58168 Y42.62104
X17.72151 Y42.77715
X17.83151 Y42.96770
X17.90116 Y43.18731
X17.92199 Y43.40623
X17.89682 Y43.62470
X17.83151 Y43.82384
X17.72153 Y44.01439
X17.56616 Y44.18452
X17.38696 Y44.31200
X17.19529 Y44.39676
X16.98003 Y44.44250
X16.77048 Y44.44306
X16.54480 Y44.39676
X16.35313 Y44.31200
X16.16581 Y44.17794
X16.02514 Y44.02254
X15.90856 Y43.82386
X15.84325 Y43.62470
X15.81808 Y43.38533
G04 P0 ( dwell for no time -- G64 should not smooth over this point )
G00 Z5.00000 ( retract )

G00 X16.09834 Y44.54845 ( rapid move to begin. )
F300.00000
G01 Z-0.05000
G04 P0 ( dwell for no time -- G64 should not smooth over this point )
F600.00000
X16.09834 Y44.54845
X16.59829 Y44.75602
X17.13936 Y44.75657
X17.63967 Y44.54984
X18.02272 Y44.16745
X18.23029 Y43.66750
X18.23085 Y43.12643
X18.02382 Y42.62541
X17.91061 Y42.50606
X17.87299 Y42.37565
X17.89019 Y42.29374
X17.92697 Y42.23529
X18.05366 Y42.15417
X18.16839 Y42.03943
X18.23052 Y41.88947
X18.23052 Y41.23550
X18.20482 Y41.20979
X17.92252 Y41.20979
X17.92062 Y41.82780
X17.87810 Y41.89143
X17.82252 Y41.90829
X15.89801 Y41.90636
X15.84683 Y41.87898
X15.81945 Y41.82780
X15.81752 Y41.20979
X15.53528 Y41.20979
X15.50952 Y41.23555
X15.50952 Y41.88932
X15.57165 Y42.03936
X15.68641 Y42.15412
X15.81292 Y42.23529
X15.84973 Y42.29384
X15.86692 Y42.38071
X15.83365 Y42.49846
X15.71767 Y42.62336
X15.50980 Y43.12401
X15.50924 Y43.66509
X15.71597 Y44.16539
X16.09834 Y44.54845
G04 P0 ( dwell for no time -- G64 should not smooth over this point )
G00 Z5.00000 ( retract )

G00 X15.50952 Y39.82217 ( rapid move to begin. )
F300.00000
G01 Z-0.05000
G04 P0 ( dwell for no time -- G64 should not smooth over this point )
F600.00000
X15.50952 Y39.82217
X15.50952 Y40.47599
X15.53533 Y40.50180
X15.81752 Y40.50180
X15.81752 Y39.90329
X15.83439 Y39.84772
X15.87927 Y39.81089
X15.91752 Y39.80330
X16.51602 Y39.80330
X16.51602 Y39.52100
X16.49032 Y39.49529
X15.83637 Y39.49529
X15.68638 Y39.55740
X15.57170 Y39.67208
X15.50952 Y39.82217
G04 P0 ( dwell for no time -- G64 should not smooth over this point )
G00 Z5.00000 ( retract )

G00 X18.23052 Y39.82209 ( rapid move to begin. )
F300.00000
G01 Z-0.05000
G04 P0 ( dwell for no time -- G64 should not smooth over this point )
F600.00000
X18.23052 Y39.82209
X18.16844 Y39.67215
X18.05369 Y39.55742
X17.90378 Y39.49529
X17.24978 Y39.49529
X17.22402 Y39.52105
X17.22402 Y39.80330
X17.82252 Y39.80330
X17.86080 Y39.81089
X17.90568 Y39.84772
X17.92252 Y39.90329
X17.92252 Y40.50180
X18.20477 Y40.50180
X18.23052 Y40.47604
X18.23052 Y39.82209
G04 P0 ( dwell for no time -- G64 should not smooth over this point )
G00 Z5.00000 ( retract )

G00 X24.51758 Y39.57533 ( rapid move to begin. )
F300.00000
G01 Z-0.05000
G04 P0 ( dwell for no time -- G64 should not smooth over this point )
F600.00000
X24.51758 Y39.57533
X24.54692 Y39.31724
X24.62451 Y39.08021
X24.75446 Y38.85516
X24.92093 Y38.66946
X25.13853 Y38.50932
X25.37595 Y38.40363
X25.61979 Y38.35125
X25.87948 Y38.34907
X26.14415 Y38.40363
X26.37219 Y38.50457
X26.59914 Y38.66946
X26.76561 Y38.85516
X26.89555 Y39.08021
X26.97749 Y39.33769
X27.00249 Y39.59623
X26.97315 Y39.85432
X26.89555 Y40.09133
X26.76563 Y40.31638
X26.59914 Y40.50210
X26.38156 Y40.66222
X26.14415 Y40.76794
X25.88994 Y40.82196
X25.64057 Y40.82252
X25.37595 Y40.76794
X25.13856 Y40.66225
X24.93645 Y40.51610
X24.76104 Y40.32453
X24.62076 Y40.08158
X24.54420 Y39.84421
X24.51758 Y39.57533
G04 P0 ( dwell for no time -- G64 should not smooth over this point )
G00 Z5.00000 ( retract )

G00 X24.88265 Y38.27010 ( rapid move to begin. )
F300.00000
G01 Z-0.05000
G04 P0 ( dwell for no time -- G64 should not smooth over this point )
F600.00000
X24.88265 Y38.27010
X24.44595 Y38.70602
X24.20933 Y39.27594
X24.20872 Y39.89280
X24.44438 Y40.46319
X24.88029 Y40.89984
X25.45024 Y41.13649
X26.06708 Y41.13710
X26.63744 Y40.90141
X27.07417 Y40.46545
X27.31077 Y39.89565
X27.31138 Y39.27873
X27.07572 Y38.70838
X26.63978 Y38.27168
X26.06985 Y38.03505
X25.45301 Y38.03444
X24.88265 Y38.27010
G04 P0 ( dwell for no time -- G64 should not smooth over this point )
G00 Z5.00000 ( retract )

G00 X24.62507 Y31.67926 ( rapid move to begin. )
F300.00000
G01 Z-0.05000
G04 P0 ( dwell for no time -- G64 should not smooth over this point )
F600.00000
X24.62507 Y31.67926
X21.76353 Y34.54080
X27.48659 Y34.54080
X24.62507 Y31.67926
G04 P0 ( dwell for no time -- G64 should not smooth over this point )
G00 Z5.00000 ( retract )

G00 X34.55952 Y39.82217 ( rapid move to begin. )
F300.00000
G01 Z-0.05000
G04 P0 ( dwell for no time -- G64 should not smooth over this point )
F600.00000
X34.55952 Y39.82217
X34.55952 Y40.47599
X34.58533 Y40.50180
X34.86752 Y40.50180
X34.86752 Y39.90329
X34.88439 Y39.84772
X34.92927 Y39.81089
X34.96752 Y39.80330
X35.56602 Y39.80330
X35.56602 Y39.52100
X35.54032 Y39.49529
X34.88637 Y39.49529
X34.73638 Y39.55740
X34.62170 Y39.67208
X34.55952 Y39.82217
G04 P0 ( dwell for no time -- G64 should not smooth over this point )
G00 Z5.00000 ( retract )

G00 X36.95378 Y39.49529 ( rapid move to begin. )
F300.00000
G01 Z-0.05000
G04 P0 ( dwell for no time -- G64 should not smooth over this point )
F600.00000
X36.95378 Y39.49529
X36.29978 Y39.49529
X36.27402 Y39.52105
X36.27402 Y39.80330
X36.87252 Y39.80330
X36.92810 Y39.82014
X36.96493 Y39.86502
X36.97252 Y39.90329
X36.97252 Y40.50180
X37.25477 Y40.50180
X37.28052 Y40.47604
X37.28052 Y39.82209
X37.21844 Y39.67215
X37.10369 Y39.55742
X36.95378 Y39.49529
G04 P0 ( dwell for no time -- G64 should not smooth over this point )
G00 Z5.00000 ( retract )

G00 X34.86808 Y43.38533 ( rapid move to begin. )
F300.00000
G01 Z-0.05000
G04 P0 ( dwell for no time -- G64 should not smooth over this point )
F600.00000
X34.86808 Y43.38533
X34.89325 Y43.16686
X34.95856 Y42.96770
X35.06856 Y42.77715
X35.22391 Y42.60705
X35.40311 Y42.47957
X35.59480 Y42.39481
X35.79970 Y42.35071
X36.01956 Y42.34853
X36.25505 Y42.39857
X36.45502 Y42.49001
X36.63168 Y42.62104
X36.77151 Y42.77715
X36.88151 Y42.96770
X36.95116 Y43.18731
X36.97199 Y43.40623
X36.94682 Y43.62470
X36.88151 Y43.82384
X36.77153 Y44.01439
X36.61616 Y44.18452
X36.43696 Y44.31200
X36.24529 Y44.39676
X36.03003 Y44.44250
X35.82048 Y44.44306
X35.59480 Y44.39676
X35.40313 Y44.31200
X35.21581 Y44.17794
X35.07514 Y44.02254
X34.95856 Y43.82386
X34.89325 Y43.62470
X34.86808 Y43.38533
G04 P0 ( dwell for no time -- G64 should not smooth over this point )
G00 Z5.00000 ( retract )

G00 X35.14834 Y44.54845 ( rapid move to begin. )
F300.00000
G01 Z-0.05000
G04 P0 ( dwell for no time -- G64 should not smooth over this point )
F600.00000
X35.14834 Y44.54845
X35.64829 Y44.75602
X36.18936 Y44.75657
X36.68967 Y44.54984
X37.07272 Y44.16745
X37.28029 Y43.66750
X37.28085 Y43.12643
X37.07382 Y42.62541
X36.96061 Y42.50606
X36.92299 Y42.37565
X36.94019 Y42.29374
X36.97697 Y42.23529
X37.10366 Y42.15417
X37.21839 Y42.03943
X37.28052 Y41.88947
X37.28052 Y41.23550
X37.25482 Y41.20979
X36.97252 Y41.20979
X36.97062 Y41.82780
X36.92810 Y41.89143
X36.87252 Y41.90829
X34.94801 Y41.90636
X34.89683 Y41.87898
X34.86945 Y41.82780
X34.86752 Y41.20979
X34.58528 Y41.20979
X34.55952 Y41.23555
X34.55952 Y41.88932
X34.62165 Y42.03936
X34.73641 Y42.15412
X34.86292 Y42.23529
X34.89973 Y42.29384
X34.91692 Y42.38071
X34.88365 Y42.49846
X34.76767 Y42.62336
X34.55980 Y43.12401
X34.55924 Y43.66509
X34.76597 Y44.16539
X35.14834 Y44.54845
G04 P0 ( dwell for no time -- G64 should not smooth over this point )
G00 Z5.00000 ( retract )

G00 X32.19879 Y44.16321 ( rapid move to begin. )
F300.00000
G01 Z-0.05000
G04 P0 ( dwell for no time -- G64 should not smooth over this point )
F600.00000
X32.19879 Y44.16321
X32.87507 Y43.48812
X33.24152 Y42.60555
X33.24243 Y41.65023
X32.87748 Y40.76700
X32.20240 Y40.09075
X31.31985 Y39.72430
X30.36451 Y39.72339
X29.48127 Y40.08833
X28.80502 Y40.76339
X28.43858 Y41.64596
X28.43766 Y42.60131
X28.80261 Y43.48452
X29.47767 Y44.16079
X30.36024 Y44.52724
X31.31559 Y44.52815
X32.19879 Y44.16321
G04 P0 ( dwell for no time -- G64 should not smooth over this point )
G00 Z5.00000 ( retract )

G00 X29.35626 Y45.29180 ( rapid move to begin. )
F300.00000
G01 Z-0.05000
G04 P0 ( dwell for no time -- G64 should not smooth over this point )
F600.00000
X29.35626 Y45.29180
X29.43555 Y45.43021
X29.51749 Y45.68769
X29.54249 Y45.94623
X29.51315 Y46.20432
X29.43555 Y46.44133
X29.30563 Y46.66638
X29.13914 Y46.85210
X28.93032 Y47.00653
X28.68415 Y47.11794
X28.44028 Y47.17031
X28.15979 Y47.17031
X27.91595 Y47.11794
X27.67856 Y47.01225
X27.47645 Y46.86610
X27.29444 Y46.66640
X27.16451 Y46.44136
X27.08420 Y46.19421
X27.05705 Y45.93577
X27.08257 Y45.68769
X27.16451 Y45.43021
X27.29446 Y45.20516
X27.46093 Y45.01946
X27.66975 Y44.86503
X27.91595 Y44.75363
X28.15979 Y44.70125
X28.42994 Y44.69960
X28.67401 Y44.75094
X29.05303 Y44.92010
X29.15008 Y44.98246
X29.25339 Y45.08576
X29.31592 Y45.18322
X29.35626 Y45.29180
G04 P0 ( dwell for no time -- G64 should not smooth over this point )
G00 Z5.00000 ( retract )

G00 X27.42265 Y44.62010 ( rapid move to begin. )
F300.00000
G01 Z-0.05000
G04 P0 ( dwell for no time -- G64 should not smooth over this point )
F600.00000
X27.42265 Y44.62010
X26.98595 Y45.05602
X26.74933 Y45.62597
X26.74872 Y46.24280
X26.98438 Y46.81316
X27.42029 Y47.24984
X27.99024 Y47.48649
X28.60708 Y47.48710
X29.17919 Y47.25070
X29.27190 Y47.18436
X29.35420 Y47.16896
X29.44101 Y47.18629
X29.51462 Y47.23556
X29.56375 Y47.30922
X29.58087 Y47.45497
X29.77215 Y47.91791
X30.12598 Y48.27237
X30.58859 Y48.46444
X31.08925 Y48.46495
X31.55219 Y48.27366
X31.90664 Y47.91984
X32.09872 Y47.45720
X32.09923 Y46.95654
X31.90794 Y46.49360
X31.55412 Y46.13917
X31.09148 Y45.94710
X30.59085 Y45.94659
X30.13164 Y46.13318
X30.03360 Y46.13546
X29.95176 Y46.10145
X29.88922 Y46.03879
X29.85547 Y45.95728
X29.85150 Y45.62906
X29.61541 Y45.05767
X29.51221 Y44.95124
X29.41986 Y44.81599
X29.28585 Y44.72442
X29.18051 Y44.62198
X28.60985 Y44.38505
X27.99301 Y44.38444
X27.42265 Y44.62010
G04 P0 ( dwell for no time -- G64 should not smooth over this point )
G00 Z5.00000 ( retract )

G00 X43.56758 Y39.57533 ( rapid move to begin. )
F300.00000
G01 Z-0.05000
G04 P0 ( dwell for no time -- G64 should not smooth over this point )
F600.00000
X43.56758 Y39.57533
X43.59692 Y39.31724
X43.67451 Y39.08021
X43.80446 Y38.85516
X43.97093 Y38.66946
X44.18853 Y38.50932
X44.42595 Y38.40363
X44.66979 Y38.35125
X44.92948 Y38.34907
X45.19415 Y38.40363
X45.42219 Y38.50457
X45.64914 Y38.66946
X45.81561 Y38.85516
X45.94555 Y39.08021
X46.02749 Y39.33769
X46.05249 Y39.59623
X46.02315 Y39.85432
X45.94555 Y40.09133
X45.81563 Y40.31638
X45.64914 Y40.50210
X45.43156 Y40.66222
X45.19415 Y40.76794
X44.93994 Y40.82196
X44.69057 Y40.82252
X44.42595 Y40.76794
X44.18856 Y40.66225
X43.98645 Y40.51610
X43.81104 Y40.32453
X43.67076 Y40.08158
X43.59420 Y39.84421
X43.56758 Y39.57533
G04 P0 ( dwell for no time -- G64 should not smooth over this point )
G00 Z5.00000 ( retract )

G00 X43.93265 Y38.27010 ( rapid move to begin. )
F300.00000
G01 Z-0.05000
G04 P0 ( dwell for no time -- G64 should not smooth over this point )
F600.00000
X43.93265 Y38.27010
X43.49595 Y38.70602
X43.25933 Y39.27594
X43.25872 Y39.89280
X43.49438 Y40.46319
X43.93029 Y40.89984
X44.50024 Y41.13649
X45.11708 Y41.13710
X45.68744 Y40.90141
X46.12417 Y40.46545
X46.36077 Y39.89565
X46.36138 Y39.27873
X46.12572 Y38.70838
X45.68978 Y38.27168
X45.11985 Y38.03505
X44.50301 Y38.03444
X43.93265 Y38.27010
G04 P0 ( dwell for no time -- G64 should not smooth over this point )
G00 Z5.00000 ( retract )

G00 X46.47265 Y44.62010 ( rapid move to begin. )
F300.00000
G01 Z-0.05000
G04 P0 ( dwell for no time -- G64 should not smooth over this point )
F600.00000
X46.47265 Y44.62010
X46.03595 Y45.05602
X45.79933 Y45.62597
X45.79872 Y46.24280
X46.03438 Y46.81316
X46.47029 Y47.24984
X47.04024 Y47.48649
X47.65708 Y47.48710
X48.22919 Y47.25070
X48.32190 Y47.18436
X48.40420 Y47.16896
X48.49101 Y47.18629
X48.56462 Y47.23556
X48.61375 Y47.30922
X48.63087 Y47.45497
X48.82215 Y47.91791
X49.17598 Y48.27237
X49.63859 Y48.46444
X50.13925 Y48.46495
X50.60219 Y48.27366
X50.95664 Y47.91984
X51.14872 Y47.45720
X51.14923 Y46.95654
X50.95794 Y46.49360
X50.60412 Y46.13917
X50.14148 Y45.94710
X49.64085 Y45.94659
X49.18164 Y46.13318
X49.08360 Y46.13546
X49.00176 Y46.10145
X48.93922 Y46.03879
X48.90547 Y45.95728
X48.90150 Y45.62906
X48.66541 Y45.05767
X48.56221 Y44.95124
X48.46986 Y44.81599
X48.33585 Y44.72442
X48.23051 Y44.62198
X47.65985 Y44.38505
X47.04301 Y44.38444
X46.47265 Y44.62010
G04 P0 ( dwell for no time -- G64 should not smooth over this point )
G00 Z5.00000 ( retract )

G00 X48.40626 Y45.29180 ( rapid move to begin. )
F300.00000
G01 Z-0.05000
G04 P0 ( dwell for no time -- G64 should not smooth over this point )
F600.00000
X48.40626 Y45.29180
X48.48555 Y45.43021
X48.56749 Y45.68769
X48.59249 Y45.94623
X48.56315 Y46.20432
X48.48555 Y46.44133
X48.35563 Y46.66638
X48.18914 Y46.85210
X47.98032 Y47.00653
X47.73415 Y47.11794
X47.49028 Y47.17031
X47.20979 Y47.17031
X46.96595 Y47.11794
X46.72856 Y47.01225
X46.52645 Y46.86610
X46.34444 Y46.66640
X46.21451 Y46.44136
X46.13420 Y46.19421
X46.10705 Y45.93577
X46.13257 Y45.68769
X46.21451 Y45.43021
X46.34446 Y45.20516
X46.51093 Y45.01946
X46.71975 Y44.86503
X46.96595 Y44.75363
X47.20979 Y44.70125
X47.47994 Y44.69960
X47.72401 Y44.75094
X48.10303 Y44.92010
X48.20008 Y44.98246
X48.30339 Y45.08576
X48.36592 Y45.18322
X48.40626 Y45.29180
G04 P0 ( dwell for no time -- G64 should not smooth over this point )
G00 Z5.00000 ( retract )

G00 X51.92507 Y43.48812 ( rapid move to begin. )
F300.00000
G01 Z-0.05000
G04 P0 ( dwell for no time -- G64 should not smooth over this point )
F600.00000
X51.92507 Y43.48812
X52.29152 Y42.60555
X52.29243 Y41.65023
X51.92748 Y40.76700
X51.25240 Y40.09075
X50.36985 Y39.72430
X49.41451 Y39.72339
X48.53127 Y40.08833
X47.85502 Y40.76339
X47.48858 Y41.64596
X47.48766 Y42.60131
X47.85261 Y43.48452
X48.52767 Y44.16079
X49.41024 Y44.52724
X50.36559 Y44.52815
X51.24879 Y44.16321
X51.92507 Y43.48812
G04 P0 ( dwell for no time -- G64 should not smooth over this point )
G00 Z5.00000 ( retract )

G00 X53.91808 Y43.38533 ( rapid move to begin. )
F300.00000
G01 Z-0.05000
G04 P0 ( dwell for no time -- G64 should not smooth over this point )
F600.00000
X53.91808 Y43.38533
X53.94325 Y43.16686
X54.00856 Y42.96770
X54.11856 Y42.77715
X54.27391 Y42.60705
X54.45311 Y42.47957
X54.64480 Y42.39481
X54.84970 Y42.35071
X55.06956 Y42.34853
X55.30505 Y42.39857
X55.50502 Y42.49001
X55.68168 Y42.62104
X55.82151 Y42.77715
X55.93151 Y42.96770
X56.00116 Y43.18731
X56.02199 Y43.40623
X55.99682 Y43.62470
X55.93151 Y43.82384
X55.82153 Y44.01439
X55.66616 Y44.18452
X55.48696 Y44.31200
X55.29529 Y44.39676
X55.08003 Y44.44250
X54.87048 Y44.44306
X54.64480 Y44.39676
X54.45313 Y44.31200
X54.26581 Y44.17794
X54.12514 Y44.02254
X54.00856 Y43.82386
X53.94325 Y43.62470
X53.91808 Y43.38533
G04 P0 ( dwell for no time -- G64 should not smooth over this point )
G00 Z5.00000 ( retract )

G00 X54.19834 Y44.54845 ( rapid move to begin. )
F300.00000
G01 Z-0.05000
G04 P0 ( dwell for no time -- G64 should not smooth over this point )
F600.00000
X54.19834 Y44.54845
X54.69829 Y44.75602
X55.23936 Y44.75657
X55.73967 Y44.54984
X56.12272 Y44.16745
X56.33029 Y43.66750
X56.33085 Y43.12643
X56.12382 Y42.62541
X56.01061 Y42.50606
X55.97299 Y42.37565
X55.99019 Y42.29374
X56.02697 Y42.23529
X56.15366 Y42.15417
X56.26839 Y42.03943
X56.33052 Y41.88947
X56.33052 Y41.23550
X56.30482 Y41.20979
X56.02252 Y41.20979
X56.02062 Y41.82780
X55.97810 Y41.89143
X55.92252 Y41.90829
X53.99801 Y41.90636
X53.94683 Y41.87898
X53.91945 Y41.82780
X53.91752 Y41.20979
X53.63528 Y41.20979
X53.60952 Y41.23555
X53.60952 Y41.88932
X53.67165 Y42.03936
X53.78641 Y42.15412
X53.91292 Y42.23529
X53.94973 Y42.29384
X53.96692 Y42.38071
X53.93365 Y42.49846
X53.81767 Y42.62336
X53.60980 Y43.12401
X53.60924 Y43.66509
X53.81597 Y44.16539
X54.19834 Y44.54845
G04 P0 ( dwell for no time -- G64 should not smooth over this point )
G00 Z5.00000 ( retract )

G00 X56.30477 Y40.50180 ( rapid move to begin. )
F300.00000
G01 Z-0.05000
G04 P0 ( dwell for no time -- G64 should not smooth over this point )
F600.00000
X56.30477 Y40.50180
X56.33052 Y40.47604
X56.33052 Y39.82209
X56.26844 Y39.67215
X56.15369 Y39.55742
X56.00378 Y39.49529
X55.34978 Y39.49529
X55.32402 Y39.52105
X55.32402 Y39.80330
X55.92252 Y39.80330
X55.99324 Y39.83258
X56.02252 Y39.90329
X56.02252 Y40.50180
X56.30477 Y40.50180
G04 P0 ( dwell for no time -- G64 should not smooth over this point )
G00 Z5.00000 ( retract )

G00 X53.60952 Y39.82217 ( rapid move to begin. )
F300.00000
G01 Z-0.05000
G04 P0 ( dwell for no time -- G64 should not smooth over this point )
F600.00000
X53.60952 Y39.82217
X53.60952 Y40.47599
X53.63533 Y40.50180
X53.91752 Y40.50180
X53.91752 Y39.90329
X53.93439 Y39.84772
X53.97927 Y39.81089
X54.01752 Y39.80330
X54.61602 Y39.80330
X54.61602 Y39.52100
X54.59032 Y39.49529
X53.93637 Y39.49529
X53.78638 Y39.55740
X53.67170 Y39.67208
X53.60952 Y39.82217
G04 P0 ( dwell for no time -- G64 should not smooth over this point )
G00 Z5.00000 ( retract )

G00 X62.61758 Y39.57533 ( rapid move to begin. )
F300.00000
G01 Z-0.05000
G04 P0 ( dwell for no time -- G64 should not smooth over this point )
F600.00000
X62.61758 Y39.57533
X62.64692 Y39.31724
X62.72451 Y39.08021
X62.85446 Y38.85516
X63.02093 Y38.66946
X63.23853 Y38.50932
X63.47595 Y38.40363
X63.71979 Y38.35125
X63.97948 Y38.34907
X64.24415 Y38.40363
X64.47219 Y38.50457
X64.69914 Y38.66946
X64.86561 Y38.85516
X64.99555 Y39.08021
X65.07749 Y39.33769
X65.10249 Y39.59623
X65.07315 Y39.85432
X64.99555 Y40.09133
X64.86563 Y40.31638
X64.69914 Y40.50210
X64.48156 Y40.66222
X64.24415 Y40.76794
X63.98994 Y40.82196
X63.74057 Y40.82252
X63.47595 Y40.76794
X63.23856 Y40.66225
X63.03645 Y40.51610
X62.86104 Y40.32453
X62.72076 Y40.08158
X62.64420 Y39.84421
X62.61758 Y39.57533
G04 P0 ( dwell for no time -- G64 should not smooth over this point )
G00 Z5.00000 ( retract )

G00 X62.98265 Y38.27010 ( rapid move to begin. )
F300.00000
G01 Z-0.05000
G04 P0 ( dwell for no time -- G64 should not smooth over this point )
F600.00000
X62.98265 Y38.27010
X62.54595 Y38.70602
X62.30933 Y39.27594
X62.30872 Y39.89280
X62.54438 Y40.46319
X62.98029 Y40.89984
X63.55024 Y41.13649
X64.16708 Y41.13710
X64.73744 Y40.90141
X65.17417 Y40.46545
X65.41077 Y39.89565
X65.41138 Y39.27873
X65.17572 Y38.70838
X64.73978 Y38.27168
X64.16985 Y38.03505
X63.55301 Y38.03444
X62.98265 Y38.27010
G04 P0 ( dwell for no time -- G64 should not smooth over this point )
G00 Z5.00000 ( retract )

G00 X65.52265 Y44.62010 ( rapid move to begin. )
F300.00000
G01 Z-0.05000
G04 P0 ( dwell for no time -- G64 should not smooth over this point )
F600.00000
X65.52265 Y44.62010
X65.08595 Y45.05602
X64.84933 Y45.62597
X64.84872 Y46.24280
X65.08438 Y46.81316
X65.52029 Y47.24984
X66.09024 Y47.48649
X66.70708 Y47.48710
X67.27919 Y47.25070
X67.37190 Y47.18436
X67.45420 Y47.16896
X67.54101 Y47.18629
X67.61462 Y47.23556
X67.66375 Y47.30922
X67.68087 Y47.45497
X67.87215 Y47.91791
X68.22598 Y48.27237
X68.68859 Y48.46444
X69.18925 Y48.46495
X69.65219 Y48.27366
X70.00664 Y47.91984
X70.19872 Y47.45720
X70.19923 Y46.95654
X70.00794 Y46.49360
X69.65412 Y46.13917
X69.19148 Y45.94710
X68.69085 Y45.94659
X68.23164 Y46.13318
X68.13360 Y46.13546
X68.05176 Y46.10145
X67.98922 Y46.03879
X67.95547 Y45.95728
X67.95150 Y45.62906
X67.71541 Y45.05767
X67.61221 Y44.95124
X67.51986 Y44.81599
X67.38585 Y44.72442
X67.28051 Y44.62198
X66.70985 Y44.38505
X66.09301 Y44.38444
X65.52265 Y44.62010
G04 P0 ( dwell for no time -- G64 should not smooth over this point )
G00 Z5.00000 ( retract )

G00 X67.45626 Y45.29180 ( rapid move to begin. )
F300.00000
G01 Z-0.05000
G04 P0 ( dwell for no time -- G64 should not smooth over this point )
F600.00000
X67.45626 Y45.29180
X67.53555 Y45.43021
X67.61749 Y45.68769
X67.64249 Y45.94623
X67.61315 Y46.20432
X67.53555 Y46.44133
X67.40563 Y46.66638
X67.23914 Y46.85210
X67.03032 Y47.00653
X66.78415 Y47.11794
X66.54028 Y47.17031
X66.25979 Y47.17031
X66.01595 Y47.11794
X65.77856 Y47.01225
X65.57645 Y46.86610
X65.39444 Y46.66640
X65.26451 Y46.44136
X65.18420 Y46.19421
X65.15705 Y45.93577
X65.18257 Y45.68769
X65.26451 Y45.43021
X65.39446 Y45.20516
X65.56093 Y45.01946
X65.76975 Y44.86503
X66.01595 Y44.75363
X66.25979 Y44.70125
X66.52994 Y44.69960
X66.77401 Y44.75094
X67.15303 Y44.92010
X67.25008 Y44.98246
X67.35339 Y45.08576
X67.41592 Y45.18322
X67.45626 Y45.29180
G04 P0 ( dwell for no time -- G64 should not smooth over this point )
G00 Z5.00000 ( retract )

G00 X71.34152 Y42.60555 ( rapid move to begin. )
F300.00000
G01 Z-0.05000
G04 P0 ( dwell for no time -- G64 should not smooth over this point )
F600.00000
X71.34152 Y42.60555
X71.34243 Y41.65023
X70.97748 Y40.76700
X70.30240 Y40.09075
X69.41985 Y39.72430
X68.46451 Y39.72339
X67.58127 Y40.08833
X66.90502 Y40.76339
X66.53858 Y41.64596
X66.53766 Y42.60131
X66.90261 Y43.48452
X67.57767 Y44.16079
X68.46024 Y44.52724
X69.41559 Y44.52815
X70.29879 Y44.16321
X70.97507 Y43.48812
X71.34152 Y42.60555
G04 P0 ( dwell for no time -- G64 should not smooth over this point )
G00 Z5.00000 ( retract )

G00 X72.96808 Y43.38533 ( rapid move to begin. )
F300.00000
G01 Z-0.05000
G04 P0 ( dwell for no time -- G64 should not smooth over this point )
F600.00000
X72.96808 Y43.38533
X72.99325 Y43.16686
X73.05856 Y42.96770
X73.16856 Y42.77715
X73.32391 Y42.60705
X73.50311 Y42.47957
X73.69480 Y42.39481
X73.89970 Y42.35071
X74.11956 Y42.34853
X74.35505 Y42.39857
X74.55502 Y42.49001
X74.73168 Y42.62104
X74.87151 Y42.77715
X74.98151 Y42.96770
X75.05116 Y43.18731
X75.07199 Y43.40623
X75.04682 Y43.62470
X74.98151 Y43.82384
X74.87153 Y44.01439
X74.71616 Y44.18452
X74.53696 Y44.31200
X74.34529 Y44.39676
X74.13003 Y44.44250
X73.92048 Y44.44306
X73.69480 Y44.39676
X73.50313 Y44.31200
X73.31581 Y44.17794
X73.17514 Y44.02254
X73.05856 Y43.82386
X72.99325 Y43.62470
X72.96808 Y43.38533
G04 P0 ( dwell for no time -- G64 should not smooth over this point )
G00 Z5.00000 ( retract )

G00 X73.24834 Y44.54845 ( rapid move to begin. )
F300.00000
G01 Z-0.05000
G04 P0 ( dwell for no time -- G64 should not smooth over this point )
F600.00000
X73.24834 Y44.54845
X73.74829 Y44.75602
X74.28936 Y44.75657
X74.78967 Y44.54984
X75.17272 Y44.16745
X75.38029 Y43.66750
X75.38085 Y43.12643
X75.17382 Y42.62541
X75.06061 Y42.50606
X75.02299 Y42.37565
X75.04019 Y42.29374
X75.07697 Y42.23529
X75.20366 Y42.15417
X75.31839 Y42.03943
X75.38052 Y41.88947
X75.38052 Y41.23550
X75.35482 Y41.20979
X75.07252 Y41.20979
X75.07062 Y41.82780
X75.02810 Y41.89143
X74.97252 Y41.90829
X73.04801 Y41.90636
X72.99683 Y41.87898
X72.96945 Y41.82780
X72.96752 Y41.20979
X72.68528 Y41.20979
X72.65952 Y41.23555
X72.65952 Y41.88932
X72.72165 Y42.03936
X72.83641 Y42.15412
X72.96292 Y42.23529
X72.99973 Y42.29384
X73.01692 Y42.38071
X72.98365 Y42.49846
X72.86767 Y42.62336
X72.65980 Y43.12401
X72.65924 Y43.66509
X72.86597 Y44.16539
X73.24834 Y44.54845
G04 P0 ( dwell for no time -- G64 should not smooth over this point )
G00 Z5.00000 ( retract )

G00 X72.65952 Y39.82217 ( rapid move to begin. )
F300.00000
G01 Z-0.05000
G04 P0 ( dwell for no time -- G64 should not smooth over this point )
F600.00000
X72.65952 Y39.82217
X72.65952 Y40.47599
X72.68533 Y40.50180
X72.96752 Y40.50180
X72.96752 Y39.90329
X72.98439 Y39.84772
X73.02927 Y39.81089
X73.06752 Y39.80330
X73.66602 Y39.80330
X73.66602 Y39.52100
X73.64032 Y39.49529
X72.98637 Y39.49529
X72.83638 Y39.55740
X72.72170 Y39.67208
X72.65952 Y39.82217
G04 P0 ( dwell for no time -- G64 should not smooth over this point )
G00 Z5.00000 ( retract )

G00 X75.38052 Y39.82209 ( rapid move to begin. )
F300.00000
G01 Z-0.05000
G04 P0 ( dwell for no time -- G64 should not smooth over this point )
F600.00000
X75.38052 Y39.82209
X75.31844 Y39.67215
X75.20369 Y39.55742
X75.05378 Y39.49529
X74.39978 Y39.49529
X74.37402 Y39.52105
X74.37402 Y39.80330
X74.97252 Y39.80330
X75.01080 Y39.81089
X75.05568 Y39.84772
X75.07252 Y39.90329
X75.07252 Y40.50180
X75.35477 Y40.50180
X75.38052 Y40.47604
X75.38052 Y39.82209
G04 P0 ( dwell for no time -- G64 should not smooth over this point )
G00 Z5.00000 ( retract )

G00 X81.66758 Y39.57533 ( rapid move to begin. )
F300.00000
G01 Z-0.05000
G04 P0 ( dwell for no time -- G64 should not smooth over this point )
F600.00000
X81.66758 Y39.57533
X81.69692 Y39.31724
X81.77451 Y39.08021
X81.90446 Y38.85516
X82.07093 Y38.66946
X82.28853 Y38.50932
X82.52595 Y38.40363
X82.76979 Y38.35125
X83.02948 Y38.34907
X83.29415 Y38.40363
X83.52219 Y38.50457
X83.74914 Y38.66946
X83.91561 Y38.85516
X84.04555 Y39.08021
X84.12749 Y39.33769
X84.15249 Y39.59623
X84.12315 Y39.85432
X84.04555 Y40.09133
X83.91563 Y40.31638
X83.74914 Y40.50210
X83.53156 Y40.66222
X83.29415 Y40.76794
X83.03994 Y40.82196
X82.79057 Y40.82252
X82.52595 Y40.76794
X82.28856 Y40.66225
X82.08645 Y40.51610
X81.91104 Y40.32453
X81.77076 Y40.08158
X81.69420 Y39.84421
X81.66758 Y39.57533
G04 P0 ( dwell for no time -- G64 should not smooth over this point )
G00 Z5.00000 ( retract )

G00 X82.03265 Y38.27010 ( rapid move to begin. )
F300.00000
G01 Z-0.05000
G04 P0 ( dwell for no time -- G64 should not smooth over this point )
F600.00000
X82.03265 Y38.27010
X81.59595 Y38.70602
X81.35933 Y39.27594
X81.35872 Y39.89280
X81.59438 Y40.46319
X82.03029 Y40.89984
X82.60024 Y41.13649
X83.21708 Y41.13710
X83.78744 Y40.90141
X84.22417 Y40.46545
X84.46077 Y39.89565
X84.46138 Y39.27873
X84.22572 Y38.70838
X83.78978 Y38.27168
X83.21985 Y38.03505
X82.60301 Y38.03444
X82.03265 Y38.27010
G04 P0 ( dwell for no time -- G64 should not smooth over this point )
G00 Z5.00000 ( retract )

G00 X86.69714 Y34.54080 ( rapid move to begin. )
F300.00000
G01 Z-0.05000
G04 P0 ( dwell for no time -- G64 should not smooth over this point )
F600.00000
X86.69714 Y34.54080
X86.94507 Y34.29287
X86.89554 Y34.14130
X86.87478 Y33.96495
X86.87478 Y33.23691
X86.89554 Y33.06051
X86.94397 Y32.91141
X87.03661 Y32.74773
X87.14809 Y32.62310
X87.29927 Y32.51123
X87.45182 Y32.44273
X87.62505 Y32.40367
X87.82342 Y32.40367
X87.99665 Y32.44273
X88.14923 Y32.51123
X88.30038 Y32.62310
X88.41186 Y32.74773
X88.50074 Y32.90163
X88.55294 Y33.06051
X88.57420 Y33.24738
X88.57420 Y33.95449
X88.55985 Y34.08296
X89.03653 Y34.56033
X89.09713 Y34.63721
X89.15598 Y34.77186
X91.71059 Y37.34071
X91.77518 Y37.46157
X91.80746 Y37.57460
X91.81752 Y37.68196
X91.81752 Y44.03643
X96.13778 Y48.35669
X114.01423 Y48.35669
X114.66063 Y47.71034
X114.65423 Y46.93739
X114.67120 Y46.77097
X114.72774 Y46.59165
X114.81090 Y46.44654
X114.92809 Y46.31311
X115.07927 Y46.20125
X115.25169 Y46.12629
X115.42583 Y46.09150
X115.59309 Y46.09203
X115.75679 Y46.12629
X115.92923 Y46.20125
X116.08039 Y46.31311
X116.19187 Y46.43775
X116.27599 Y46.58233
X116.33294 Y46.75053
X116.35420 Y46.93739
X116.35367 Y47.65494
X116.33729 Y47.81087
X116.29461 Y47.94923
X116.70208 Y48.35669
X132.54642 Y48.35669
X133.78927 Y47.11385
X133.91424 Y46.95957
X133.93120 Y46.72096
X133.98775 Y46.54164
X134.07662 Y46.38774
X134.18810 Y46.26310
X134.34860 Y46.14649
X134.51170 Y46.07628
X134.68584 Y46.04148
X134.85310 Y46.04202
X135.03666 Y46.08273
X135.18924 Y46.15124
X135.34040 Y46.26310
X135.45188 Y46.38774
X135.54075 Y46.54164
X135.59729 Y46.72096
X135.61421 Y46.95952
X137.01136 Y48.35669
X148.85558 Y48.35669
X153.76421 Y43.44809
X153.76421 Y36.04460
X153.67668 Y35.94709
X153.59248 Y35.80241
X153.53553 Y35.63422
X153.51422 Y35.44740
X153.51478 Y34.92693
X153.53553 Y34.75052
X153.58773 Y34.59165
X153.67661 Y34.43775
X153.78809 Y34.31311
X153.94859 Y34.19650
X154.11168 Y34.12629
X154.28582 Y34.09150
X154.45308 Y34.09203
X154.63665 Y34.13275
X154.78923 Y34.20125
X154.94038 Y34.31311
X155.05186 Y34.43775
X155.14074 Y34.59165
X155.19294 Y34.75052
X155.21366 Y34.92693
X155.21419 Y35.44740
X155.19294 Y35.63422
X155.13599 Y35.80241
X155.05179 Y35.94709
X154.96421 Y36.04463
X154.95415 Y43.80390
X154.91437 Y43.93501
X154.85727 Y44.03775
X154.78849 Y44.12081
X149.52840 Y49.38092
X149.44537 Y49.44971
X149.34263 Y49.50681
X149.23072 Y49.54275
X149.11395 Y49.55618
X95.87875 Y49.55613
X95.77482 Y49.54519
X95.65500 Y49.50856
X95.55399 Y49.45372
X95.46499 Y49.38092
X90.79329 Y44.70923
X90.71361 Y44.60989
X90.63147 Y44.41154
X90.61752 Y44.28500
X90.61752 Y37.93043
X88.42789 Y35.74079
X49.82291 Y35.74079
X49.61405 Y35.84948
X49.42002 Y35.89076
X49.26323 Y35.89076
X49.08908 Y35.85593
X48.92599 Y35.78573
X48.86043 Y35.74079
X13.10500 Y35.74079
X12.99766 Y35.73066
X12.88466 Y35.69840
X12.78011 Y35.64471
X12.68804 Y35.57163
X11.20145 Y34.08568
X10.88075 Y34.08578
X10.64938 Y34.10508
X10.47433 Y34.07516
X10.31837 Y34.01471
X10.17781 Y33.92408
X10.05071 Y33.80006
X9.94692 Y33.64326
X9.88106 Y33.46714
X9.85543 Y33.29142
X9.86473 Y33.12442
X9.90748 Y32.96274
X9.98616 Y32.80351
X10.10323 Y32.65634
X10.26206 Y32.52396
X10.40981 Y32.44718
X10.56973 Y32.40067
X10.72581 Y32.38581
X11.20000 Y32.38581
X11.36643 Y32.40273
X11.55507 Y32.46402
X11.69965 Y32.54814
X11.82429 Y32.65962
X11.93615 Y32.81078
X12.00465 Y32.96335
X12.04537 Y33.14692
X12.04590 Y33.23313
X13.35357 Y34.54080
X20.06651 Y34.54080
X24.12502 Y30.48228
X24.12502 Y27.19537
X23.95007 Y27.14663
X23.79284 Y27.06408
X23.66323 Y26.95839
X23.31621 Y26.61061
X23.20615 Y26.47124
X23.12749 Y26.31203
X23.08472 Y26.15034
X23.07542 Y25.98333
X23.10105 Y25.80759
X23.16264 Y25.64107
X23.27069 Y25.47470
X23.39780 Y25.35067
X23.53839 Y25.26002
X23.71446 Y25.19418
X23.89020 Y25.16855
X24.05723 Y25.17785
X24.21890 Y25.22062
X24.37811 Y25.29929
X24.51748 Y25.40934
X24.86526 Y25.75636
X24.97095 Y25.88597
X25.05350 Y26.04320
X25.10158 Y26.21414
X25.11306 Y26.40195
X25.09076 Y26.54447
X25.12502 Y26.71818
X25.12502 Y30.48223
X28.97038 Y34.32764
X29.59314 Y33.70488
X29.66189 Y33.54024
X29.77424 Y33.40958
X29.79120 Y33.17097
X29.84775 Y32.99165
X29.93662 Y32.83775
X30.04810 Y32.71311
X30.19928 Y32.60125
X30.35183 Y32.53275
X30.52506 Y32.49368
X30.70263 Y32.49150
X30.87680 Y32.52630
X31.03989 Y32.59650
X31.20040 Y32.71311
X31.31188 Y32.83775
X31.40075 Y32.99165
X31.45729 Y33.17097
X31.47421 Y33.38583
X32.64208 Y34.54080
X48.11969 Y34.54080
X48.49162 Y34.16886
X48.50859 Y34.00097
X48.56513 Y33.82165
X48.65401 Y33.66775
X48.76549 Y33.54311
X48.92599 Y33.42650
X49.08908 Y33.35629
X49.26323 Y33.32149
X49.43048 Y33.32203
X49.61405 Y33.36274
X49.76663 Y33.43125
X49.91778 Y33.54311
X50.02926 Y33.66775
X50.11814 Y33.82165
X50.17468 Y34.00097
X50.19160 Y34.16881
X50.56358 Y34.54080
X67.27373 Y34.54080
X67.90423 Y33.91029
X67.92555 Y33.58052
X67.97774 Y33.42165
X68.07320 Y33.25962
X68.19362 Y33.12914
X68.32928 Y33.03125
X68.50169 Y32.95629
X68.67584 Y32.92150
X68.84310 Y32.92203
X69.02666 Y32.96274
X69.17924 Y33.03125
X69.33039 Y33.14311
X69.44187 Y33.26775
X69.53451 Y33.43143
X69.58729 Y33.60097
X69.60421 Y33.91024
X70.23476 Y34.54080
X86.69714 Y34.54080
G04 P0 ( dwell for no time -- G64 should not smooth over this point )
G00 Z5.00000 ( retract )

G00 X88.92718 Y31.26737 ( rapid move to begin. )
F300.00000
G01 Z-0.05000
G04 P0 ( dwell for no time -- G64 should not smooth over this point )
F600.00000
X88.92718 Y31.26737
X38.04128 Y31.26737
X37.93424 Y31.25536
X37.77191 Y31.18810
X37.68776 Y31.12089
X22.99424 Y16.42737
X8.95348 Y16.41917
X8.84111 Y16.38508
X8.69506 Y16.28749
X7.58802 Y15.18107
X7.49064 Y15.21041
X7.33468 Y15.22681
X6.77375 Y15.22681
X6.61782 Y15.21041
X6.44830 Y15.15762
X6.28462 Y15.06502
X6.14601 Y14.93799
X6.04812 Y14.80235
X5.97962 Y14.64978
X5.93834 Y14.45577
X5.94055 Y14.27817
X5.97962 Y14.10495
X6.04337 Y13.96172
X6.14601 Y13.81673
X6.28465 Y13.68971
X6.43855 Y13.60086
X6.59740 Y13.54866
X6.78421 Y13.52740
X7.33468 Y13.52793
X7.51109 Y13.54866
X7.66018 Y13.59710
X7.83199 Y13.69631
X7.94850 Y13.80121
X8.05465 Y13.94358
X8.13532 Y14.12481
X8.17012 Y14.34904
X9.24845 Y15.42737
X23.20128 Y15.42737
X23.30836 Y15.43934
X23.40153 Y15.46961
X23.55484 Y15.57380
X38.24841 Y30.26737
X89.13422 Y30.26737
X89.31633 Y30.30209
X89.40363 Y30.34660
X89.48778 Y30.41380
X95.96359 Y36.88961
X96.03461 Y36.97991
X96.08007 Y37.07394
X96.11002 Y37.24318
X96.11002 Y42.20283
X96.07530 Y42.38490
X96.03085 Y42.47215
X95.96359 Y42.55635
X94.70276 Y43.80565
X94.59918 Y43.86102
X94.50494 Y43.88762
X93.99064 Y43.89579
X93.92153 Y44.01439
X93.76616 Y44.18452
X93.58696 Y44.31200
X93.39529 Y44.39676
X93.16956 Y44.44306
X92.97048 Y44.44306
X92.75491 Y44.39945
X92.55313 Y44.31200
X92.36581 Y44.17794
X92.21285 Y44.00562
X92.10856 Y43.82386
X92.04325 Y43.62470
X92.01755 Y43.39577
X92.04325 Y43.16686
X92.10856 Y42.96770
X92.21285 Y42.78594
X92.37391 Y42.60705
X92.53500 Y42.49001
X92.73502 Y42.39857
X92.94970 Y42.35071
X93.18003 Y42.34906
X93.40505 Y42.39857
X93.60502 Y42.49001
X93.77429 Y42.61363
X93.92153 Y42.77718
X93.99059 Y42.89580
X94.20997 Y42.89580
X95.11002 Y41.99575
X95.11002 Y37.45021
X88.92718 Y31.26737
G04 P0 ( dwell for no time -- G64 should not smooth over this point )
G00 Z5.00000 ( retract )

G00 X91.67716 Y30.03738 ( rapid move to begin. )
F300.00000
G01 Z-0.05000
G04 P0 ( dwell for no time -- G64 should not smooth over this point )
F600.00000
X91.67716 Y30.03738
X38.50836 Y30.03738
X38.40132 Y30.02536
X38.23899 Y29.95810
X38.15484 Y29.89089
X23.49132 Y15.22737
X11.37420 Y15.22737
X11.19213 Y15.19260
X11.10483 Y15.14810
X11.02068 Y15.08089
X6.84716 Y10.90737
X6.53781 Y10.89040
X6.36829 Y10.83762
X6.20461 Y10.74501
X6.07997 Y10.63350
X5.96811 Y10.48235
X5.89316 Y10.30991
X5.85833 Y10.13576
X5.85889 Y9.96851
X5.89316 Y9.80480
X5.96811 Y9.63234
X6.07997 Y9.48121
X6.20464 Y9.36970
X6.34919 Y9.28560
X6.51739 Y9.22865
X6.70420 Y9.20739
X7.42178 Y9.20793
X7.59818 Y9.22865
X7.74728 Y9.27709
X7.91096 Y9.36973
X8.03560 Y9.48121
X8.14746 Y9.63236
X8.21596 Y9.78494
X8.25668 Y9.96851
X8.25503 Y10.15654
X8.21596 Y10.32977
X8.14746 Y10.48232
X8.01025 Y10.65629
X11.58134 Y14.22737
X23.69833 Y14.22737
X23.80542 Y14.23934
X23.96775 Y14.30660
X24.05190 Y14.37381
X38.71547 Y29.03738
X91.89202 Y29.03768
X92.06342 Y29.07055
X92.16499 Y29.12417
X92.23777 Y29.18381
X94.72417 Y31.67027
X94.95343 Y31.66369
X95.12666 Y31.70275
X95.27924 Y31.77126
X95.43039 Y31.88312
X95.56415 Y32.04525
X95.80525 Y32.28634
X95.91094 Y32.41596
X95.99349 Y32.57319
X96.04484 Y32.76480
X96.05196 Y32.94227
X96.02742 Y33.09714
X95.96158 Y33.27321
X95.87093 Y33.41380
X95.74690 Y33.54090
X95.59011 Y33.64468
X95.43418 Y33.70514
X95.25915 Y33.73508
X95.06100 Y33.72469
X94.89006 Y33.67661
X94.73283 Y33.59406
X94.60322 Y33.48837
X94.25323 Y33.13839
X94.14246 Y33.00120
X94.06565 Y32.85340
X94.02044 Y32.70237
X94.00459 Y32.51555
X94.01864 Y32.37888
X91.67716 Y30.03738
G04 P0 ( dwell for no time -- G64 should not smooth over this point )
G00 Z5.00000 ( retract )

G00 X91.84376 Y37.02400 ( rapid move to begin. )
F300.00000
G01 Z-0.05000
G04 P0 ( dwell for no time -- G64 should not smooth over this point )
F600.00000
X91.84376 Y37.02400
X89.43447 Y34.61474
X89.23198 Y34.31946
X88.92317 Y34.00564
X88.88222 Y33.87577
X88.88222 Y33.26958
X88.79002 Y32.80598
X88.53996 Y32.43171
X88.16569 Y32.18164
X87.72424 Y32.09379
X87.28283 Y32.18159
X86.90857 Y32.43166
X86.65850 Y32.80593
X86.56622 Y33.26978
X86.56965 Y34.05964
X86.54992 Y34.10994
X86.49477 Y34.17877
X86.43630 Y34.21550
X86.34941 Y34.23280
X70.45633 Y34.23280
X70.36946 Y34.21550
X70.29549 Y34.16594
X69.93080 Y33.79498
X69.89707 Y33.71337
X69.81995 Y33.32558
X69.66692 Y33.08883
X69.65272 Y32.96780
X69.66905 Y32.91103
X69.71630 Y32.84184
X69.78996 Y32.79264
X69.87685 Y32.77539
X74.14095 Y32.77974
X74.22271 Y32.81360
X74.28256 Y32.87222
X74.32010 Y32.96689
X74.57143 Y33.34303
X74.94570 Y33.59310
X75.40955 Y33.68537
X75.96180 Y33.68537
X76.42563 Y33.59315
X76.79990 Y33.34308
X77.04996 Y32.96882
X77.13782 Y32.52736
X77.05001 Y32.08596
X76.93556 Y31.91118
X76.91087 Y31.84662
X76.90899 Y31.77750
X76.95725 Y31.66105
X77.00747 Y31.61357
X77.08926 Y31.57971
X88.73028 Y31.57781
X88.78309 Y31.58929
X88.86604 Y31.64184
X94.75137 Y37.53063
X94.78056 Y37.57612
X94.80202 Y37.67190
X94.80202 Y39.57779
X94.78655 Y39.66004
X94.75795 Y39.71175
X94.72041 Y39.75072
X94.64312 Y39.79319
X94.57502 Y39.80477
X94.48818 Y39.78750
X94.41808 Y39.74167
X94.25369 Y39.55742
X94.10378 Y39.49529
X93.44978 Y39.49529
X93.42402 Y39.52105
X93.42402 Y39.80330
X94.04205 Y39.80520
X94.09324 Y39.83258
X94.12062 Y39.88376
X94.12252 Y41.80829
X94.10568 Y41.86384
X94.06080 Y41.90067
X92.11752 Y41.90829
X92.06197 Y41.89143
X92.02514 Y41.84655
X92.01945 Y39.88376
X92.04683 Y39.83258
X92.09801 Y39.80520
X92.71602 Y39.80330
X92.71602 Y39.52100
X92.69032 Y39.49529
X92.35252 Y39.49529
X92.26565 Y39.47800
X92.18544 Y39.42151
X92.13561 Y39.33129
X92.12557 Y37.70434
X92.05235 Y37.33619
X91.84376 Y37.02400
G04 P0 ( dwell for no time -- G64 should not smooth over this point )
G00 Z5.00000 ( retract )

G00 X100.64595 Y38.70602 ( rapid move to begin. )
F300.00000
G01 Z-0.05000
G04 P0 ( dwell for no time -- G64 should not smooth over this point )
F600.00000
X100.64595 Y38.70602
X100.40933 Y39.27597
X100.40872 Y39.89280
X100.64438 Y40.46316
X101.08029 Y40.89984
X101.65024 Y41.13649
X102.26708 Y41.13710
X102.83744 Y40.90141
X103.27417 Y40.46545
X103.51077 Y39.89565
X103.51138 Y39.27873
X103.27572 Y38.70838
X102.83978 Y38.27168
X102.26985 Y38.03505
X101.65301 Y38.03444
X101.08265 Y38.27010
X100.64595 Y38.70602
G04 P0 ( dwell for no time -- G64 should not smooth over this point )
G00 Z5.00000 ( retract )

G00 X100.71758 Y39.57533 ( rapid move to begin. )
F300.00000
G01 Z-0.05000
G04 P0 ( dwell for no time -- G64 should not smooth over this point )
F600.00000
X100.71758 Y39.57533
X100.74692 Y39.31724
X100.82451 Y39.08021
X100.95446 Y38.85516
X101.12093 Y38.66946
X101.33853 Y38.50932
X101.57595 Y38.40363
X101.81979 Y38.35125
X102.07948 Y38.34907
X102.34415 Y38.40363
X102.57219 Y38.50457
X102.79914 Y38.66946
X102.96561 Y38.85516
X103.09555 Y39.08021
X103.17749 Y39.33769
X103.20249 Y39.59623
X103.17315 Y39.85432
X103.09555 Y40.09133
X102.96563 Y40.31638
X102.79914 Y40.50210
X102.58156 Y40.66222
X102.34415 Y40.76794
X102.08994 Y40.82196
X101.84057 Y40.82252
X101.57595 Y40.76794
X101.33856 Y40.66225
X101.13645 Y40.51610
X100.96104 Y40.32453
X100.82076 Y40.08158
X100.74420 Y39.84421
X100.71758 Y39.57533
G04 P0 ( dwell for no time -- G64 should not smooth over this point )
G00 Z5.00000 ( retract )

G00 X105.55626 Y45.29180 ( rapid move to begin. )
F300.00000
G01 Z-0.05000
G04 P0 ( dwell for no time -- G64 should not smooth over this point )
F600.00000
X105.55626 Y45.29180
X105.63555 Y45.43021
X105.71749 Y45.68769
X105.74249 Y45.94623
X105.71315 Y46.20432
X105.63555 Y46.44133
X105.50563 Y46.66638
X105.33914 Y46.85210
X105.13032 Y47.00653
X104.88415 Y47.11794
X104.64028 Y47.17031
X104.35979 Y47.17031
X104.11595 Y47.11794
X103.87856 Y47.01225
X103.67645 Y46.86610
X103.49444 Y46.66640
X103.36451 Y46.44136
X103.28420 Y46.19421
X103.25705 Y45.93577
X103.28257 Y45.68769
X103.36451 Y45.43021
X103.49446 Y45.20516
X103.66093 Y45.01946
X103.86975 Y44.86503
X104.11595 Y44.75363
X104.35979 Y44.70125
X104.62994 Y44.69960
X104.87401 Y44.75094
X105.25303 Y44.92010
X105.35008 Y44.98246
X105.45339 Y45.08576
X105.51592 Y45.18322
X105.55626 Y45.29180
G04 P0 ( dwell for no time -- G64 should not smooth over this point )
G00 Z5.00000 ( retract )

G00 X106.56024 Y44.52724 ( rapid move to begin. )
F300.00000
G01 Z-0.05000
G04 P0 ( dwell for no time -- G64 should not smooth over this point )
F600.00000
X106.56024 Y44.52724
X107.51559 Y44.52815
X108.39879 Y44.16321
X109.07507 Y43.48812
X109.44152 Y42.60555
X109.44243 Y41.65023
X109.07748 Y40.76700
X108.40240 Y40.09075
X107.51985 Y39.72430
X106.56451 Y39.72339
X105.68127 Y40.08833
X105.00502 Y40.76339
X104.63858 Y41.64596
X104.63766 Y42.60131
X105.00261 Y43.48452
X105.67767 Y44.16079
X106.56024 Y44.52724
G04 P0 ( dwell for no time -- G64 should not smooth over this point )
G00 Z5.00000 ( retract )

G00 X111.76602 Y39.80330 ( rapid move to begin. )
F300.00000
G01 Z-0.05000
G04 P0 ( dwell for no time -- G64 should not smooth over this point )
F600.00000
X111.76602 Y39.80330
X111.76602 Y39.52100
X111.74032 Y39.49529
X111.08637 Y39.49529
X110.93638 Y39.55740
X110.82170 Y39.67208
X110.75952 Y39.82217
X110.75952 Y40.47599
X110.78533 Y40.50180
X111.06752 Y40.50180
X111.06752 Y39.90329
X111.08439 Y39.84772
X111.11197 Y39.82014
X111.16752 Y39.80330
X111.76602 Y39.80330
G04 P0 ( dwell for no time -- G64 should not smooth over this point )
G00 Z5.00000 ( retract )

G00 X107.75412 Y35.97917 ( rapid move to begin. )
F300.00000
G01 Z-0.05000
G04 P0 ( dwell for no time -- G64 should not smooth over this point )
F600.00000
X107.75412 Y35.97917
X107.29148 Y35.78710
X106.79085 Y35.78659
X106.32791 Y35.97788
X105.97345 Y36.33170
X105.78138 Y36.79431
X105.78087 Y37.29497
X105.97215 Y37.75791
X106.32598 Y38.11237
X106.78859 Y38.30444
X107.28925 Y38.30495
X107.75219 Y38.11366
X108.10664 Y37.75984
X108.29872 Y37.29720
X108.29923 Y36.79654
X108.10794 Y36.33360
X107.75412 Y35.97917
G04 P0 ( dwell for no time -- G64 should not smooth over this point )
G00 Z5.00000 ( retract )

G00 X103.83957 Y28.83738 ( rapid move to begin. )
F300.00000
G01 Z-0.05000
G04 P0 ( dwell for no time -- G64 should not smooth over this point )
F600.00000
X103.83957 Y28.83738
X38.91699 Y28.82902
X38.74219 Y28.76192
X38.65189 Y28.69090
X23.98837 Y14.02735
X13.60419 Y14.02735
X13.49716 Y14.01534
X13.40399 Y13.98506
X13.25067 Y13.88087
X7.29321 Y7.92335
X7.20878 Y7.93618
X7.03128 Y7.92688
X6.86958 Y7.88411
X6.71038 Y7.80544
X6.56323 Y7.68837
X6.06324 Y7.18837
X5.94617 Y7.04123
X5.86750 Y6.88202
X5.82364 Y6.70991
X5.81543 Y6.54283
X5.84106 Y6.37758
X5.90692 Y6.20148
X6.01071 Y6.04469
X6.13781 Y5.92066
X6.27840 Y5.83001
X6.43430 Y5.76958
X6.60934 Y5.73963
X6.80748 Y5.75002
X6.95892 Y5.79061
X7.11812 Y5.86928
X7.25749 Y5.97933
X7.76526 Y6.48634
X7.88233 Y6.63349
X7.96100 Y6.79269
X8.00377 Y6.95436
X8.01307 Y7.12139
X8.00024 Y7.21626
X13.81133 Y13.02735
X24.19541 Y13.02735
X24.36465 Y13.05730
X24.45868 Y13.10276
X24.54897 Y13.17378
X39.21255 Y27.83738
X104.04661 Y27.83738
X104.22872 Y27.87210
X104.31602 Y27.91660
X104.40017 Y27.98381
X115.01359 Y38.59723
X115.08080 Y38.68138
X115.14806 Y38.84371
X115.16002 Y38.95079
X115.16002 Y42.20283
X115.14806 Y42.30987
X115.08085 Y42.47215
X115.01359 Y42.55635
X113.82063 Y43.74931
X113.73648 Y43.81652
X113.55494 Y43.88762
X113.04064 Y43.89579
X112.97153 Y44.01439
X112.83168 Y44.17052
X112.63696 Y44.31200
X112.44529 Y44.39676
X112.24037 Y44.44085
X111.99970 Y44.44085
X111.79480 Y44.39676
X111.58505 Y44.30156
X111.41581 Y44.17794
X111.27514 Y44.02254
X111.15856 Y43.82386
X111.09325 Y43.62470
X111.06808 Y43.38533
X111.09325 Y43.16686
X111.15856 Y42.96770
X111.26285 Y42.78594
X111.42391 Y42.60705
X111.60311 Y42.47957
X111.79480 Y42.39481
X112.02048 Y42.34853
X112.23003 Y42.34906
X112.43516 Y42.39211
X112.63694 Y42.47957
X112.82429 Y42.61363
X112.97153 Y42.77718
X113.04059 Y42.89580
X113.25997 Y42.89580
X114.16002 Y41.99575
X114.16002 Y39.15783
X103.83957 Y28.83738
G04 P0 ( dwell for no time -- G64 should not smooth over this point )
G00 Z5.00000 ( retract )

G00 X108.38716 Y27.63736 ( rapid move to begin. )
F300.00000
G01 Z-0.05000
G04 P0 ( dwell for no time -- G64 should not smooth over this point )
F600.00000
X108.38716 Y27.63736
X39.50246 Y27.63736
X39.39543 Y27.62534
X39.23310 Y27.55808
X39.14895 Y27.49087
X24.48542 Y12.82735
X15.13419 Y12.82735
X15.02715 Y12.81534
X14.93398 Y12.78506
X14.78067 Y12.68087
X7.16318 Y5.06336
X7.07878 Y5.07619
X6.89110 Y5.06471
X6.72968 Y5.02092
X6.58041 Y4.94548
X6.43326 Y4.82841
X6.10324 Y4.49841
X5.98617 Y4.35127
X5.90748 Y4.19206
X5.86689 Y4.04063
X5.85541 Y3.85292
X5.88320 Y3.67741
X5.94688 Y3.51152
X6.05064 Y3.35473
X6.16928 Y3.23685
X6.30923 Y3.14528
X6.47426 Y3.07959
X6.65973 Y3.04856
X6.84738 Y3.06004
X7.01838 Y3.10809
X7.17560 Y3.19064
X7.29745 Y3.28932
X7.63524 Y3.62633
X7.75231 Y3.77347
X7.83100 Y3.93268
X7.87377 Y4.09435
X7.88307 Y4.27179
X7.87022 Y4.35627
X15.34130 Y11.82735
X24.69246 Y11.82735
X24.87458 Y11.86208
X24.97816 Y11.91745
X39.70960 Y26.63736
X108.60400 Y26.63781
X108.79445 Y26.67960
X108.94776 Y26.78379
X111.38528 Y29.22138
X111.48020 Y29.20855
X111.64723 Y29.21785
X111.80890 Y29.26062
X111.96810 Y29.33928
X112.11525 Y29.45635
X112.48525 Y29.82635
X112.59094 Y29.95597
X112.67349 Y30.11320
X112.72485 Y30.30481
X112.73196 Y30.48228
X112.70742 Y30.63715
X112.64159 Y30.81322
X112.55093 Y30.95381
X112.42690 Y31.08091
X112.27011 Y31.18469
X112.11418 Y31.24515
X111.93915 Y31.27509
X111.74100 Y31.26470
X111.57006 Y31.21662
X111.41283 Y31.13407
X111.28322 Y31.02838
X110.91322 Y30.65838
X110.79615 Y30.51124
X110.71748 Y30.35203
X110.67471 Y30.19033
X110.66541 Y30.01284
X110.67824 Y29.92846
X108.38716 Y27.63736
G04 P0 ( dwell for no time -- G64 should not smooth over this point )
G00 Z5.00000 ( retract )

G00 X105.55626 Y19.89180 ( rapid move to begin. )
F300.00000
G01 Z-0.05000
G04 P0 ( dwell for no time -- G64 should not smooth over this point )
F600.00000
X105.55626 Y19.89180
X105.63555 Y20.03021
X105.71749 Y20.28769
X105.74249 Y20.54623
X105.71315 Y20.80432
X105.63555 Y21.04133
X105.50563 Y21.26638
X105.33914 Y21.45210
X105.13032 Y21.60653
X104.88415 Y21.71794
X104.64028 Y21.77031
X104.35979 Y21.77031
X104.11595 Y21.71794
X103.87856 Y21.61225
X103.67645 Y21.46610
X103.49444 Y21.26640
X103.36451 Y21.04136
X103.28420 Y20.79421
X103.25705 Y20.53577
X103.28257 Y20.28769
X103.36451 Y20.03021
X103.49446 Y19.80516
X103.66093 Y19.61946
X103.86975 Y19.46503
X104.11595 Y19.35363
X104.35979 Y19.30125
X104.62994 Y19.29960
X104.87401 Y19.35094
X105.25303 Y19.52010
X105.35008 Y19.58246
X105.45339 Y19.68576
X105.51592 Y19.78322
X105.55626 Y19.89180
G04 P0 ( dwell for no time -- G64 should not smooth over this point )
G00 Z5.00000 ( retract )

G00 X104.63766 Y17.20131 ( rapid move to begin. )
F300.00000
G01 Z-0.05000
G04 P0 ( dwell for no time -- G64 should not smooth over this point )
F600.00000
X104.63766 Y17.20131
X105.00261 Y18.08452
X105.67767 Y18.76079
X106.56024 Y19.12724
X107.51559 Y19.12815
X108.39879 Y18.76321
X109.07507 Y18.08812
X109.44152 Y17.20555
X109.44243 Y16.25023
X109.07748 Y15.36700
X108.40240 Y14.69075
X107.51985 Y14.32430
X106.56451 Y14.32339
X105.68127 Y14.68833
X105.00502 Y15.36339
X104.63858 Y16.24596
X104.63766 Y17.20131
G04 P0 ( dwell for no time -- G64 should not smooth over this point )
G00 Z5.00000 ( retract )

G00 X100.71758 Y14.17533 ( rapid move to begin. )
F300.00000
G01 Z-0.05000
G04 P0 ( dwell for no time -- G64 should not smooth over this point )
F600.00000
X100.71758 Y14.17533
X100.74692 Y13.91724
X100.82451 Y13.68021
X100.95446 Y13.45516
X101.12093 Y13.26946
X101.33853 Y13.10932
X101.57595 Y13.00363
X101.81979 Y12.95125
X102.07948 Y12.94907
X102.34415 Y13.00363
X102.57219 Y13.10457
X102.79914 Y13.26946
X102.96561 Y13.45516
X103.09555 Y13.68021
X103.17749 Y13.93769
X103.20249 Y14.19623
X103.17315 Y14.45432
X103.09555 Y14.69133
X102.96563 Y14.91638
X102.79914 Y15.10210
X102.58156 Y15.26222
X102.34415 Y15.36794
X102.08994 Y15.42196
X101.84057 Y15.42252
X101.57595 Y15.36794
X101.33856 Y15.26225
X101.13645 Y15.11610
X100.96104 Y14.92453
X100.82076 Y14.68158
X100.74420 Y14.44421
X100.71758 Y14.17533
G04 P0 ( dwell for no time -- G64 should not smooth over this point )
G00 Z5.00000 ( retract )

G00 X100.40933 Y13.87594 ( rapid move to begin. )
F300.00000
G01 Z-0.05000
G04 P0 ( dwell for no time -- G64 should not smooth over this point )
F600.00000
X100.40933 Y13.87594
X100.40872 Y14.49280
X100.64438 Y15.06319
X101.08029 Y15.49984
X101.65024 Y15.73649
X102.26708 Y15.73710
X102.83744 Y15.50141
X103.27417 Y15.06545
X103.51077 Y14.49565
X103.51138 Y13.87873
X103.27572 Y13.30838
X102.83978 Y12.87168
X102.26985 Y12.63505
X101.65301 Y12.63444
X101.08265 Y12.87010
X100.64595 Y13.30602
X100.40933 Y13.87594
G04 P0 ( dwell for no time -- G64 should not smooth over this point )
G00 Z5.00000 ( retract )

G00 X98.00313 Y9.21065 ( rapid move to begin. )
F300.00000
G01 Z-0.05000
G04 P0 ( dwell for no time -- G64 should not smooth over this point )
F600.00000
X98.00313 Y9.21065
X98.14301 Y9.07079
X97.85510 Y9.07079
X98.00313 Y9.21065
G04 P0 ( dwell for no time -- G64 should not smooth over this point )
G00 Z5.00000 ( retract )

G00 X95.52986 Y9.07079 ( rapid move to begin. )
F300.00000
G01 Z-0.05000
G04 P0 ( dwell for no time -- G64 should not smooth over this point )
F600.00000
X95.52986 Y9.07079
X76.25502 Y9.07079
X76.14768 Y9.06066
X76.01656 Y9.02091
X75.91382 Y8.96381
X75.83079 Y8.89503
X72.83156 Y5.89579
X60.86130 Y5.89579
X60.33544 Y6.42160
X60.34420 Y7.21738
X60.32729 Y7.38375
X60.27075 Y7.56305
X60.18759 Y7.70819
X60.07039 Y7.84161
X59.91926 Y7.95347
X59.74680 Y8.02843
X59.57263 Y8.06325
X59.39506 Y8.06104
X59.22183 Y8.02198
X59.07860 Y7.95822
X58.91810 Y7.84161
X58.80090 Y7.70819
X58.71774 Y7.56308
X58.66120 Y7.38378
X58.64423 Y7.21738
X58.64423 Y6.51027
X58.65863 Y6.38175
X58.17271 Y5.89579
X53.85085 Y5.89579
X53.84376 Y6.02033
X53.80099 Y6.18205
X53.71709 Y6.35033
X53.60525 Y6.48838
X53.10526 Y6.98837
X52.96723 Y7.10021
X52.81844 Y7.17661
X52.63723 Y7.22688
X52.47026 Y7.23618
X52.28428 Y7.20841
X52.12794 Y7.14898
X51.96157 Y7.04093
X51.83754 Y6.91383
X51.74691 Y6.77326
X51.68646 Y6.61731
X51.65542 Y6.43189
X51.66469 Y6.25490
X51.27559 Y5.86580
X51.09832 Y5.85239
X50.99210 Y5.81578
X38.13363 Y5.81578
X37.15675 Y6.79262
X37.15794 Y6.99655
X37.11888 Y7.16978
X37.05037 Y7.32233
X36.95248 Y7.45800
X36.82200 Y7.57842
X36.65020 Y7.67763
X36.50110 Y7.72607
X36.32469 Y7.74682
X35.76998 Y7.75622
X35.59427 Y7.72843
X35.43793 Y7.66899
X35.28779 Y7.57410
X35.14753 Y7.43384
X35.05690 Y7.29328
X34.99645 Y7.13732
X34.96541 Y6.94144
X34.97471 Y6.77443
X35.02495 Y6.59323
X35.10753 Y6.43600
X35.21982 Y6.30031
X35.34349 Y6.19701
X35.49010 Y6.11627
X35.66813 Y6.06227
X35.82421 Y6.04741
X36.34385 Y6.04997
X37.52421 Y4.87027
X37.68652 Y4.76184
X37.78903 Y4.72874
X37.89604 Y4.71627
X50.99192 Y4.71581
X51.09835 Y4.67913
X51.22421 Y4.66580
X52.48001 Y4.66580
X52.65966 Y4.69580
X73.08002 Y4.69580
X73.19445 Y4.70725
X73.31428 Y4.74388
X73.41530 Y4.79872
X73.50430 Y4.87151
X76.50358 Y7.87080
X145.14002 Y7.87080
X145.25963 Y7.88294
X145.37916 Y7.92061
X145.54523 Y8.02848
X145.62836 Y8.12238
X145.68592 Y8.22208
X145.72569 Y8.34103
X145.73989 Y8.46559
X145.70893 Y8.66112
X145.65691 Y8.77526
X145.58935 Y8.86825
X145.49692 Y8.95296
X145.38884 Y9.01664
X145.19753 Y9.06790
X137.63201 Y9.07079
X136.69422 Y10.00856
X136.69422 Y10.34740
X136.66750 Y10.58618
X136.59914 Y10.79477
X136.47755 Y11.00208
X136.32216 Y11.17142
X136.13491 Y11.30475
X135.93417 Y11.39355
X135.69877 Y11.44191
X135.48970 Y11.44191
X135.26445 Y11.39624
X135.05355 Y11.30475
X134.85081 Y11.15743
X134.69864 Y10.98517
X134.58934 Y10.79479
X134.52099 Y10.58618
X134.49422 Y10.34740
X134.49422 Y10.00739
X134.51665 Y9.78900
X134.58934 Y9.55992
X134.64268 Y9.46650
X134.24698 Y9.07079
X118.73200 Y9.07079
X117.63142 Y10.17130
X117.65179 Y10.25568
X117.66273 Y10.47491
X117.62893 Y10.69182
X117.54859 Y10.90719
X117.41912 Y11.10958
X117.25649 Y11.27221
X117.05407 Y11.40170
X116.84897 Y11.47986
X116.62182 Y11.51585
X116.38194 Y11.50162
X116.17005 Y11.44430
X115.97419 Y11.34511
X115.78644 Y11.19515
X115.56944 Y10.97739
X115.43787 Y10.81494
X115.33157 Y10.61113
X115.26998 Y10.38966
X115.25575 Y10.14979
X115.29220 Y9.92314
X114.43988 Y9.07079
X99.69861 Y9.07079
X98.67225 Y10.09711
X98.70069 Y10.20528
X98.71273 Y10.42449
X98.67893 Y10.65187
X98.59859 Y10.86723
X98.46206 Y11.07739
X98.29800 Y11.23838
X98.11360 Y11.35748
X97.88871 Y11.44206
X97.67179 Y11.47587
X97.43189 Y11.46164
X97.21045 Y11.40005
X97.01510 Y11.29990
X96.83641 Y11.15517
X96.33941 Y10.65738
X96.20786 Y10.49490
X96.10156 Y10.29111
X96.03997 Y10.06965
X96.02574 Y9.82975
X96.06217 Y9.60313
X95.52986 Y9.07079
G04 P0 ( dwell for no time -- G64 should not smooth over this point )
G00 Z5.00000 ( retract )

G00 X94.36844 Y14.27215 ( rapid move to begin. )
F300.00000
G01 Z-0.05000
G04 P0 ( dwell for no time -- G64 should not smooth over this point )
F600.00000
X94.36844 Y14.27215
X94.25369 Y14.15742
X94.10378 Y14.09529
X93.44978 Y14.09529
X93.42402 Y14.12105
X93.42402 Y14.40330
X94.02252 Y14.40330
X94.06080 Y14.41089
X94.10568 Y14.44772
X94.12252 Y14.50329
X94.12252 Y15.10180
X94.40477 Y15.10180
X94.43052 Y15.07604
X94.43052 Y14.42209
X94.36844 Y14.27215
G04 P0 ( dwell for no time -- G64 should not smooth over this point )
G00 Z5.00000 ( retract )

G00 X91.77170 Y14.27208 ( rapid move to begin. )
F300.00000
G01 Z-0.05000
G04 P0 ( dwell for no time -- G64 should not smooth over this point )
F600.00000
X91.77170 Y14.27208
X91.70952 Y14.42217
X91.70952 Y15.07599
X91.73533 Y15.10180
X92.01752 Y15.10180
X92.01752 Y14.50329
X92.03439 Y14.44772
X92.07927 Y14.41089
X92.11752 Y14.40330
X92.71602 Y14.40330
X92.71602 Y14.12100
X92.69032 Y14.09529
X92.03637 Y14.09529
X91.88638 Y14.15740
X91.77170 Y14.27208
G04 P0 ( dwell for no time -- G64 should not smooth over this point )
G00 Z5.00000 ( retract )

G00 X91.91767 Y17.22336 ( rapid move to begin. )
F300.00000
G01 Z-0.05000
G04 P0 ( dwell for no time -- G64 should not smooth over this point )
F600.00000
X91.91767 Y17.22336
X91.70980 Y17.72401
X91.70924 Y18.26509
X91.91597 Y18.76539
X92.29834 Y19.14845
X92.79829 Y19.35602
X93.33936 Y19.35657
X93.83967 Y19.14984
X94.22272 Y18.76745
X94.43029 Y18.26750
X94.43085 Y17.72643
X94.22382 Y17.22541
X94.11061 Y17.10606
X94.07299 Y16.97565
X94.09019 Y16.89374
X94.12697 Y16.83529
X94.25366 Y16.75417
X94.36839 Y16.63943
X94.43052 Y16.48947
X94.43052 Y15.83550
X94.40482 Y15.80979
X94.12252 Y15.80979
X94.12062 Y16.42780
X94.09324 Y16.47898
X94.04205 Y16.50636
X92.11752 Y16.50829
X92.06197 Y16.49143
X92.01945 Y16.42780
X92.01752 Y15.80979
X91.73528 Y15.80979
X91.70952 Y15.83555
X91.70952 Y16.48932
X91.77165 Y16.63936
X91.88641 Y16.75412
X92.00050 Y16.82013
X92.04973 Y16.89384
X92.06505 Y16.96125
X92.05534 Y17.04881
X92.03365 Y17.09846
X91.91767 Y17.22336
G04 P0 ( dwell for no time -- G64 should not smooth over this point )
G00 Z5.00000 ( retract )

G00 X92.01808 Y17.98533 ( rapid move to begin. )
F300.00000
G01 Z-0.05000
G04 P0 ( dwell for no time -- G64 should not smooth over this point )
F600.00000
X92.01808 Y17.98533
X92.04325 Y17.76686
X92.10856 Y17.56770
X92.21856 Y17.37715
X92.37391 Y17.20705
X92.55311 Y17.07957
X92.74480 Y16.99481
X92.94970 Y16.95071
X93.16956 Y16.94853
X93.40505 Y16.99857
X93.60502 Y17.09001
X93.78168 Y17.22104
X93.92151 Y17.37715
X94.03151 Y17.56770
X94.10116 Y17.78731
X94.12199 Y18.00623
X94.09682 Y18.22470
X94.03151 Y18.42384
X93.92153 Y18.61439
X93.76616 Y18.78452
X93.58696 Y18.91200
X93.39529 Y18.99676
X93.18003 Y19.04250
X92.97048 Y19.04306
X92.74480 Y18.99676
X92.55313 Y18.91200
X92.36581 Y18.77794
X92.22514 Y18.62254
X92.10856 Y18.42386
X92.04325 Y18.22470
X92.01808 Y17.98533
G04 P0 ( dwell for no time -- G64 should not smooth over this point )
G00 Z5.00000 ( retract )

G00 X85.58766 Y17.20131 ( rapid move to begin. )
F300.00000
G01 Z-0.05000
G04 P0 ( dwell for no time -- G64 should not smooth over this point )
F600.00000
X85.58766 Y17.20131
X85.95261 Y18.08452
X86.62767 Y18.76079
X87.51024 Y19.12724
X88.46559 Y19.12815
X89.34879 Y18.76321
X90.02507 Y18.08812
X90.39152 Y17.20555
X90.39243 Y16.25023
X90.02748 Y15.36700
X89.35240 Y14.69075
X88.46985 Y14.32430
X87.51451 Y14.32339
X86.63127 Y14.68833
X85.95502 Y15.36339
X85.58858 Y16.24596
X85.58766 Y17.20131
G04 P0 ( dwell for no time -- G64 should not smooth over this point )
G00 Z5.00000 ( retract )

G00 X84.20758 Y20.52533 ( rapid move to begin. )
F300.00000
G01 Z-0.05000
G04 P0 ( dwell for no time -- G64 should not smooth over this point )
F600.00000
X84.20758 Y20.52533
X84.23692 Y20.26724
X84.31451 Y20.03021
X84.44446 Y19.80516
X84.61093 Y19.61946
X84.82853 Y19.45932
X85.06595 Y19.35363
X85.30979 Y19.30125
X85.56948 Y19.29907
X85.83415 Y19.35363
X86.06219 Y19.45457
X86.28914 Y19.61946
X86.45561 Y19.80516
X86.58555 Y20.03021
X86.66749 Y20.28769
X86.69249 Y20.54623
X86.66315 Y20.80432
X86.58555 Y21.04133
X86.45563 Y21.26638
X86.28914 Y21.45210
X86.07156 Y21.61222
X85.83415 Y21.71794
X85.57994 Y21.77196
X85.33057 Y21.77252
X85.06595 Y21.71794
X84.82856 Y21.61225
X84.62645 Y21.46610
X84.45104 Y21.27453
X84.31076 Y21.03158
X84.23420 Y20.79421
X84.20758 Y20.52533
G04 P0 ( dwell for no time -- G64 should not smooth over this point )
G00 Z5.00000 ( retract )

G00 X81.66758 Y14.17533 ( rapid move to begin. )
F300.00000
G01 Z-0.05000
G04 P0 ( dwell for no time -- G64 should not smooth over this point )
F600.00000
X81.66758 Y14.17533
X81.69692 Y13.91724
X81.77451 Y13.68021
X81.90446 Y13.45516
X82.07093 Y13.26946
X82.28853 Y13.10932
X82.52595 Y13.00363
X82.76979 Y12.95125
X83.02948 Y12.94907
X83.29415 Y13.00363
X83.52219 Y13.10457
X83.74914 Y13.26946
X83.91561 Y13.45516
X84.04555 Y13.68021
X84.12749 Y13.93769
X84.15249 Y14.19623
X84.12315 Y14.45432
X84.04555 Y14.69133
X83.91563 Y14.91638
X83.74914 Y15.10210
X83.53156 Y15.26222
X83.29415 Y15.36794
X83.03994 Y15.42196
X82.79057 Y15.42252
X82.52595 Y15.36794
X82.28856 Y15.26225
X82.08645 Y15.11610
X81.91104 Y14.92453
X81.77076 Y14.68158
X81.69420 Y14.44421
X81.66758 Y14.17533
G04 P0 ( dwell for no time -- G64 should not smooth over this point )
G00 Z5.00000 ( retract )

G00 X81.35933 Y13.87597 ( rapid move to begin. )
F300.00000
G01 Z-0.05000
G04 P0 ( dwell for no time -- G64 should not smooth over this point )
F600.00000
X81.35933 Y13.87597
X81.35872 Y14.49280
X81.59438 Y15.06316
X82.03029 Y15.49984
X82.60024 Y15.73649
X83.21708 Y15.73710
X83.78744 Y15.50141
X84.22417 Y15.06545
X84.46077 Y14.49565
X84.46138 Y13.87873
X84.22572 Y13.30838
X83.78978 Y12.87168
X83.21985 Y12.63505
X82.60301 Y12.63444
X82.03265 Y12.87010
X81.59595 Y13.30602
X81.35933 Y13.87597
G04 P0 ( dwell for no time -- G64 should not smooth over this point )
G00 Z5.00000 ( retract )

G00 X86.92345 Y10.93170 ( rapid move to begin. )
F300.00000
G01 Z-0.05000
G04 P0 ( dwell for no time -- G64 should not smooth over this point )
F600.00000
X86.92345 Y10.93170
X86.73138 Y11.39431
X86.73087 Y11.89497
X86.92215 Y12.35791
X87.27598 Y12.71237
X87.73859 Y12.90444
X88.23925 Y12.90495
X88.70219 Y12.71366
X89.05664 Y12.35984
X89.24872 Y11.89720
X89.24923 Y11.39654
X89.05794 Y10.93360
X88.70412 Y10.57917
X88.24148 Y10.38710
X87.74085 Y10.38659
X87.27791 Y10.57788
X86.92345 Y10.93170
G04 P0 ( dwell for no time -- G64 should not smooth over this point )
G00 Z5.00000 ( retract )

G00 X105.97345 Y10.93170 ( rapid move to begin. )
F300.00000
G01 Z-0.05000
G04 P0 ( dwell for no time -- G64 should not smooth over this point )
F600.00000
X105.97345 Y10.93170
X105.78138 Y11.39431
X105.78087 Y11.89497
X105.97215 Y12.35791
X106.32598 Y12.71237
X106.78859 Y12.90444
X107.28925 Y12.90495
X107.75219 Y12.71366
X108.10664 Y12.35984
X108.29872 Y11.89720
X108.29923 Y11.39654
X108.10794 Y10.93360
X107.75412 Y10.57917
X107.29148 Y10.38710
X106.79085 Y10.38659
X106.32791 Y10.57788
X105.97345 Y10.93170
G04 P0 ( dwell for no time -- G64 should not smooth over this point )
G00 Z5.00000 ( retract )

G00 X110.82170 Y14.27208 ( rapid move to begin. )
F300.00000
G01 Z-0.05000
G04 P0 ( dwell for no time -- G64 should not smooth over this point )
F600.00000
X110.82170 Y14.27208
X110.75952 Y14.42217
X110.75952 Y15.07599
X110.78533 Y15.10180
X111.06752 Y15.10180
X111.06752 Y14.50329
X111.08439 Y14.44772
X111.12927 Y14.41089
X111.16752 Y14.40330
X111.76602 Y14.40330
X111.76602 Y14.12100
X111.74032 Y14.09529
X111.08637 Y14.09529
X110.93638 Y14.15740
X110.82170 Y14.27208
G04 P0 ( dwell for no time -- G64 should not smooth over this point )
G00 Z5.00000 ( retract )

G00 X113.41844 Y14.27215 ( rapid move to begin. )
F300.00000
G01 Z-0.05000
G04 P0 ( dwell for no time -- G64 should not smooth over this point )
F600.00000
X113.41844 Y14.27215
X113.30369 Y14.15742
X113.15378 Y14.09529
X112.49978 Y14.09529
X112.47402 Y14.12105
X112.47402 Y14.40330
X113.07252 Y14.40330
X113.11080 Y14.41089
X113.15568 Y14.44772
X113.17252 Y14.50329
X113.17252 Y15.10180
X113.45477 Y15.10180
X113.48052 Y15.07604
X113.48052 Y14.42209
X113.41844 Y14.27215
G04 P0 ( dwell for no time -- G64 should not smooth over this point )
G00 Z5.00000 ( retract )

G00 X110.96767 Y17.22336 ( rapid move to begin. )
F300.00000
G01 Z-0.05000
G04 P0 ( dwell for no time -- G64 should not smooth over this point )
F600.00000
X110.96767 Y17.22336
X110.75980 Y17.72401
X110.75924 Y18.26509
X110.96597 Y18.76539
X111.34834 Y19.14845
X111.84829 Y19.35602
X112.38936 Y19.35657
X112.88967 Y19.14984
X113.27272 Y18.76745
X113.48029 Y18.26750
X113.48085 Y17.72643
X113.27382 Y17.22541
X113.16061 Y17.10606
X113.12299 Y16.97565
X113.14019 Y16.89374
X113.17697 Y16.83529
X113.30366 Y16.75417
X113.41839 Y16.63943
X113.48052 Y16.48947
X113.48052 Y15.83550
X113.45482 Y15.80979
X113.17252 Y15.80979
X113.17062 Y16.42780
X113.14324 Y16.47898
X113.09205 Y16.50636
X111.16752 Y16.50829
X111.11197 Y16.49143
X111.06945 Y16.42780
X111.06752 Y15.80979
X110.78528 Y15.80979
X110.75952 Y15.83555
X110.75952 Y16.48932
X110.82165 Y16.63936
X110.93641 Y16.75412
X111.05050 Y16.82013
X111.09973 Y16.89384
X111.11505 Y16.96125
X111.10534 Y17.04881
X111.08365 Y17.09846
X110.96767 Y17.22336
G04 P0 ( dwell for no time -- G64 should not smooth over this point )
G00 Z5.00000 ( retract )

G00 X111.06808 Y17.98533 ( rapid move to begin. )
F300.00000
G01 Z-0.05000
G04 P0 ( dwell for no time -- G64 should not smooth over this point )
F600.00000
X111.06808 Y17.98533
X111.09325 Y17.76686
X111.15856 Y17.56770
X111.26856 Y17.37715
X111.42391 Y17.20705
X111.60311 Y17.07957
X111.79480 Y16.99481
X111.99970 Y16.95071
X112.21956 Y16.94853
X112.45505 Y16.99857
X112.65502 Y17.09001
X112.83168 Y17.22104
X112.97151 Y17.37715
X113.08151 Y17.56770
X113.15116 Y17.78731
X113.17199 Y18.00623
X113.14682 Y18.22470
X113.08151 Y18.42384
X112.97153 Y18.61439
X112.81616 Y18.78452
X112.63696 Y18.91200
X112.44529 Y18.99676
X112.23003 Y19.04250
X112.02048 Y19.04306
X111.79480 Y18.99676
X111.60313 Y18.91200
X111.41581 Y18.77794
X111.27514 Y18.62254
X111.15856 Y18.42386
X111.09325 Y18.22470
X111.06808 Y17.98533
G04 P0 ( dwell for no time -- G64 should not smooth over this point )
G00 Z5.00000 ( retract )

G00 X119.76758 Y14.17533 ( rapid move to begin. )
F300.00000
G01 Z-0.05000
G04 P0 ( dwell for no time -- G64 should not smooth over this point )
F600.00000
X119.76758 Y14.17533
X119.79692 Y13.91724
X119.87451 Y13.68021
X120.00446 Y13.45516
X120.17093 Y13.26946
X120.38853 Y13.10932
X120.62595 Y13.00363
X120.86979 Y12.95125
X121.12948 Y12.94907
X121.39415 Y13.00363
X121.62219 Y13.10457
X121.84914 Y13.26946
X122.01561 Y13.45516
X122.14555 Y13.68021
X122.22749 Y13.93769
X122.25249 Y14.19623
X122.22315 Y14.45432
X122.14555 Y14.69133
X122.01563 Y14.91638
X121.84914 Y15.10210
X121.63156 Y15.26222
X121.39415 Y15.36794
X121.13994 Y15.42196
X120.89057 Y15.42252
X120.62595 Y15.36794
X120.38856 Y15.26225
X120.18645 Y15.11610
X120.01104 Y14.92453
X119.87076 Y14.68158
X119.79420 Y14.44421
X119.76758 Y14.17533
G04 P0 ( dwell for no time -- G64 should not smooth over this point )
G00 Z5.00000 ( retract )

G00 X120.70301 Y12.63444 ( rapid move to begin. )
F300.00000
G01 Z-0.05000
G04 P0 ( dwell for no time -- G64 should not smooth over this point )
F600.00000
X120.70301 Y12.63444
X120.13265 Y12.87010
X119.69595 Y13.30602
X119.45933 Y13.87594
X119.45872 Y14.49280
X119.69438 Y15.06319
X120.13029 Y15.49984
X120.70024 Y15.73649
X121.31708 Y15.73710
X121.88744 Y15.50141
X122.32417 Y15.06545
X122.56077 Y14.49565
X122.56138 Y13.87873
X122.32572 Y13.30838
X121.88978 Y12.87168
X121.31985 Y12.63505
X120.70301 Y12.63444
G04 P0 ( dwell for no time -- G64 should not smooth over this point )
G00 Z5.00000 ( retract )

G00 X125.02345 Y10.93170 ( rapid move to begin. )
F300.00000
G01 Z-0.05000
G04 P0 ( dwell for no time -- G64 should not smooth over this point )
F600.00000
X125.02345 Y10.93170
X124.83138 Y11.39431
X124.83087 Y11.89497
X125.02215 Y12.35791
X125.37598 Y12.71237
X125.83859 Y12.90444
X126.33925 Y12.90495
X126.80219 Y12.71366
X127.15664 Y12.35984
X127.34872 Y11.89720
X127.34923 Y11.39654
X127.15794 Y10.93360
X126.80412 Y10.57917
X126.34148 Y10.38710
X125.84085 Y10.38659
X125.37791 Y10.57788
X125.02345 Y10.93170
G04 P0 ( dwell for no time -- G64 should not smooth over this point )
G00 Z5.00000 ( retract )

G00 X129.87170 Y14.27208 ( rapid move to begin. )
F300.00000
G01 Z-0.05000
G04 P0 ( dwell for no time -- G64 should not smooth over this point )
F600.00000
X129.87170 Y14.27208
X129.80952 Y14.42217
X129.80952 Y15.07599
X129.83533 Y15.10180
X130.11752 Y15.10180
X130.11752 Y14.50329
X130.13439 Y14.44772
X130.17927 Y14.41089
X130.21752 Y14.40330
X130.81602 Y14.40330
X130.81602 Y14.12100
X130.79032 Y14.09529
X130.13637 Y14.09529
X129.98638 Y14.15740
X129.87170 Y14.27208
G04 P0 ( dwell for no time -- G64 should not smooth over this point )
G00 Z5.00000 ( retract )

G00 X132.46844 Y14.27215 ( rapid move to begin. )
F300.00000
G01 Z-0.05000
G04 P0 ( dwell for no time -- G64 should not smooth over this point )
F600.00000
X132.46844 Y14.27215
X132.35369 Y14.15742
X132.20378 Y14.09529
X131.54978 Y14.09529
X131.52402 Y14.12105
X131.52402 Y14.40330
X132.12252 Y14.40330
X132.16080 Y14.41089
X132.20568 Y14.44772
X132.22252 Y14.50329
X132.22252 Y15.10180
X132.50477 Y15.10180
X132.53052 Y15.07604
X132.53052 Y14.42209
X132.46844 Y14.27215
G04 P0 ( dwell for no time -- G64 should not smooth over this point )
G00 Z5.00000 ( retract )

G00 X130.11808 Y17.98533 ( rapid move to begin. )
F300.00000
G01 Z-0.05000
G04 P0 ( dwell for no time -- G64 should not smooth over this point )
F600.00000
X130.11808 Y17.98533
X130.14325 Y17.76686
X130.20856 Y17.56770
X130.31856 Y17.37715
X130.47391 Y17.20705
X130.65311 Y17.07957
X130.84480 Y16.99481
X131.04970 Y16.95071
X131.26956 Y16.94853
X131.50505 Y16.99857
X131.70502 Y17.09001
X131.88168 Y17.22104
X132.02151 Y17.37715
X132.13151 Y17.56770
X132.20116 Y17.78731
X132.22199 Y18.00623
X132.19682 Y18.22470
X132.13151 Y18.42384
X132.02153 Y18.61439
X131.86616 Y18.78452
X131.68696 Y18.91200
X131.49529 Y18.99676
X131.28003 Y19.04250
X131.07048 Y19.04306
X130.84480 Y18.99676
X130.65313 Y18.91200
X130.46581 Y18.77794
X130.32514 Y18.62254
X130.20856 Y18.42386
X130.14325 Y18.22470
X130.11808 Y17.98533
G04 P0 ( dwell for no time -- G64 should not smooth over this point )
G00 Z5.00000 ( retract )

G00 X130.39834 Y19.14845 ( rapid move to begin. )
F300.00000
G01 Z-0.05000
G04 P0 ( dwell for no time -- G64 should not smooth over this point )
F600.00000
X130.39834 Y19.14845
X130.89829 Y19.35602
X131.43936 Y19.35657
X131.93967 Y19.14984
X132.32272 Y18.76745
X132.53029 Y18.26750
X132.53085 Y17.72643
X132.32382 Y17.22541
X132.21061 Y17.10606
X132.17299 Y16.97565
X132.19019 Y16.89374
X132.22697 Y16.83529
X132.35366 Y16.75417
X132.46839 Y16.63943
X132.53052 Y16.48947
X132.53052 Y15.83550
X132.50482 Y15.80979
X132.22252 Y15.80979
X132.22062 Y16.42780
X132.17810 Y16.49143
X132.12252 Y16.50829
X130.19801 Y16.50636
X130.14683 Y16.47898
X130.11945 Y16.42780
X130.11752 Y15.80979
X129.83528 Y15.80979
X129.80952 Y15.83555
X129.80952 Y16.48932
X129.87165 Y16.63936
X129.98641 Y16.75412
X130.11292 Y16.83529
X130.14973 Y16.89384
X130.16692 Y16.98071
X130.13365 Y17.09846
X130.01767 Y17.22336
X129.80980 Y17.72401
X129.80924 Y18.26509
X130.01597 Y18.76539
X130.39834 Y19.14845
G04 P0 ( dwell for no time -- G64 should not smooth over this point )
G00 Z5.00000 ( retract )

G00 X123.68766 Y17.20131 ( rapid move to begin. )
F300.00000
G01 Z-0.05000
G04 P0 ( dwell for no time -- G64 should not smooth over this point )
F600.00000
X123.68766 Y17.20131
X124.05261 Y18.08452
X124.72767 Y18.76079
X125.61024 Y19.12724
X126.56559 Y19.12815
X127.44879 Y18.76321
X128.12507 Y18.08812
X128.49152 Y17.20555
X128.49243 Y16.25023
X128.12748 Y15.36700
X127.45240 Y14.69075
X126.56985 Y14.32430
X125.61451 Y14.32339
X124.73127 Y14.68833
X124.05502 Y15.36339
X123.68858 Y16.24596
X123.68766 Y17.20131
G04 P0 ( dwell for no time -- G64 should not smooth over this point )
G00 Z5.00000 ( retract )

G00 X122.30758 Y20.52533 ( rapid move to begin. )
F300.00000
G01 Z-0.05000
G04 P0 ( dwell for no time -- G64 should not smooth over this point )
F600.00000
X122.30758 Y20.52533
X122.33692 Y20.26724
X122.41451 Y20.03021
X122.54446 Y19.80516
X122.71093 Y19.61946
X122.92853 Y19.45932
X123.16595 Y19.35363
X123.40979 Y19.30125
X123.66948 Y19.29907
X123.93415 Y19.35363
X124.16219 Y19.45457
X124.38914 Y19.61946
X124.55561 Y19.80516
X124.68555 Y20.03021
X124.76749 Y20.28769
X124.79249 Y20.54623
X124.76315 Y20.80432
X124.68555 Y21.04133
X124.55563 Y21.26638
X124.38914 Y21.45210
X124.17156 Y21.61222
X123.93415 Y21.71794
X123.67994 Y21.77196
X123.43057 Y21.77252
X123.16595 Y21.71794
X122.92856 Y21.61225
X122.72645 Y21.46610
X122.55104 Y21.27453
X122.41076 Y21.03158
X122.33420 Y20.79421
X122.30758 Y20.52533
G04 P0 ( dwell for no time -- G64 should not smooth over this point )
G00 Z5.00000 ( retract )

G00 X125.00453 Y25.23733 ( rapid move to begin. )
F300.00000
G01 Z-0.05000
G04 P0 ( dwell for no time -- G64 should not smooth over this point )
F600.00000
X125.00453 Y25.23733
X40.49659 Y25.23733
X40.38956 Y25.22532
X40.22723 Y25.15806
X40.14308 Y25.09085
X25.47955 Y10.42733
X24.97633 Y10.41913
X24.86396 Y10.38504
X24.71791 Y10.28745
X19.51381 Y5.08396
X19.42313 Y5.10270
X19.25584 Y5.10326
X19.08170 Y5.06844
X18.90926 Y4.99348
X18.75811 Y4.88162
X18.64660 Y4.75698
X18.58335 Y4.64850
X18.30753 Y4.34876
X18.22498 Y4.19153
X18.17363 Y3.99991
X18.16542 Y3.83283
X18.19105 Y3.66758
X18.25691 Y3.49148
X18.36070 Y3.33469
X18.48780 Y3.21066
X18.62839 Y3.12001
X18.78429 Y3.05958
X18.95932 Y3.02963
X19.15747 Y3.04002
X19.30890 Y3.08061
X19.46811 Y3.15927
X19.61525 Y3.27634
X19.94187 Y3.60362
X20.04604 Y3.73354
X20.11535 Y3.86321
X20.16935 Y4.04126
X20.18421 Y4.19740
X20.17682 Y4.33286
X25.27130 Y9.42733
X25.77445 Y9.43546
X25.88684 Y9.46957
X26.04016 Y9.57376
X40.70373 Y24.23734
X125.21939 Y24.23764
X125.39078 Y24.27051
X125.49236 Y24.32413
X125.56513 Y24.38377
X130.40497 Y29.22366
X130.62390 Y29.21543
X130.78760 Y29.24970
X130.96004 Y29.32465
X131.11120 Y29.43651
X131.25506 Y29.61614
X131.47525 Y29.83634
X131.58094 Y29.96595
X131.67099 Y30.14268
X131.71485 Y30.31479
X131.72196 Y30.49226
X131.69743 Y30.64713
X131.63159 Y30.82320
X131.52778 Y30.98002
X131.40068 Y31.10405
X131.26012 Y31.19468
X131.08402 Y31.26054
X130.91876 Y31.28617
X130.74127 Y31.27687
X130.57957 Y31.23410
X130.42037 Y31.15543
X130.28100 Y31.04538
X129.92743 Y30.69191
X129.82326 Y30.56199
X129.75395 Y30.43232
X129.69997 Y30.25429
X129.68504 Y30.09818
X129.69944 Y29.93225
X125.00453 Y25.23733
G04 P0 ( dwell for no time -- G64 should not smooth over this point )
G00 Z5.00000 ( retract )

G00 X120.48955 Y26.43733 ( rapid move to begin. )
F300.00000
G01 Z-0.05000
G04 P0 ( dwell for no time -- G64 should not smooth over this point )
F600.00000
X120.48955 Y26.43733
X39.91110 Y26.42898
X39.73630 Y26.36187
X39.64600 Y26.29085
X24.98248 Y11.62733
X23.25416 Y11.62733
X23.07209 Y11.59256
X22.96851 Y11.53718
X16.65321 Y5.23336
X16.56878 Y5.24619
X16.39128 Y5.23689
X16.22959 Y5.19412
X16.07038 Y5.11545
X15.92324 Y4.99839
X15.42324 Y4.49839
X15.30617 Y4.35125
X15.22751 Y4.19204
X15.18364 Y4.01993
X15.17544 Y3.85285
X15.20106 Y3.68759
X15.26693 Y3.51150
X15.37071 Y3.35470
X15.49781 Y3.23067
X15.63840 Y3.14002
X15.79431 Y3.07959
X15.96934 Y3.04965
X16.15725 Y3.05785
X16.33842 Y3.10812
X16.49565 Y3.19067
X16.62527 Y3.29636
X17.12527 Y3.79636
X17.24233 Y3.94350
X17.32100 Y4.10271
X17.36377 Y4.26438
X17.37307 Y4.43141
X17.36024 Y4.52628
X23.46130 Y10.62733
X25.19734 Y10.62764
X25.36873 Y10.66050
X25.53531 Y10.76675
X40.20665 Y25.43733
X120.69659 Y25.43733
X120.87870 Y25.47206
X120.96600 Y25.51656
X121.05015 Y25.58377
X134.06359 Y38.59723
X134.13080 Y38.68138
X134.19806 Y38.84371
X134.21002 Y38.95079
X134.20171 Y42.29130
X134.13458 Y42.46608
X134.06359 Y42.55635
X132.80276 Y43.80565
X132.69918 Y43.86102
X132.60494 Y43.88762
X132.09064 Y43.89579
X132.02153 Y44.01439
X131.88168 Y44.17052
X131.68696 Y44.31200
X131.49529 Y44.39676
X131.29037 Y44.44085
X131.04970 Y44.44085
X130.84480 Y44.39676
X130.63505 Y44.30156
X130.46581 Y44.17794
X130.32514 Y44.02254
X130.20856 Y43.82386
X130.14325 Y43.62470
X130.11808 Y43.38533
X130.14325 Y43.16686
X130.20856 Y42.96770
X130.31285 Y42.78594
X130.47391 Y42.60705
X130.65311 Y42.47957
X130.84480 Y42.39481
X131.07048 Y42.34853
X131.28003 Y42.34906
X131.48516 Y42.39211
X131.68694 Y42.47957
X131.87429 Y42.61363
X132.02153 Y42.77718
X132.09059 Y42.89580
X132.30997 Y42.89580
X133.21002 Y41.99575
X133.21002 Y39.15783
X120.48955 Y26.43733
G04 P0 ( dwell for no time -- G64 should not smooth over this point )
G00 Z5.00000 ( retract )

G00 X125.37791 Y35.97788 ( rapid move to begin. )
F300.00000
G01 Z-0.05000
G04 P0 ( dwell for no time -- G64 should not smooth over this point )
F600.00000
X125.37791 Y35.97788
X125.02345 Y36.33170
X124.83138 Y36.79431
X124.83087 Y37.29497
X125.02215 Y37.75791
X125.37598 Y38.11237
X125.83859 Y38.30444
X126.33925 Y38.30495
X126.80219 Y38.11366
X127.15664 Y37.75984
X127.34872 Y37.29720
X127.34923 Y36.79654
X127.15794 Y36.33360
X126.80412 Y35.97917
X126.34148 Y35.78710
X125.84085 Y35.78659
X125.37791 Y35.97788
G04 P0 ( dwell for no time -- G64 should not smooth over this point )
G00 Z5.00000 ( retract )

G00 X121.88744 Y40.90141 ( rapid move to begin. )
F300.00000
G01 Z-0.05000
G04 P0 ( dwell for no time -- G64 should not smooth over this point )
F600.00000
X121.88744 Y40.90141
X122.32417 Y40.46545
X122.56077 Y39.89565
X122.56138 Y39.27873
X122.32572 Y38.70838
X121.88978 Y38.27168
X121.31985 Y38.03505
X120.70301 Y38.03444
X120.13265 Y38.27010
X119.69595 Y38.70602
X119.45933 Y39.27597
X119.45872 Y39.89280
X119.69438 Y40.46316
X120.13029 Y40.89984
X120.70024 Y41.13649
X121.31708 Y41.13710
X121.88744 Y40.90141
G04 P0 ( dwell for no time -- G64 should not smooth over this point )
G00 Z5.00000 ( retract )

G00 X119.76758 Y39.57533 ( rapid move to begin. )
F300.00000
G01 Z-0.05000
G04 P0 ( dwell for no time -- G64 should not smooth over this point )
F600.00000
X119.76758 Y39.57533
X119.79692 Y39.31724
X119.87451 Y39.08021
X120.00446 Y38.85516
X120.17093 Y38.66946
X120.38853 Y38.50932
X120.62595 Y38.40363
X120.86979 Y38.35125
X121.12948 Y38.34907
X121.39415 Y38.40363
X121.62219 Y38.50457
X121.84914 Y38.66946
X122.01561 Y38.85516
X122.14555 Y39.08021
X122.22749 Y39.33769
X122.25249 Y39.59623
X122.22315 Y39.85432
X122.14555 Y40.09133
X122.01563 Y40.31638
X121.84914 Y40.50210
X121.63156 Y40.66222
X121.39415 Y40.76794
X121.13994 Y40.82196
X120.89057 Y40.82252
X120.62595 Y40.76794
X120.38856 Y40.66225
X120.18645 Y40.51610
X120.01104 Y40.32453
X119.87076 Y40.08158
X119.79420 Y39.84421
X119.76758 Y39.57533
G04 P0 ( dwell for no time -- G64 should not smooth over this point )
G00 Z5.00000 ( retract )

G00 X124.60626 Y45.29180 ( rapid move to begin. )
F300.00000
G01 Z-0.05000
G04 P0 ( dwell for no time -- G64 should not smooth over this point )
F600.00000
X124.60626 Y45.29180
X124.68555 Y45.43021
X124.76749 Y45.68769
X124.79249 Y45.94623
X124.76315 Y46.20432
X124.68555 Y46.44133
X124.55563 Y46.66638
X124.38914 Y46.85210
X124.18032 Y47.00653
X123.93415 Y47.11794
X123.69028 Y47.17031
X123.40979 Y47.17031
X123.16595 Y47.11794
X122.92856 Y47.01225
X122.72645 Y46.86610
X122.54444 Y46.66640
X122.41451 Y46.44136
X122.33420 Y46.19421
X122.30705 Y45.93577
X122.33257 Y45.68769
X122.41451 Y45.43021
X122.54446 Y45.20516
X122.71093 Y45.01946
X122.91975 Y44.86503
X123.16595 Y44.75363
X123.40979 Y44.70125
X123.67994 Y44.69960
X123.92401 Y44.75094
X124.30303 Y44.92010
X124.40008 Y44.98246
X124.50339 Y45.08576
X124.56592 Y45.18322
X124.60626 Y45.29180
G04 P0 ( dwell for no time -- G64 should not smooth over this point )
G00 Z5.00000 ( retract )

G00 X128.49243 Y41.65023 ( rapid move to begin. )
F300.00000
G01 Z-0.05000
G04 P0 ( dwell for no time -- G64 should not smooth over this point )
F600.00000
X128.49243 Y41.65023
X128.12748 Y40.76700
X127.45240 Y40.09075
X126.56985 Y39.72430
X125.61451 Y39.72339
X124.73127 Y40.08833
X124.05502 Y40.76339
X123.68858 Y41.64596
X123.68766 Y42.60131
X124.05261 Y43.48452
X124.72767 Y44.16079
X125.61024 Y44.52724
X126.56559 Y44.52815
X127.44879 Y44.16321
X128.12507 Y43.48812
X128.49152 Y42.60555
X128.49243 Y41.65023
G04 P0 ( dwell for no time -- G64 should not smooth over this point )
G00 Z5.00000 ( retract )

G00 X130.81602 Y39.80330 ( rapid move to begin. )
F300.00000
G01 Z-0.05000
G04 P0 ( dwell for no time -- G64 should not smooth over this point )
F600.00000
X130.81602 Y39.80330
X130.81602 Y39.52100
X130.79032 Y39.49529
X130.13637 Y39.49529
X129.98638 Y39.55740
X129.87170 Y39.67208
X129.80952 Y39.82217
X129.80952 Y40.47599
X129.83533 Y40.50180
X130.11752 Y40.50180
X130.11752 Y39.90329
X130.13439 Y39.84772
X130.16197 Y39.82014
X130.21752 Y39.80330
X130.81602 Y39.80330
G04 P0 ( dwell for no time -- G64 should not smooth over this point )
G00 Z5.00000 ( retract )

G00 X134.26554 Y38.36355 ( rapid move to begin. )
F300.00000
G01 Z-0.05000
G04 P0 ( dwell for no time -- G64 should not smooth over this point )
F600.00000
X134.26554 Y38.36355
X121.83481 Y25.93281
X121.78559 Y25.85920
X121.76829 Y25.77234
X121.78383 Y25.68999
X121.83837 Y25.60840
X121.90847 Y25.56258
X121.99529 Y25.54534
X124.78286 Y25.54534
X124.91301 Y25.58638
X129.32077 Y29.98919
X129.38057 Y30.09597
X129.46926 Y30.53956
X129.73205 Y30.93285
X130.03949 Y31.24029
X130.43279 Y31.50308
X130.87424 Y31.59094
X131.31564 Y31.50313
X131.68991 Y31.25307
X131.93997 Y30.87880
X132.02783 Y30.43738
X131.94002 Y29.99597
X131.67728 Y29.60276
X131.42918 Y29.35462
X131.35150 Y29.24561
X130.97650 Y28.99504
X130.57955 Y28.91559
X130.47279 Y28.85582
X126.34979 Y24.73279
X126.30056 Y24.65918
X126.28520 Y24.55278
X126.30981 Y24.46812
X126.39259 Y24.37851
X126.51029 Y24.34531
X146.46765 Y24.34775
X146.53420 Y24.36454
X146.60337 Y24.41178
X151.85553 Y29.66397
X151.90277 Y29.73313
X151.91849 Y29.78505
X151.91766 Y39.57200
X151.88380 Y39.65382
X151.82114 Y39.71648
X151.73930 Y39.75036
X151.67023 Y39.75229
X151.60369 Y39.73548
X151.54966 Y39.70068
X151.40371 Y39.55742
X151.25378 Y39.49529
X150.59978 Y39.49529
X150.57402 Y39.52105
X150.57402 Y39.80330
X151.19205 Y39.80520
X151.24324 Y39.83258
X151.27062 Y39.88376
X151.27252 Y41.80829
X151.26493 Y41.84655
X151.22810 Y41.89143
X151.17252 Y41.90829
X149.24801 Y41.90636
X149.19683 Y41.87898
X149.16945 Y41.82780
X149.16752 Y41.20979
X148.88528 Y41.20979
X148.85952 Y41.23555
X148.85952 Y41.88932
X148.92165 Y42.03936
X149.03641 Y42.15412
X149.16292 Y42.23529
X149.19973 Y42.29384
X149.21692 Y42.38071
X149.18365 Y42.49846
X149.06767 Y42.62336
X148.85980 Y43.12401
X148.85924 Y43.66509
X149.06597 Y44.16539
X149.44834 Y44.54845
X149.94829 Y44.75602
X150.48936 Y44.75657
X150.98967 Y44.54984
X151.26988 Y44.27011
X151.34351 Y44.22099
X151.54463 Y44.20379
X151.87453 Y44.13819
X152.15436 Y43.95122
X153.12042 Y42.99933
X153.23421 Y42.97045
X153.31151 Y42.98581
X153.37054 Y43.02104
X153.41516 Y43.06720
X153.44950 Y43.14357
X153.44465 Y43.29453
X153.38974 Y43.38693
X148.79452 Y47.98217
X148.74283 Y48.01966
X148.65891 Y48.04620
X146.49331 Y48.04867
X146.37543 Y48.01542
X146.29267 Y47.92571
X146.26623 Y47.82147
X146.28355 Y47.73462
X146.39872 Y47.45720
X146.39923 Y46.95654
X146.20794 Y46.49360
X145.85412 Y46.13917
X145.39148 Y45.94710
X144.89085 Y45.94659
X144.44594 Y46.12835
X144.37787 Y46.13983
X144.29105 Y46.12251
X144.21744 Y46.07326
X144.16494 Y45.99023
X144.15150 Y45.62906
X143.91572 Y45.05838
X143.47978 Y44.62168
X142.90985 Y44.38505
X142.29301 Y44.38444
X141.72265 Y44.62010
X141.28595 Y45.05602
X141.04933 Y45.62597
X141.04872 Y46.24280
X141.28438 Y46.81316
X141.72029 Y47.24984
X142.29024 Y47.48649
X142.90708 Y47.48710
X143.47919 Y47.25070
X143.57190 Y47.18436
X143.65420 Y47.16896
X143.74101 Y47.18629
X143.81462 Y47.23556
X143.86375 Y47.30922
X143.88087 Y47.45530
X144.00952 Y47.77790
X144.00942 Y47.86607
X143.97548 Y47.94786
X143.86906 Y48.03315
X143.78673 Y48.04867
X137.17923 Y48.04194
X137.07235 Y47.98207
X135.92335 Y46.82688
X135.88952 Y46.74512
X135.83003 Y46.44595
X135.57997 Y46.07168
X135.20570 Y45.82162
X134.76427 Y45.73379
X134.32285 Y45.82157
X133.94858 Y46.07163
X133.69852 Y46.44590
X133.63169 Y46.78172
X133.59786 Y46.86343
X132.48546 Y47.98207
X132.41173 Y48.03137
X132.32478 Y48.04867
X127.40379 Y48.04514
X127.35184 Y48.02942
X127.28263 Y47.98212
X127.23343 Y47.90838
X127.21623 Y47.82147
X127.23355 Y47.73462
X127.34872 Y47.45720
X127.34923 Y46.95654
X127.15794 Y46.49360
X126.80412 Y46.13917
X126.34148 Y45.94710
X125.84085 Y45.94659
X125.39594 Y46.12835
X125.32787 Y46.13983
X125.24105 Y46.12251
X125.16744 Y46.07326
X125.11494 Y45.99023
X125.10150 Y45.62906
X124.86541 Y45.05767
X124.76221 Y44.95124
X124.66986 Y44.81599
X124.53585 Y44.72442
X124.43051 Y44.62198
X123.85985 Y44.38505
X123.24301 Y44.38444
X122.67265 Y44.62010
X122.23595 Y45.05602
X121.99933 Y45.62597
X121.99872 Y46.24280
X122.23438 Y46.81316
X122.67029 Y47.24984
X123.24024 Y47.48649
X123.85708 Y47.48710
X124.42919 Y47.25070
X124.52190 Y47.18436
X124.60420 Y47.16896
X124.69101 Y47.18629
X124.76462 Y47.23556
X124.81375 Y47.30922
X124.83087 Y47.45530
X124.95952 Y47.77790
X124.95942 Y47.86607
X124.92548 Y47.94786
X124.81906 Y48.03315
X124.73673 Y48.04867
X116.86992 Y48.04194
X116.76157 Y47.98055
X116.67617 Y47.88872
X116.64290 Y47.80783
X116.66223 Y47.62228
X116.66223 Y46.95957
X116.57003 Y46.49597
X116.31996 Y46.12170
X115.94569 Y45.87163
X115.50424 Y45.78378
X115.06284 Y45.87158
X114.68857 Y46.12165
X114.43851 Y46.49592
X114.34623 Y46.95977
X114.34623 Y47.49508
X114.32898 Y47.58189
X114.27976 Y47.65555
X113.95314 Y47.98217
X113.87953 Y48.03137
X113.79261 Y48.04869
X108.39318 Y48.04869
X108.30629 Y48.03140
X108.23263 Y47.98212
X108.18343 Y47.90838
X108.16623 Y47.82147
X108.18355 Y47.73462
X108.29872 Y47.45720
X108.29923 Y46.95654
X108.10794 Y46.49360
X107.75412 Y46.13917
X107.29148 Y45.94710
X106.79085 Y45.94659
X106.34594 Y46.12835
X106.27787 Y46.13983
X106.19105 Y46.12251
X106.11744 Y46.07326
X106.06494 Y45.99023
X106.05150 Y45.62906
X105.81541 Y45.05767
X105.71221 Y44.95124
X105.61986 Y44.81599
X105.48585 Y44.72442
X105.38051 Y44.62198
X104.80985 Y44.38505
X104.19301 Y44.38444
X103.62265 Y44.62010
X103.18595 Y45.05602
X102.94933 Y45.62597
X102.94872 Y46.24280
X103.18438 Y46.81316
X103.62029 Y47.24984
X104.19024 Y47.48649
X104.80708 Y47.48710
X105.37919 Y47.25070
X105.47190 Y47.18436
X105.55420 Y47.16896
X105.64101 Y47.18629
X105.71462 Y47.23556
X105.76375 Y47.30922
X105.78087 Y47.45530
X105.90952 Y47.77790
X105.90942 Y47.86607
X105.88473 Y47.93058
X105.82798 Y47.99802
X105.78244 Y48.02723
X105.68673 Y48.04867
X96.31995 Y48.04514
X96.26803 Y48.02942
X96.19887 Y47.98217
X93.32074 Y45.10405
X93.27152 Y45.03036
X93.25427 Y44.94344
X93.27157 Y44.85652
X93.34739 Y44.76054
X93.83951 Y44.55000
X94.17619 Y44.23024
X94.26080 Y44.20570
X94.39463 Y44.20379
X94.72453 Y44.13819
X95.00428 Y43.95127
X96.16549 Y42.79006
X96.35241 Y42.51030
X96.41802 Y42.18063
X96.41802 Y37.26535
X96.35246 Y36.93571
X96.16554 Y36.65596
X90.24244 Y30.73285
X90.19322 Y30.65924
X90.17889 Y30.53768
X90.19520 Y30.48101
X90.24244 Y30.41182
X90.31610 Y30.36262
X90.38344 Y30.34728
X91.45550 Y30.34538
X91.58562 Y30.38642
X93.64180 Y32.43760
X93.70162 Y32.54443
X93.78846 Y32.97875
X94.05125 Y33.37204
X94.36951 Y33.69030
X94.76280 Y33.95309
X95.20423 Y34.04095
X95.64563 Y33.95314
X96.01990 Y33.70308
X96.26996 Y33.32881
X96.35782 Y32.88736
X96.27002 Y32.44596
X96.00723 Y32.05266
X95.73349 Y31.77893
X95.67093 Y31.69236
X95.29570 Y31.44164
X94.89875 Y31.36216
X94.80713 Y31.31484
X93.02242 Y29.53286
X92.97320 Y29.45925
X92.95783 Y29.35285
X92.98244 Y29.26819
X93.06522 Y29.17858
X93.18290 Y29.14538
X103.61788 Y29.14538
X103.74803 Y29.18645
X113.80135 Y39.23822
X113.83056 Y39.28371
X113.85202 Y39.38059
X113.83810 Y39.65534
X113.78558 Y39.73827
X113.66447 Y39.80124
X113.58078 Y39.80040
X113.49891 Y39.76652
X113.30369 Y39.55742
X113.15378 Y39.49529
X112.49978 Y39.49529
X112.47402 Y39.52105
X112.47402 Y39.80330
X113.09205 Y39.80520
X113.14324 Y39.83258
X113.17062 Y39.88376
X113.17252 Y41.80829
X113.16493 Y41.84655
X113.12810 Y41.89143
X113.07252 Y41.90829
X111.14801 Y41.90636
X111.09683 Y41.87898
X111.06945 Y41.82780
X111.06752 Y41.20979
X110.78528 Y41.20979
X110.75952 Y41.23555
X110.75952 Y41.88932
X110.82165 Y42.03936
X110.93641 Y42.15412
X111.06292 Y42.23529
X111.09973 Y42.29384
X111.11692 Y42.38071
X111.08365 Y42.49846
X110.96767 Y42.62336
X110.75980 Y43.12401
X110.75924 Y43.66509
X110.96597 Y44.16539
X111.34834 Y44.54845
X111.84829 Y44.75602
X112.38936 Y44.75657
X112.88967 Y44.54984
X113.16988 Y44.27011
X113.24351 Y44.22099
X113.44463 Y44.20379
X113.77453 Y44.13819
X114.05428 Y43.95127
X115.21549 Y42.79006
X115.40241 Y42.51030
X115.46802 Y42.18063
X115.46802 Y38.97297
X115.40246 Y38.64330
X115.21554 Y38.36355
X105.18483 Y28.33283
X105.12506 Y28.22608
X105.12992 Y28.10421
X105.18145 Y28.01536
X105.26306 Y27.96082
X105.34531 Y27.94536
X108.16547 Y27.94536
X108.26966 Y27.97185
X108.32600 Y28.01183
X110.30928 Y29.99511
X110.36905 Y30.10187
X110.44847 Y30.49877
X110.71126 Y30.89206
X111.04951 Y31.23031
X111.44281 Y31.49310
X111.88423 Y31.58093
X112.32563 Y31.49315
X112.69990 Y31.24309
X112.94997 Y30.86882
X113.03783 Y30.42737
X112.95002 Y29.98597
X112.68723 Y29.59267
X112.34898 Y29.25442
X111.95568 Y28.99163
X111.55876 Y28.91218
X111.46714 Y28.86486
X109.73242 Y27.13281
X109.68320 Y27.05920
X109.66783 Y26.95280
X109.69244 Y26.86814
X109.77522 Y26.77853
X109.89290 Y26.74533
X120.26786 Y26.74533
X120.37205 Y26.77183
X120.42841 Y26.81180
X132.86882 Y39.26177
X132.90202 Y39.38059
X132.89532 Y39.63151
X132.83558 Y39.73827
X132.71447 Y39.80124
X132.63078 Y39.80040
X132.54891 Y39.76652
X132.35369 Y39.55742
X132.20378 Y39.49529
X131.54978 Y39.49529
X131.52402 Y39.52105
X131.52402 Y39.80330
X132.14205 Y39.80520
X132.19324 Y39.83258
X132.22062 Y39.88376
X132.22252 Y41.80829
X132.21493 Y41.84655
X132.17810 Y41.89143
X132.12252 Y41.90829
X130.19801 Y41.90636
X130.14683 Y41.87898
X130.11945 Y41.82780
X130.11752 Y41.20979
X129.83528 Y41.20979
X129.80952 Y41.23555
X129.80952 Y41.88932
X129.87165 Y42.03936
X129.98641 Y42.15412
X130.11292 Y42.23529
X130.14973 Y42.29384
X130.16692 Y42.38071
X130.13365 Y42.49846
X130.01767 Y42.62336
X129.80980 Y43.12401
X129.80924 Y43.66509
X130.01597 Y44.16539
X130.39834 Y44.54845
X130.89829 Y44.75602
X131.43936 Y44.75657
X131.93967 Y44.54984
X132.21988 Y44.27011
X132.29351 Y44.22099
X132.49463 Y44.20379
X132.82453 Y44.13819
X133.10428 Y43.95127
X134.26549 Y42.79006
X134.45241 Y42.51030
X134.51802 Y42.18063
X134.51802 Y38.97297
X134.45246 Y38.64330
X134.26554 Y38.36355
G04 P0 ( dwell for no time -- G64 should not smooth over this point )
G00 Z5.00000 ( retract )

G00 X138.74595 Y38.70602 ( rapid move to begin. )
F300.00000
G01 Z-0.05000
G04 P0 ( dwell for no time -- G64 should not smooth over this point )
F600.00000
X138.74595 Y38.70602
X138.50933 Y39.27597
X138.50872 Y39.89280
X138.74438 Y40.46316
X139.18029 Y40.89984
X139.75024 Y41.13649
X140.36708 Y41.13710
X140.93744 Y40.90141
X141.37417 Y40.46545
X141.61077 Y39.89565
X141.61138 Y39.27873
X141.37572 Y38.70838
X140.93978 Y38.27168
X140.36985 Y38.03505
X139.75301 Y38.03444
X139.18265 Y38.27010
X138.74595 Y38.70602
G04 P0 ( dwell for no time -- G64 should not smooth over this point )
G00 Z5.00000 ( retract )

G00 X138.81758 Y39.57533 ( rapid move to begin. )
F300.00000
G01 Z-0.05000
G04 P0 ( dwell for no time -- G64 should not smooth over this point )
F600.00000
X138.81758 Y39.57533
X138.84692 Y39.31724
X138.92451 Y39.08021
X139.05446 Y38.85516
X139.22093 Y38.66946
X139.43853 Y38.50932
X139.67595 Y38.40363
X139.91979 Y38.35125
X140.17948 Y38.34907
X140.44415 Y38.40363
X140.67219 Y38.50457
X140.89914 Y38.66946
X141.06561 Y38.85516
X141.19555 Y39.08021
X141.27749 Y39.33769
X141.30249 Y39.59623
X141.27315 Y39.85432
X141.19555 Y40.09133
X141.06563 Y40.31638
X140.89914 Y40.50210
X140.68156 Y40.66222
X140.44415 Y40.76794
X140.18994 Y40.82196
X139.94057 Y40.82252
X139.67595 Y40.76794
X139.43856 Y40.66225
X139.23645 Y40.51610
X139.06104 Y40.32453
X138.92076 Y40.08158
X138.84420 Y39.84421
X138.81758 Y39.57533
G04 P0 ( dwell for no time -- G64 should not smooth over this point )
G00 Z5.00000 ( retract )

G00 X144.42791 Y35.97788 ( rapid move to begin. )
F300.00000
G01 Z-0.05000
G04 P0 ( dwell for no time -- G64 should not smooth over this point )
F600.00000
X144.42791 Y35.97788
X144.07345 Y36.33170
X143.88138 Y36.79431
X143.88087 Y37.29497
X144.07215 Y37.75791
X144.42598 Y38.11237
X144.88859 Y38.30444
X145.38925 Y38.30495
X145.85219 Y38.11366
X146.20664 Y37.75984
X146.39872 Y37.29720
X146.39923 Y36.79654
X146.20794 Y36.33360
X145.85412 Y35.97917
X145.39148 Y35.78710
X144.89085 Y35.78659
X144.42791 Y35.97788
G04 P0 ( dwell for no time -- G64 should not smooth over this point )
G00 Z5.00000 ( retract )

G00 X147.54243 Y41.65023 ( rapid move to begin. )
F300.00000
G01 Z-0.05000
G04 P0 ( dwell for no time -- G64 should not smooth over this point )
F600.00000
X147.54243 Y41.65023
X147.17748 Y40.76700
X146.50240 Y40.09075
X145.61985 Y39.72430
X144.66451 Y39.72339
X143.78127 Y40.08833
X143.10502 Y40.76339
X142.73858 Y41.64596
X142.73766 Y42.60131
X143.10261 Y43.48452
X143.77767 Y44.16079
X144.66024 Y44.52724
X145.61559 Y44.52815
X146.49879 Y44.16321
X147.17507 Y43.48812
X147.54152 Y42.60555
X147.54243 Y41.65023
G04 P0 ( dwell for no time -- G64 should not smooth over this point )
G00 Z5.00000 ( retract )

G00 X149.86602 Y39.80330 ( rapid move to begin. )
F300.00000
G01 Z-0.05000
G04 P0 ( dwell for no time -- G64 should not smooth over this point )
F600.00000
X149.86602 Y39.80330
X149.86602 Y39.52100
X149.84032 Y39.49529
X149.18637 Y39.49529
X149.03638 Y39.55740
X148.92170 Y39.67208
X148.85952 Y39.82217
X148.85952 Y40.47599
X148.88533 Y40.50180
X149.16752 Y40.50180
X149.16752 Y39.90329
X149.18439 Y39.84772
X149.21197 Y39.82014
X149.26752 Y39.80330
X149.86602 Y39.80330
G04 P0 ( dwell for no time -- G64 should not smooth over this point )
G00 Z5.00000 ( retract )

G00 X157.26857 Y37.68956 ( rapid move to begin. )
F300.00000
G01 Z-0.05000
G04 P0 ( dwell for no time -- G64 should not smooth over this point )
F600.00000
X157.26857 Y37.68956
X157.29550 Y37.74343
X157.36339 Y37.78438
X157.44198 Y37.75745
X157.48290 Y37.68961
X157.48290 Y37.49863
X157.26857 Y37.49863
X157.26857 Y37.68956
G04 P0 ( dwell for no time -- G64 should not smooth over this point )
G00 Z5.00000 ( retract )

G00 X157.98287 Y37.49863 ( rapid move to begin. )
F300.00000
G01 Z-0.05000
G04 P0 ( dwell for no time -- G64 should not smooth over this point )
F600.00000
X157.98287 Y37.49863
X157.98287 Y37.70790
X158.02285 Y37.82791
X158.07766 Y37.85580
X158.17385 Y37.85580
X158.22770 Y37.82888
X158.26860 Y37.76108
X158.26860 Y37.49863
X157.98287 Y37.49863
G04 P0 ( dwell for no time -- G64 should not smooth over this point )
G00 Z5.00000 ( retract )

G00 X157.68462 Y38.19492 ( rapid move to begin. )
F300.00000
G01 Z-0.05000
G04 P0 ( dwell for no time -- G64 should not smooth over this point )
F600.00000
X157.68462 Y38.19492
X157.50822 Y38.27604
X157.26535 Y38.28125
X157.01488 Y38.16540
X156.88755 Y38.03807
X156.79187 Y37.85341
X156.76860 Y37.74864
X156.77200 Y37.20950
X156.79187 Y37.14407
X156.83522 Y37.07915
X156.91406 Y37.02187
X157.01859 Y36.99865
X158.51858 Y36.99865
X158.60504 Y37.01435
X158.68808 Y37.06523
X158.74535 Y37.14407
X158.76524 Y37.20957
X158.76679 Y37.84341
X158.74172 Y37.93276
X158.64065 Y38.12021
X158.50129 Y38.24963
X158.34469 Y38.32936
X158.25600 Y38.35397
X157.96512 Y38.34922
X157.74241 Y38.24498
X157.68462 Y38.19492
G04 P0 ( dwell for no time -- G64 should not smooth over this point )
G00 Z5.00000 ( retract )

G00 X158.17385 Y39.21295 ( rapid move to begin. )
F300.00000
G01 Z-0.05000
G04 P0 ( dwell for no time -- G64 should not smooth over this point )
F600.00000
X158.17385 Y39.21295
X158.22765 Y39.18608
X158.26860 Y39.11821
X158.26860 Y39.02186
X158.22770 Y38.95407
X158.17396 Y38.92720
X157.86329 Y38.92720
X157.79555 Y38.96804
X157.76857 Y39.02197
X157.76857 Y39.11813
X157.80952 Y39.18602
X157.86336 Y39.21295
X158.17385 Y39.21295
G04 P0 ( dwell for no time -- G64 should not smooth over this point )
G00 Z5.00000 ( retract )

G00 X158.76824 Y38.96029 ( rapid move to begin. )
F300.00000
G01 Z-0.05000
G04 P0 ( dwell for no time -- G64 should not smooth over this point )
F600.00000
X158.76824 Y38.96029
X158.76557 Y39.21595
X158.64972 Y39.46657
X158.52239 Y39.59395
X158.27162 Y39.70987
X157.80472 Y39.71290
X157.69161 Y39.68602
X157.51546 Y39.59443
X157.41432 Y39.49783
X157.36644 Y39.43182
X157.27159 Y39.21564
X157.27162 Y38.92440
X157.38755 Y38.67340
X157.51490 Y38.54610
X157.76568 Y38.43022
X158.24825 Y38.42839
X158.33771 Y38.45044
X158.50911 Y38.53797
X158.66247 Y38.69451
X158.75074 Y38.87104
X158.76824 Y38.96029
G04 P0 ( dwell for no time -- G64 should not smooth over this point )
G00 Z5.00000 ( retract )

G00 X158.24538 Y40.35577 ( rapid move to begin. )
F300.00000
G01 Z-0.05000
G04 P0 ( dwell for no time -- G64 should not smooth over this point )
F600.00000
X158.24538 Y40.35577
X157.76857 Y40.35577
X157.76476 Y40.50454
X157.72316 Y40.60576
X157.76540 Y40.71320
X158.34294 Y40.71592
X158.41706 Y40.73979
X158.62674 Y40.86047
X158.74220 Y41.06540
X158.76679 Y41.15303
X158.76804 Y41.33052
X158.75074 Y41.41193
X158.69331 Y41.49841
X158.63425 Y41.54129
X158.55511 Y41.56702
X158.49247 Y41.56867
X158.40296 Y41.54129
X158.35135 Y41.50586
X158.28648 Y41.41193
X158.26860 Y41.23613
X158.24538 Y41.21292
X157.76857 Y41.21292
X157.76042 Y41.38211
