( pcb2gcode 1.3.2 )
( Software-independent Gcode )

( This file uses 5 drill bit sizes. )
( Bit sizes: [0.8mm] [0.991mm] [1mm] [1.499mm] [2.2mm] )

G94       (Millimeters per minute feed rate.)
G21       (Units == Millimeters.)
G91.1     (Incremental arc distance mode.)
G90       (Absolute coordinates.)
S10000     (RPM spindle speed.)

G00 Z10.00000 (Retract)
T1
M5      (Spindle stop.)
(MSG, Change tool bit to drill size 0.80000 mm)
M6      (Tool change.)
M0      (Temporary machine stop.)
M3      (Spindle on clockwise.)

G81 R5.00000 Z-2.50000 F1000.00000 X16.86984 Y8.47040
X26.41584 Y10.34740
X45.44584 Y10.41740
X64.39584 Y10.37740
X67.15584 Y32.50740
X74.28584 Y33.24740
X86.62284 Y32.52740
X93.25584 Y33.76740
X99.69584 Y16.19740
X99.24584 Y11.71740
X101.14584 Y9.46740
X102.51584 Y7.21740
X109.50584 Y6.38740
X106.86984 Y20.81540
X112.66884 Y34.16740
X131.38584 Y33.33740
X134.20584 Y24.82740
X138.08584 Y26.01740
X150.80984 Y33.23540
X155.15584 Y17.12740
X155.22584 Y14.37740
X155.23584 Y10.06740
X155.34584 Y6.58740
X155.30584 Y3.89740
X145.98584 Y3.89740
X142.99584 Y3.87740
X139.98584 Y4.00740
X132.12584 Y8.85740
X125.69584 Y6.89740
X125.62584 Y10.14740
X125.61984 Y13.05540
X125.54584 Y14.95540
X50.49584 Y30.05740
X46.50584 Y46.93740
X27.24584 Y46.88740
X31.47484 Y30.06040
X7.64584 Y34.93740

G00 Z10.00000 (Retract)
T2
M5      (Spindle stop.)
(MSG, Change tool bit to drill size 0.99100 mm)
M6      (Tool change.)
M0      (Temporary machine stop.)
M3      (Spindle on clockwise.)

G81 R5.00000 Z-2.50000 F1000.00000 X11.78984 Y15.45540
X11.78984 Y17.99540
X30.83984 Y17.99540
X30.83984 Y15.45540
X49.88984 Y15.45540
X49.88984 Y17.99540
X68.93984 Y17.99540
X68.93984 Y15.45540
X68.93984 Y40.85540
X68.93984 Y43.39540
X87.98984 Y43.39540
X87.98984 Y40.85540
X107.03984 Y40.85540
X107.03984 Y43.39540
X126.08984 Y43.39540
X126.08984 Y40.85540
X145.13984 Y40.85540
X145.13984 Y43.39540
X49.88984 Y43.39540
X49.88984 Y40.85540
X30.83984 Y40.85540
X30.83984 Y43.39540
X11.78984 Y43.39540
X11.78984 Y40.85540

G00 Z10.00000 (Retract)
T3
M5      (Spindle stop.)
(MSG, Change tool bit to drill size 1.00000 mm)
M6      (Tool change.)
M0      (Temporary machine stop.)
M3      (Spindle on clockwise.)

G81 R5.00000 Z-2.50000 F1000.00000 X4.16984 Y20.53540
X6.70984 Y20.53540
X6.70984 Y23.07540
X6.70984 Y25.61540
X6.70984 Y28.15540
X6.70984 Y30.69540
X4.16984 Y30.69540
X4.16984 Y28.15540
X4.16984 Y25.61540
X4.16984 Y23.07540

G00 Z10.00000 (Retract)
T4
M5      (Spindle stop.)
(MSG, Change tool bit to drill size 1.49900 mm)
M6      (Tool change.)
M0      (Temporary machine stop.)
M3      (Spindle on clockwise.)

G81 R5.00000 Z-2.50000 F1000.00000 X21.94984 Y14.18540
X19.40984 Y20.53540
X38.45984 Y20.53540
X40.99984 Y14.18540
X57.50984 Y20.53540
X60.04984 Y14.18540
X76.55984 Y20.53540
X79.09984 Y14.18540
X79.09984 Y39.58540
X76.55984 Y45.93540
X60.04984 Y39.58540
X57.50984 Y45.93540
X40.99984 Y39.58540
X38.45984 Y45.93540
X21.94984 Y39.58540
X19.40984 Y45.93540
X95.60984 Y45.93540
X98.14984 Y39.58540
X114.65984 Y45.93540
X117.19984 Y39.58540
X133.70984 Y45.93540
X136.24984 Y39.58540
X152.75984 Y45.93540
X155.29984 Y39.58540

G00 Z10.00000 (Retract)
T5
M5      (Spindle stop.)
(MSG, Change tool bit to drill size 2.20000 mm)
M6      (Tool change.)
M0      (Temporary machine stop.)
M3      (Spindle on clockwise.)

G81 R5.00000 Z-2.50000 F1000.00000 X4.42384 Y4.78740
X4.42384 Y48.72940
X93.95984 Y19.25540
X154.20584 Y28.22740

G00 Z10.000 ( All done -- retract )

M5      (Spindle off.)
M9      (Coolant off.)
M2      (Program end.)

