( pcb2gcode 1.3.2 )
( Software-independent Gcode )

G94 ( Millimeters per minute feed rate. )
G21 ( Units == Millimeters. )

G90 ( Absolute coordinates. )
S10000 ( RPM spindle speed. )
G64 P0.01000 ( set maximum deviation from commanded toolpath )
F600.00000 ( Feedrate. )

F600.00000 ( Feedrate. )
M3 ( Spindle on clockwise. )
G04 P0 ( dwell for no time -- G64 should not smooth over this point )
G00 Z5.00000 ( retract )

G00 X6.42346 Y4.77733 ( rapid move to begin. )
F300.00000
G01 Z-0.05000
G04 P0 ( dwell for no time -- G64 should not smooth over this point )
F600.00000
X6.42346 Y4.77733
X6.37759 Y4.36186
X6.25107 Y3.97431
X6.04200 Y3.61221
X5.75412 Y3.29491
X5.41467 Y3.05099
X5.04203 Y2.88569
X4.64340 Y2.80040
X4.22542 Y2.79821
X3.80596 Y2.88569
X3.43335 Y3.05099
X3.09390 Y3.29491
X2.81259 Y3.60408
X2.59695 Y3.97431
X2.47043 Y4.36186
X2.42456 Y4.79823
X2.47043 Y5.21370
X2.59695 Y5.60123
X2.80599 Y5.96333
X3.09390 Y6.28065
X3.43335 Y6.52457
X3.80596 Y6.68987
X4.21495 Y6.77682
X4.62262 Y6.77738
X5.04203 Y6.68987
X5.42399 Y6.51982
X5.75412 Y6.28065
X6.03542 Y5.97149
X6.25107 Y5.60126
X6.37759 Y5.21370
X6.42346 Y4.77733
G04 P0 ( dwell for no time -- G64 should not smooth over this point )
G00 Z5.00000 ( retract )

G00 X11.36287 Y3.96077 ( rapid move to begin. )
F300.00000
G01 Z-0.05000
G04 P0 ( dwell for no time -- G64 should not smooth over this point )
F600.00000
X11.36287 Y3.96077
X83.19999 Y3.96077
X83.68640 Y4.43565
X83.78998 Y4.49102
X83.97210 Y4.52579
X93.47843 Y4.52579
X93.64472 Y4.49580
X110.61294 Y4.49580
X111.15002 Y5.03288
X111.15002 Y6.22810
X110.43646 Y6.94166
X110.33227 Y7.09498
X110.30199 Y7.18815
X110.29003 Y7.29523
X110.29003 Y8.26579
X109.92003 Y8.26579
X109.91810 Y7.74626
X109.90316 Y7.71022
X109.85828 Y7.67339
X109.22003 Y7.66579
X109.16445 Y7.68263
X109.12762 Y7.72751
X109.12003 Y8.46935
X109.04446 Y8.61126
X109.02275 Y8.71349
X109.02221 Y8.80760
X109.04446 Y8.92027
X109.12003 Y9.06216
X109.12193 Y9.78530
X109.16445 Y9.84892
X109.22003 Y9.86579
X109.82003 Y9.86579
X109.89071 Y9.83648
X109.92003 Y9.76579
X109.92003 Y9.26579
X110.39003 Y9.26579
X110.39193 Y9.78530
X110.40687 Y9.82134
X110.45175 Y9.85817
X111.09003 Y9.86579
X111.16071 Y9.83648
X111.19003 Y9.76579
X111.19003 Y9.06348
X111.25525 Y8.94786
X111.28952 Y8.77559
X111.29003 Y7.50227
X114.16934 Y4.62295
X114.27514 Y4.46577
X136.65713 Y4.46577
X137.58583 Y5.39447
X137.59396 Y9.69520
X137.62805 Y9.80757
X137.67590 Y9.89302
X138.11715 Y10.34580
X137.72050 Y10.34770
X137.66932 Y10.37508
X137.64194 Y10.42626
X137.64004 Y11.24450
X137.59414 Y11.38839
X137.59195 Y11.48237
X137.64004 Y11.64701
X137.64763 Y12.48405
X137.68446 Y12.52893
X137.74004 Y12.54579
X138.34004 Y12.54579
X138.39558 Y12.52893
X138.42317 Y12.50134
X138.44003 Y12.44579
X138.44003 Y11.89578
X138.61400 Y11.94358
X138.71842 Y11.94140
X138.91004 Y11.89578
X138.91004 Y12.44579
X138.92688 Y12.50134
X138.97176 Y12.53817
X139.62954 Y12.54386
X139.69317 Y12.50134
X139.71003 Y12.44579
X139.71003 Y11.64701
X139.75588 Y11.50315
X139.75809 Y11.40919
X139.71003 Y11.24463
X139.70241 Y10.40752
X139.66558 Y10.36264
X139.62954 Y10.34770
X139.15583 Y10.34580
X139.14765 Y10.08951
X139.07656 Y9.90798
X139.00935 Y9.82383
X138.58583 Y9.40031
X138.58583 Y5.18739
X138.55106 Y5.00527
X138.50656 Y4.91797
X138.43935 Y4.83382
X137.21200 Y3.60687
X137.06755 Y3.50898
X136.87466 Y3.46631
X112.54004 Y3.46578
X112.37344 Y3.49580
X93.50843 Y3.49580
X93.34188 Y3.52580
X84.17918 Y3.52580
X83.69879 Y3.05473
X83.57624 Y2.99072
X83.40707 Y2.96077
X11.14603 Y2.96123
X10.95558 Y3.00301
X10.80227 Y3.10720
X6.35645 Y7.55302
X6.29681 Y7.62579
X6.24319 Y7.72736
X6.21002 Y7.90658
X6.21002 Y18.92025
X5.44447 Y19.68581
X4.58513 Y19.68581
X4.45346 Y19.62960
X4.27962 Y19.59264
X4.07073 Y19.59099
X3.87642 Y19.63229
X3.70434 Y19.70831
X3.52694 Y19.83722
X3.40147 Y19.97740
X3.30690 Y20.14006
X3.24348 Y20.32818
X3.22057 Y20.52533
X3.24348 Y20.74339
X3.30690 Y20.93150
X3.40144 Y21.09414
X3.52694 Y21.23435
X3.69499 Y21.35848
X3.86667 Y21.43551
X4.07073 Y21.48057
X4.25885 Y21.48113
X4.46357 Y21.43927
X4.58506 Y21.38578
X6.29496 Y21.38578
X6.42656 Y21.44197
X6.60040 Y21.47892
X6.81962 Y21.47892
X7.00357 Y21.43927
X7.17568 Y21.36325
X7.33755 Y21.24832
X7.47857 Y21.09416
X7.57786 Y20.92218
X7.63926 Y20.73328
X7.65945 Y20.54623
X7.63654 Y20.32818
X7.57786 Y20.14938
X7.47855 Y19.97740
X7.35307 Y19.83722
X7.21002 Y19.73059
X7.21002 Y8.11362
X11.36287 Y3.96077
G04 P0 ( dwell for no time -- G64 should not smooth over this point )
G00 Z5.00000 ( retract )

G00 X11.90945 Y5.16079 ( rapid move to begin. )
F300.00000
G01 Z-0.05000
G04 P0 ( dwell for no time -- G64 should not smooth over this point )
F600.00000
X11.90945 Y5.16079
X82.70294 Y5.16079
X91.02174 Y13.47957
X91.10589 Y13.54678
X91.19319 Y13.59128
X91.37531 Y13.62606
X100.54611 Y13.62606
X100.63384 Y13.65483
X100.73714 Y13.66578
X104.15293 Y13.66578
X106.48003 Y15.99288
X106.48003 Y18.16580
X106.51947 Y18.35937
X106.58003 Y18.46524
X106.58193 Y19.18530
X106.62445 Y19.24893
X106.68003 Y19.26579
X107.29953 Y19.26386
X107.35071 Y19.23648
X107.37810 Y19.18530
X107.38003 Y18.46493
X107.44053 Y18.35937
X107.48003 Y18.16580
X107.48003 Y15.78579
X107.46801 Y15.67871
X107.43773 Y15.58554
X107.33354 Y15.43222
X104.71353 Y12.81221
X104.62933 Y12.74495
X104.46705 Y12.67775
X104.36002 Y12.66578
X100.98321 Y12.66578
X100.18123 Y11.86383
X100.09581 Y11.79593
X100.07885 Y11.55098
X100.02231 Y11.37165
X99.93343 Y11.21775
X99.82195 Y11.09312
X99.66145 Y10.97650
X99.49836 Y10.90630
X99.32421 Y10.87150
X99.15695 Y10.87203
X98.97339 Y10.91275
X98.82081 Y10.98125
X98.66965 Y11.09312
X98.55817 Y11.21775
X98.46554 Y11.38143
X98.41276 Y11.55098
X98.39584 Y11.86025
X97.63869 Y12.62606
X91.58239 Y12.62606
X83.26354 Y4.30723
X83.12270 Y4.20875
X82.99074 Y4.16735
X11.70242 Y4.16080
X11.52030 Y4.19552
X11.43300 Y4.24002
X11.34885 Y4.30723
X8.00646 Y7.64961
X7.93925 Y7.73376
X7.87200 Y7.89609
X7.86003 Y8.00318
X7.86003 Y22.00602
X7.71472 Y22.15139
X7.61970 Y22.13853
X7.45269 Y22.14786
X7.28048 Y22.19408
X7.17581 Y22.24836
X7.00357 Y22.17229
X6.79885 Y22.13046
X6.60040 Y22.13264
X6.41642 Y22.17229
X6.29491 Y22.22581
X4.58513 Y22.22581
X4.45346 Y22.16960
X4.27962 Y22.13264
X4.08120 Y22.13046
X3.87642 Y22.17229
X3.70434 Y22.24831
X3.52694 Y22.37722
X3.40147 Y22.51740
X3.30690 Y22.68006
X3.24348 Y22.86818
X3.22057 Y23.08623
X3.24348 Y23.28339
X3.29840 Y23.45240
X3.40144 Y23.63414
X3.54246 Y23.78832
X3.69499 Y23.89848
X3.86667 Y23.97551
X4.07073 Y24.02057
X4.25885 Y24.02113
X4.46357 Y23.97927
X4.58506 Y23.92578
X6.29496 Y23.92578
X6.42656 Y23.98197
X6.60040 Y24.01892
X6.79885 Y24.02113
X7.00357 Y23.97927
X7.21855 Y23.87480
X7.46349 Y23.92459
X7.63047 Y23.91526
X7.79216 Y23.87249
X7.96044 Y23.78857
X8.09074 Y23.68369
X8.29257 Y23.45865
X8.37936 Y23.29185
X8.42315 Y23.13043
X8.43461 Y22.94272
X8.42178 Y22.85847
X8.72015 Y22.55944
X8.81774 Y22.41339
X8.84802 Y22.32022
X8.86003 Y22.21319
X8.86003 Y8.21022
X11.90945 Y5.16079
G04 P0 ( dwell for no time -- G64 should not smooth over this point )
G00 Z5.00000 ( retract )

G00 X12.63206 Y6.43079 ( rapid move to begin. )
F300.00000
G01 Z-0.05000
G04 P0 ( dwell for no time -- G64 should not smooth over this point )
F600.00000
X12.63206 Y6.43079
X81.43294 Y6.43079
X90.13147 Y15.12930
X90.28478 Y15.23349
X90.37795 Y15.26377
X90.48504 Y15.27579
X98.06861 Y15.27579
X98.84583 Y16.05445
X98.86709 Y16.38422
X98.91929 Y16.54307
X99.01474 Y16.70512
X99.13516 Y16.83560
X99.27077 Y16.93349
X99.44324 Y17.00845
X99.61740 Y17.04327
X99.79498 Y17.04106
X99.96820 Y17.00199
X100.12078 Y16.93349
X100.27194 Y16.82163
X100.38344 Y16.69699
X100.47605 Y16.53331
X100.52883 Y16.36379
X100.54580 Y16.05445
X101.31285 Y15.27579
X103.91295 Y15.27579
X105.21003 Y16.57286
X105.21003 Y18.16580
X105.24947 Y18.35937
X105.31003 Y18.46524
X105.31003 Y19.16580
X105.32687 Y19.22134
X105.35445 Y19.24893
X105.41003 Y19.26579
X106.01003 Y19.26579
X106.06558 Y19.24893
X106.10810 Y19.18530
X106.11003 Y18.46493
X106.17053 Y18.35937
X106.21003 Y18.16580
X106.21003 Y16.36578
X106.17525 Y16.18366
X106.13075 Y16.09636
X106.06354 Y16.01221
X104.47355 Y14.42222
X104.33271 Y14.32374
X104.20076 Y14.28234
X104.12004 Y14.27579
X90.69212 Y14.27579
X81.99354 Y5.57723
X81.84020 Y5.47301
X81.72783 Y5.43892
X12.41522 Y5.43125
X12.22477 Y5.47304
X12.07145 Y5.57723
X9.20646 Y8.44222
X9.10227 Y8.59553
X9.06816 Y8.70793
X9.06003 Y23.76073
X8.06280 Y24.75799
X7.93207 Y24.67574
X7.78569 Y24.61956
X7.58978 Y24.58854
X7.42275 Y24.59784
X7.26107 Y24.64061
X7.07083 Y24.74163
X7.00357 Y24.71229
X6.81962 Y24.67264
X6.62120 Y24.67046
X6.41642 Y24.71229
X6.29491 Y24.76581
X4.58513 Y24.76581
X4.45346 Y24.70960
X4.27962 Y24.67264
X4.08120 Y24.67046
X3.87642 Y24.71229
X3.69499 Y24.79306
X3.52694 Y24.91722
X3.40147 Y25.05740
X3.30690 Y25.22006
X3.24348 Y25.40818
X3.22057 Y25.62623
X3.24348 Y25.82339
X3.29840 Y25.99240
X3.40144 Y26.17414
X3.54246 Y26.32832
X3.69499 Y26.43848
X3.86667 Y26.51551
X4.07073 Y26.56057
X4.25885 Y26.56113
X4.46357 Y26.51927
X4.58506 Y26.46578
X6.29496 Y26.46578
X6.42656 Y26.52197
X6.60040 Y26.55892
X6.79885 Y26.56113
X7.00357 Y26.51927
X7.12506 Y26.46578
X7.53354 Y26.45085
X7.69348 Y26.40434
X7.85754 Y26.31663
X8.13255 Y26.06271
X8.26562 Y25.96931
X9.91355 Y24.32139
X10.01774 Y24.16807
X10.04801 Y24.07490
X10.06003 Y23.96787
X10.06003 Y9.00282
X12.63206 Y6.43079
G04 P0 ( dwell for no time -- G64 should not smooth over this point )
G00 Z5.00000 ( retract )

G00 X11.17798 Y2.65277 ( rapid move to begin. )
F300.00000
G01 Z-0.05000
G04 P0 ( dwell for no time -- G64 should not smooth over this point )
F600.00000
X11.17798 Y2.65277
X83.38485 Y2.65277
X83.71452 Y2.71833
X83.99445 Y2.90538
X84.27088 Y3.17688
X84.40080 Y3.21780
X93.35760 Y3.21780
X93.52991 Y3.18777
X112.38916 Y3.18777
X112.56155 Y3.15778
X136.84199 Y3.15778
X137.17164 Y3.22333
X137.45139 Y3.41025
X138.44029 Y4.39915
X138.51390 Y4.44837
X138.59581 Y4.46552
X138.64981 Y4.46024
X138.72690 Y4.42739
X138.78954 Y4.36473
X138.81773 Y4.30166
X138.82769 Y4.03016
X138.92002 Y3.56595
X139.17008 Y3.19168
X139.54435 Y2.94162
X139.98578 Y2.85379
X140.42720 Y2.94157
X140.80147 Y3.19166
X141.05154 Y3.56588
X141.10302 Y3.82473
X141.13688 Y3.90652
X141.20797 Y3.97426
X141.32563 Y4.00743
X141.41250 Y3.99018
X141.49276 Y3.93369
X141.54869 Y3.81795
X141.81280 Y3.42267
X142.16106 Y3.07441
X142.55435 Y2.81162
X142.99578 Y2.72379
X143.43721 Y2.81157
X143.81147 Y3.06164
X144.06169 Y3.43613
X144.17215 Y3.94043
X144.25493 Y4.03004
X144.37264 Y4.06323
X144.45953 Y4.04599
X144.55559 Y3.97017
X144.59529 Y3.88051
X144.62003 Y3.75595
X144.88287 Y3.36263
X145.15107 Y3.09443
X145.54436 Y2.83164
X145.98579 Y2.74378
X146.42719 Y2.83159
X146.80146 Y3.08165
X147.05152 Y3.45592
X147.13943 Y3.89760
X147.05345 Y4.34175
X147.05452 Y4.39524
X147.09572 Y4.49476
X147.19173 Y4.57047
X147.27865 Y4.58780
X151.72200 Y4.58780
X152.05167 Y4.65333
X152.33140 Y4.84025
X153.20401 Y5.71286
X153.27762 Y5.76206
X153.36454 Y5.77939
X154.45959 Y5.77888
X154.57554 Y5.74134
X154.63904 Y5.67829
X154.67312 Y5.59633
X154.67508 Y5.52721
X154.65829 Y5.46056
X154.62349 Y5.40654
X154.14013 Y5.08307
X153.89007 Y4.70880
X153.80221 Y4.26737
X153.89002 Y3.82597
X154.15281 Y3.43268
X154.48862 Y3.08269
X154.86436 Y2.83164
X155.30579 Y2.74378
X155.74719 Y2.83159
X156.14612 Y3.09814
X156.34325 Y3.15493
X156.62301 Y3.34185
X157.93126 Y4.65010
X158.11818 Y4.92986
X158.18384 Y5.25980
X158.18384 Y19.12490
X158.11823 Y19.45482
X157.93131 Y19.73458
X157.30307 Y20.36282
X157.02331 Y20.54974
X156.69336 Y20.61540
X154.24826 Y20.61540
X153.91834 Y20.54979
X153.63861 Y20.36287
X150.59759 Y17.32186
X150.52393 Y17.27263
X150.43712 Y17.25538
X147.61406 Y17.25538
X147.28414 Y17.18978
X147.00441 Y17.00286
X143.83454 Y13.83301
X143.64762 Y13.55328
X143.58188 Y13.22280
X143.57749 Y13.04821
X143.52212 Y12.93998
X143.44185 Y12.88349
X143.35504 Y12.86624
X142.84137 Y12.86624
X142.66919 Y12.83385
X142.56797 Y12.77363
X142.48232 Y12.75811
X142.39728 Y12.77592
X142.31305 Y12.82857
X142.12718 Y12.86624
X141.57137 Y12.86624
X141.39919 Y12.83385
X141.29797 Y12.77363
X141.21232 Y12.75811
X141.12728 Y12.77592
X141.04305 Y12.82857
X140.85718 Y12.86624
X140.30137 Y12.86624
X140.12919 Y12.83385
X140.02797 Y12.77363
X139.94232 Y12.75811
X139.85728 Y12.77592
X139.77305 Y12.82857
X139.58718 Y12.86624
X139.03137 Y12.86624
X138.85919 Y12.83385
X138.75797 Y12.77363
X138.67232 Y12.75811
X138.58728 Y12.77592
X138.50305 Y12.82857
X138.31718 Y12.86624
X138.08118 Y12.86624
X137.99886 Y12.88173
X137.89241 Y12.96708
X137.85853 Y13.04889
X137.85660 Y13.11790
X137.88317 Y13.20203
X137.92066 Y13.25372
X139.86546 Y15.19852
X140.05238 Y15.47825
X140.11804 Y15.80819
X140.11804 Y19.19836
X140.14453 Y19.30250
X140.22731 Y19.39211
X140.34503 Y19.42536
X140.85895 Y19.42536
X141.03081 Y19.45767
X141.13195 Y19.51789
X141.21763 Y19.53341
X141.30267 Y19.51563
X141.38697 Y19.46298
X141.57259 Y19.42536
X142.12895 Y19.42536
X142.30081 Y19.45767
X142.40195 Y19.51789
X142.48763 Y19.53341
X142.57267 Y19.51563
X142.65697 Y19.46298
X142.84259 Y19.42536
X143.39895 Y19.42536
X143.57081 Y19.45767
X143.67195 Y19.51789
X143.75763 Y19.53341
X143.84267 Y19.51563
X143.92697 Y19.46298
X144.11259 Y19.42536
X144.66895 Y19.42536
X144.84081 Y19.45767
X144.94195 Y19.51789
X145.02763 Y19.53341
X145.11267 Y19.51563
X145.19697 Y19.46298
X145.38259 Y19.42536
X145.93895 Y19.42536
X146.11081 Y19.45767
X146.21195 Y19.51789
X146.29763 Y19.53341
X146.38267 Y19.51563
X146.46697 Y19.46298
X146.65292 Y19.42531
X147.25947 Y19.42091
X147.36824 Y19.36544
X147.42473 Y19.28523
X147.50377 Y18.82485
X147.67984 Y18.56133
X148.00390 Y18.23727
X148.26742 Y18.06117
X148.57796 Y17.99938
X150.00940 Y17.99938
X150.31992 Y18.06112
X150.58344 Y18.23722
X158.99509 Y26.64886
X159.17118 Y26.91239
X159.23303 Y27.22318
X159.23303 Y29.77441
X159.28302 Y30.04776
X159.28302 Y40.83979
X159.27047 Y40.92394
X159.27047 Y41.43936
X159.23809 Y41.61150
X159.17532 Y41.71658
X159.15970 Y41.80164
X159.17733 Y41.88719
X159.25803 Y42.07985
X159.25803 Y42.38099
X159.23222 Y42.40680
X158.95000 Y42.40680
X158.94807 Y42.14126
X158.92069 Y42.09008
X158.86951 Y42.06270
X158.10004 Y42.06080
X158.04447 Y42.07764
X158.00195 Y42.14126
X158.00004 Y42.40680
X157.71777 Y42.40680
X157.69202 Y42.38104
X157.69202 Y42.07977
X157.77279 Y41.88650
X157.79001 Y41.79831
X157.77243 Y41.71205
X157.71721 Y41.62376
X157.67960 Y41.43817
X157.67960 Y41.30205
X157.66227 Y41.21513
X157.61307 Y41.14152
X156.93571 Y40.46415
X156.85272 Y40.41157
X156.73078 Y40.40205
X156.64909 Y40.43591
X156.17993 Y40.89976
X155.60980 Y41.13649
X154.99296 Y41.13710
X154.42260 Y40.90141
X153.98588 Y40.46545
X153.74928 Y39.89565
X153.74867 Y39.27873
X153.98433 Y38.70838
X154.42565 Y38.26626
X154.47475 Y38.19268
X154.49202 Y38.10591
X154.49202 Y34.16046
X154.45768 Y34.04095
X154.35849 Y33.91669
X154.25176 Y33.85909
X154.14374 Y33.86061
X154.05273 Y33.90948
X153.99959 Y33.97468
X153.86182 Y34.06881
X153.67716 Y34.10623
X153.28885 Y34.10623
X153.07803 Y34.14379
X152.00778 Y34.14816
X151.92604 Y34.18202
X151.74722 Y34.30150
X151.28337 Y34.39378
X150.83247 Y34.39378
X150.36861 Y34.30155
X149.99416 Y34.05134
X149.69930 Y33.61781
X149.59269 Y33.55822
X149.47085 Y33.56307
X149.37844 Y33.61799
X143.88018 Y39.11625
X143.82042 Y39.22301
X143.81803 Y39.32100
X143.85194 Y39.40286
X143.91452 Y39.46545
X143.99156 Y39.49829
X144.76027 Y39.49529
X144.78602 Y39.52105
X144.78602 Y39.80330
X144.16799 Y39.80520
X144.11681 Y39.83258
X144.08943 Y39.88376
X144.08752 Y41.80829
X144.09512 Y41.84655
X144.13195 Y41.89143
X144.18752 Y41.90829
X146.11203 Y41.90636
X146.16321 Y41.87898
X146.19059 Y41.82780
X146.19252 Y41.20979
X146.47477 Y41.20979
X146.50052 Y41.23555
X146.50052 Y41.88932
X146.43839 Y42.03936
X146.32364 Y42.15412
X146.19712 Y42.23529
X146.16031 Y42.29384
X146.14312 Y42.38071
X146.17639 Y42.49846
X146.29237 Y42.62336
X146.50024 Y43.12401
X146.50080 Y43.66509
X146.29407 Y44.16539
X145.91170 Y44.54845
X145.41175 Y44.75602
X144.87068 Y44.75657
X144.37038 Y44.54984
X144.14025 Y44.32010
X144.06662 Y44.27098
X143.97990 Y44.25378
X143.81541 Y44.25378
X143.46636 Y44.18439
X143.17040 Y43.98662
X142.26296 Y43.07918
X142.01729 Y42.71937
X141.94384 Y42.67037
X141.85697 Y42.65312
X141.77013 Y42.67037
X141.69649 Y42.71960
X141.64727 Y42.79323
X141.63002 Y42.88012
X141.63002 Y47.93630
X141.56441 Y48.26622
X141.37749 Y48.54598
X140.51135 Y49.41212
X140.23160 Y49.59903
X139.90165 Y49.66469
X130.22631 Y49.66469
X129.89641 Y49.59908
X129.61666 Y49.41217
X125.53455 Y45.33006
X125.34763 Y45.05030
X125.28202 Y44.72063
X125.26467 Y44.51870
X125.21537 Y44.44502
X124.93732 Y44.16745
X124.72975 Y43.66750
X124.72919 Y43.12643
X124.93623 Y42.62541
X125.04943 Y42.50606
X125.08705 Y42.37565
X125.06986 Y42.29374
X125.03308 Y42.23529
X124.90638 Y42.15417
X124.79165 Y42.03943
X124.72952 Y41.88947
X124.72952 Y41.23550
X124.75523 Y41.20979
X125.03752 Y41.20979
X125.03943 Y41.82780
X125.08195 Y41.89143
X125.13752 Y41.90829
X127.06203 Y41.90636
X127.11321 Y41.87898
X127.14059 Y41.82780
X127.14252 Y41.20979
X127.42477 Y41.20979
X127.45052 Y41.23555
X127.45052 Y41.88932
X127.38839 Y42.03936
X127.27364 Y42.15412
X127.14712 Y42.23529
X127.11031 Y42.29384
X127.09312 Y42.38071
X127.12639 Y42.49846
X127.24237 Y42.62336
X127.45024 Y43.12401
X127.45080 Y43.66509
X127.24407 Y44.16539
X127.11016 Y44.29953
X127.06104 Y44.37316
X127.04384 Y44.45995
X127.06109 Y44.54675
X127.11031 Y44.62041
X129.53462 Y47.04471
X129.64132 Y47.10447
X129.77284 Y47.09718
X129.87152 Y47.02533
X130.10198 Y46.49373
X130.45593 Y46.13917
X130.91856 Y45.94710
X131.41920 Y45.94659
X131.87840 Y46.13318
X131.97645 Y46.13546
X132.05828 Y46.10145
X132.12082 Y46.03879
X132.15458 Y45.95728
X132.15854 Y45.62906
X132.39433 Y45.05838
X132.83027 Y44.62168
X133.40019 Y44.38505
X134.01703 Y44.38444
X134.58739 Y44.62010
X135.02409 Y45.05602
X135.26072 Y45.62597
X135.26089 Y45.78098
X135.27819 Y45.86772
X135.35391 Y45.96368
X135.44357 Y46.00341
X138.57991 Y46.00577
X138.64588 Y45.99086
X138.72197 Y45.94275
X138.76871 Y45.89244
X138.80369 Y45.79140
X138.78652 Y45.67595
X138.73953 Y45.60730
X138.62916 Y45.49691
X138.56703 Y45.34700
X138.56703 Y45.04550
X138.59274 Y45.01979
X138.87504 Y45.01979
X138.87694 Y45.28530
X138.90432 Y45.33648
X138.95550 Y45.36386
X139.87501 Y45.36579
X139.94570 Y45.33648
X139.97501 Y45.26579
X139.97501 Y42.76079
X139.96025 Y42.63631
X139.90000 Y42.48848
X139.90000 Y42.16080
X139.87069 Y42.09008
X139.80000 Y42.06080
X139.03051 Y42.06270
X138.97933 Y42.09008
X138.95195 Y42.14126
X138.95004 Y42.40680
X138.66777 Y42.40680
X138.64202 Y42.38104
X138.64202 Y42.07962
X138.66716 Y42.01386
X138.67585 Y41.91132
X138.64049 Y41.81965
X138.58187 Y41.75983
X138.45177 Y41.71879
X137.54745 Y41.71879
X137.19841 Y41.64937
X136.90252 Y41.45168
X136.65391 Y41.20304
X136.58009 Y41.15376
X136.49318 Y41.13657
X135.94296 Y41.13710
X135.37260 Y40.90141
X134.93588 Y40.46545
X134.69928 Y39.89565
X134.69867 Y39.27873
X134.93433 Y38.70838
X135.38218 Y38.25903
X135.43765 Y38.15014
X135.44200 Y34.16051
X135.42594 Y34.07679
X135.40014 Y34.02914
X135.28264 Y33.89553
X135.23044 Y33.86752
X135.15261 Y33.85312
X135.02582 Y33.89066
X134.94959 Y33.97468
X134.81182 Y34.06881
X134.62716 Y34.10623
X132.66418 Y34.09815
X132.58254 Y34.13198
X132.52270 Y34.19061
X132.48262 Y34.29721
X132.23151 Y34.67303
X131.85724 Y34.92309
X131.41582 Y35.01095
X130.97442 Y34.92314
X130.58214 Y34.66104
X130.32006 Y34.26881
X130.22783 Y33.80521
X130.22783 Y33.35919
X130.29111 Y32.98995
X130.25984 Y32.89178
X130.20726 Y32.83313
X130.11508 Y32.78789
X130.04653 Y32.78439
X129.97917 Y32.79973
X129.90553 Y32.84895
X123.40849 Y39.34597
X123.35927 Y39.41960
X123.34202 Y39.50650
X123.34202 Y47.17430
X123.27641 Y47.50422
X123.08949 Y47.78398
X121.46135 Y49.41212
X121.18160 Y49.59903
X120.85165 Y49.66469
X111.17631 Y49.66469
X110.84641 Y49.59908
X110.56666 Y49.41217
X106.48455 Y45.33006
X106.29763 Y45.05030
X106.23202 Y44.72063
X106.21467 Y44.51870
X106.16537 Y44.44502
X105.88732 Y44.16745
X105.67975 Y43.66750
X105.67919 Y43.12643
X105.88623 Y42.62541
X105.99943 Y42.50606
X106.03705 Y42.37565
X106.01986 Y42.29374
X105.98308 Y42.23529
X105.85638 Y42.15417
X105.74165 Y42.03943
X105.67952 Y41.88947
X105.67952 Y41.23550
X105.70523 Y41.20979
X105.98752 Y41.20979
X105.98943 Y41.82780
X106.03195 Y41.89143
X106.08752 Y41.90829
X108.01203 Y41.90636
X108.06321 Y41.87898
X108.09059 Y41.82780
X108.09252 Y41.20979
X108.37477 Y41.20979
X108.40052 Y41.23555
X108.40052 Y41.88932
X108.33839 Y42.03936
X108.22364 Y42.15412
X108.09712 Y42.23529
X108.06031 Y42.29384
X108.04312 Y42.38071
X108.07639 Y42.49846
X108.19237 Y42.62336
X108.40024 Y43.12401
X108.40080 Y43.66509
X108.19407 Y44.16539
X108.06016 Y44.29953
X108.01104 Y44.37316
X107.99384 Y44.45995
X108.01109 Y44.54675
X108.06031 Y44.62041
X110.48462 Y47.04471
X110.56747 Y47.09724
X110.68949 Y47.10681
X110.77136 Y47.07288
X110.82152 Y47.02533
X111.05198 Y46.49373
X111.40593 Y46.13917
X111.86856 Y45.94710
X112.36920 Y45.94659
X112.82840 Y46.13318
X112.92645 Y46.13546
X113.00828 Y46.10145
X113.07082 Y46.03879
X113.10458 Y45.95728
X113.10854 Y45.62906
X113.34433 Y45.05838
X113.78027 Y44.62168
X114.35019 Y44.38505
X114.96703 Y44.38444
X115.53739 Y44.62010
X115.97409 Y45.05602
X116.21072 Y45.62597
X116.21089 Y45.78098
X116.22819 Y45.86772
X116.31592 Y45.97214
X116.42809 Y46.00730
X119.55506 Y46.00323
X119.63172 Y45.97219
X119.69268 Y45.92505
X119.73931 Y45.85327
X119.75590 Y45.77163
X119.71790 Y45.64194
X119.57942 Y45.49752
X119.51703 Y45.34700
X119.51703 Y45.04550
X119.54274 Y45.01979
X119.82504 Y45.01979
X119.82694 Y45.28530
X119.86946 Y45.34893
X119.92504 Y45.36579
X120.84452 Y45.36386
X120.89570 Y45.33648
X120.92308 Y45.28530
X120.92501 Y45.01979
X121.20728 Y45.01979
X121.23303 Y45.04555
X121.23303 Y45.34682
X121.17065 Y45.49747
X121.02384 Y45.65843
X120.99920 Y45.72365
X120.99989 Y45.81311
X121.03235 Y45.89119
X121.11381 Y45.96597
X121.20804 Y46.10394
X121.24545 Y46.28860
X121.24545 Y46.79465
X121.26270 Y46.88146
X121.31190 Y46.95512
X121.38554 Y47.00432
X121.47245 Y47.02164
X121.55475 Y47.00610
X121.60255 Y46.98055
X121.68492 Y46.89818
X121.72602 Y46.76808
X121.72602 Y39.09997
X121.79158 Y38.77030
X121.97850 Y38.49055
X128.84618 Y31.62289
X128.89873 Y31.53996
X128.91077 Y31.44289
X128.89538 Y31.37550
X128.83891 Y31.29529
X128.76794 Y31.25089
X128.68570 Y31.23542
X124.88212 Y31.23542
X124.79523 Y31.25266
X124.72155 Y31.30192
X121.22407 Y34.80437
X121.18302 Y34.93450
X121.18302 Y40.60441
X121.22869 Y40.85526
X121.17291 Y41.14467
X121.17055 Y41.43398
X121.13827 Y41.60548
X121.08691 Y41.68884
X121.05986 Y41.80146
X121.07733 Y41.88218
X121.15803 Y42.07484
X121.15803 Y42.37598
X121.13222 Y42.40179
X120.85000 Y42.40179
X120.84807 Y42.13626
X120.80555 Y42.07263
X120.75000 Y42.05579
X119.96176 Y42.06339
X119.91688 Y42.10022
X119.90195 Y42.13626
X119.90004 Y42.40179
X119.61777 Y42.40179
X119.59202 Y42.37604
X119.59202 Y42.07461
X119.62681 Y41.96024
X119.62333 Y41.89176
X119.59049 Y41.81464
X119.49745 Y41.73522
X119.40177 Y41.71378
X118.49245 Y41.71378
X118.14340 Y41.64439
X117.84752 Y41.44668
X117.60391 Y41.20304
X117.53009 Y41.15376
X117.44318 Y41.13657
X116.89296 Y41.13710
X116.32260 Y40.90141
X115.88588 Y40.46545
X115.64928 Y39.89565
X115.64867 Y39.27873
X115.88433 Y38.70838
X116.32565 Y38.26626
X116.37475 Y38.19268
X116.39202 Y38.10591
X116.39202 Y34.16046
X116.35768 Y34.04095
X116.23264 Y33.89553
X116.14219 Y33.85682
X116.01996 Y33.86823
X115.93901 Y33.92091
X115.89959 Y33.97468
X115.76182 Y34.06881
X115.57716 Y34.10623
X114.42131 Y34.10623
X114.13422 Y34.04382
X113.99965 Y34.05050
X113.89289 Y34.11027
X113.84367 Y34.18390
X113.82832 Y34.25131
X113.82642 Y34.61230
X113.73419 Y35.07615
X113.47150 Y35.46932
X113.00940 Y35.77265
X112.94750 Y35.83485
X112.91370 Y35.91669
X112.91375 Y36.00526
X112.93846 Y36.06980
X113.18644 Y36.33137
X113.37867 Y36.79431
X113.37918 Y37.29497
X113.18789 Y37.75791
X112.83407 Y38.11237
X112.37146 Y38.30444
X111.87080 Y38.30495
X111.40786 Y38.11366
X111.05340 Y37.75984
X110.86132 Y37.29720
X110.86082 Y36.79654
X111.05210 Y36.33360
X111.40593 Y35.97917
X111.73864 Y35.83894
X111.79493 Y35.79896
X111.84740 Y35.71605
X111.85886 Y35.61367
X111.83232 Y35.52972
X111.56008 Y35.11880
X111.47212 Y34.67681
X111.51042 Y34.46322
X111.51042 Y34.18956
X111.60262 Y33.72596
X111.85271 Y33.35170
X112.09541 Y33.18952
X112.15523 Y33.13092
X112.19630 Y33.00079
X112.16307 Y32.88307
X112.07346 Y32.80029
X111.96932 Y32.77379
X108.71927 Y32.77570
X108.65643 Y32.78929
X108.59750 Y32.82444
X104.10452 Y37.31394
X104.05527 Y37.38760
X104.03802 Y37.47450
X104.03802 Y47.42830
X103.97241 Y47.75822
X103.78549 Y48.03798
X102.41135 Y49.41212
X102.13160 Y49.59903
X101.80165 Y49.66469
X92.12631 Y49.66469
X91.79641 Y49.59908
X91.51666 Y49.41217
X87.43455 Y45.33006
X87.24763 Y45.05030
X87.18202 Y44.72063
X87.16467 Y44.51870
X87.11537 Y44.44502
X86.83732 Y44.16745
X86.62975 Y43.66750
X86.62919 Y43.12643
X86.83623 Y42.62541
X86.94943 Y42.50606
X86.98705 Y42.37565
X86.96986 Y42.29374
X86.93308 Y42.23529
X86.80638 Y42.15417
X86.69165 Y42.03943
X86.62952 Y41.88947
X86.62952 Y41.23550
X86.65523 Y41.20979
X86.93752 Y41.20979
X86.93943 Y41.82780
X86.98195 Y41.89143
X87.03752 Y41.90829
X88.96203 Y41.90636
X89.01321 Y41.87898
X89.04059 Y41.82780
X89.04252 Y41.20979
X89.32477 Y41.20979
X89.35052 Y41.23555
X89.35052 Y41.88932
X89.28839 Y42.03936
X89.17364 Y42.15412
X89.04712 Y42.23529
X89.01031 Y42.29384
X88.99312 Y42.38071
X89.02639 Y42.49846
X89.14237 Y42.62336
X89.35024 Y43.12401
X89.35080 Y43.66509
X89.14407 Y44.16539
X89.01016 Y44.29953
X88.96104 Y44.37316
X88.94384 Y44.45995
X88.96109 Y44.54675
X89.01031 Y44.62041
X91.43462 Y47.04471
X91.54132 Y47.10447
X91.67284 Y47.09718
X91.77152 Y47.02533
X92.00198 Y46.49373
X92.35593 Y46.13917
X92.81856 Y45.94710
X93.31920 Y45.94659
X93.77840 Y46.13318
X93.87645 Y46.13546
X93.95828 Y46.10145
X94.02082 Y46.03879
X94.05458 Y45.95728
X94.05854 Y45.62906
X94.29433 Y45.05838
X94.73027 Y44.62168
X95.30019 Y44.38505
X95.91703 Y44.38444
X96.48739 Y44.62010
X96.92409 Y45.05602
X97.16072 Y45.62597
X97.16089 Y45.78098
X97.17819 Y45.86772
X97.25391 Y45.96368
X97.34357 Y46.00341
X100.45995 Y46.00775
X100.54588 Y45.99086
X100.61275 Y45.95103
X100.66871 Y45.89244
X100.70188 Y45.81080
X100.70346 Y45.74212
X100.68652 Y45.67595
X100.65190 Y45.62236
X100.52916 Y45.49691
X100.46703 Y45.34700
X100.46703 Y45.04550
X100.49274 Y45.01979
X100.77504 Y45.01979
X100.77694 Y45.28530
X100.80432 Y45.33648
X100.85550 Y45.36386
X101.81326 Y45.35817
X101.85814 Y45.32134
X101.87501 Y45.26579
X101.87501 Y42.75579
X101.86025 Y42.63131
X101.80000 Y42.48348
X101.80000 Y42.15579
X101.77069 Y42.08508
X101.70000 Y42.05579
X100.93051 Y42.05770
X100.87933 Y42.08508
X100.85195 Y42.13626
X100.85004 Y42.40179
X100.56777 Y42.40179
X100.54202 Y42.37604
X100.54202 Y42.07461
X100.56716 Y42.00885
X100.57585 Y41.90631
X100.54049 Y41.81464
X100.46942 Y41.74695
X100.35177 Y41.71378
X99.44245 Y41.71378
X99.09340 Y41.64439
X98.79752 Y41.44668
X98.55391 Y41.20304
X98.48009 Y41.15376
X98.39318 Y41.13657
X97.84296 Y41.13710
X97.27260 Y40.90141
X96.83588 Y40.46545
X96.59928 Y39.89565
X96.59867 Y39.27873
X96.83433 Y38.70838
X97.28218 Y38.25903
X97.33765 Y38.15014
X97.34200 Y34.16051
X97.31980 Y34.06317
X97.23232 Y33.94407
X97.13956 Y33.87115
X97.08731 Y33.85606
X97.00331 Y33.85807
X96.92582 Y33.89066
X96.84959 Y33.97468
X96.71182 Y34.06881
X96.52716 Y34.10623
X95.37131 Y34.10623
X95.08648 Y34.04379
X94.64015 Y34.04379
X94.55325 Y34.06104
X94.48318 Y34.10686
X94.41749 Y34.22650
X94.32158 Y34.70877
X94.05950 Y35.10102
X93.66725 Y35.36310
X93.47553 Y35.40125
X93.39369 Y35.43516
X93.31427 Y35.52822
X93.29286 Y35.62400
X93.31015 Y35.71082
X93.36669 Y35.79109
X93.78191 Y35.97765
X94.13659 Y36.33170
X94.32867 Y36.79431
X94.32918 Y37.29497
X94.13789 Y37.75791
X93.78407 Y38.11237
X93.32146 Y38.30444
X92.82080 Y38.30495
X92.35786 Y38.11366
X92.00340 Y37.75984
X91.81132 Y37.29720
X91.81082 Y36.79654
X92.00210 Y36.33360
X92.35608 Y35.97902
X92.84716 Y35.77041
X92.92628 Y35.67750
X92.94767 Y35.58171
X92.93037 Y35.49492
X92.87386 Y35.41473
X92.41013 Y35.11306
X92.16007 Y34.73881
X92.07206 Y34.29658
X92.09784 Y34.14656
X92.09784 Y33.78957
X92.19001 Y33.32596
X92.44008 Y32.95170
X92.81435 Y32.70163
X93.27396 Y32.61019
X93.35577 Y32.57631
X93.47990 Y32.49338
X93.80954 Y32.42780
X95.08140 Y32.42780
X95.37261 Y32.36534
X96.52889 Y32.36534
X96.69978 Y32.39749
X96.83989 Y32.48764
X96.92523 Y32.58167
X97.04248 Y32.61809
X97.10143 Y32.61230
X97.17413 Y32.58088
X97.25033 Y32.49693
X97.38822 Y32.40270
X97.57260 Y32.36534
X98.72891 Y32.36534
X99.01357 Y32.42780
X104.22034 Y32.42587
X104.28768 Y32.41050
X104.36152 Y32.36104
X104.89583 Y31.82173
X104.92524 Y31.75988
X104.93492 Y31.67222
X104.91031 Y31.58756
X104.84381 Y31.50882
X104.73462 Y31.46719
X87.69830 Y31.46475
X87.60252 Y31.48622
X87.55705 Y31.51540
X87.50028 Y31.58292
X87.47565 Y31.64738
X87.47562 Y31.73595
X87.50953 Y31.81784
X87.68863 Y32.08591
X87.77648 Y32.52736
X87.68868 Y32.96876
X87.43861 Y33.34303
X87.06434 Y33.59310
X86.60049 Y33.68537
X86.08454 Y33.68537
X85.95447 Y33.72637
X84.96059 Y34.71527
X84.88071 Y34.82726
X83.14949 Y36.55847
X83.10951 Y36.61481
X83.08302 Y36.71900
X83.08302 Y40.83479
X83.07047 Y40.91894
X83.07047 Y41.43436
X83.03809 Y41.60649
X82.97532 Y41.71157
X82.95970 Y41.79664
X82.97733 Y41.88218
X83.05803 Y42.07484
X83.05803 Y42.37598
X83.03222 Y42.40179
X82.75000 Y42.40179
X82.74807 Y42.13626
X82.72069 Y42.08508
X82.66951 Y42.05770
X81.90004 Y42.05579
X81.84447 Y42.07263
X81.80195 Y42.13626
X81.80004 Y42.40179
X81.51777 Y42.40179
X81.49202 Y42.37604
X81.49202 Y42.07459
X81.53786 Y41.95884
X81.54751 Y41.87126
X81.50535 Y41.75678
X81.42661 Y41.69029
X81.32247 Y41.66379
X80.39245 Y41.66379
X80.06255 Y41.59819
X79.78280 Y41.41127
X79.57452 Y41.20299
X79.50073 Y41.15371
X79.41381 Y41.13652
X78.79296 Y41.13710
X78.22260 Y40.90141
X77.78588 Y40.46545
X77.54928 Y39.89565
X77.54867 Y39.27873
X77.78433 Y38.70838
X78.22565 Y38.26626
X78.27475 Y38.19268
X78.29009 Y38.12540
X78.29202 Y34.16046
X78.26980 Y34.06317
X78.17053 Y33.93043
X78.07574 Y33.86602
X77.94374 Y33.86061
X77.85273 Y33.90948
X77.79959 Y33.97468
X77.66182 Y34.06881
X77.47716 Y34.10623
X76.32131 Y34.10623
X76.03597 Y34.04379
X75.52614 Y34.04819
X75.44453 Y34.08205
X75.38474 Y34.14067
X75.10153 Y34.58304
X74.72726 Y34.83310
X74.28583 Y34.92093
X73.84441 Y34.83315
X73.47014 Y34.58309
X73.22007 Y34.20882
X73.12782 Y33.74519
X73.12782 Y33.26958
X73.22002 Y32.80598
X73.47009 Y32.43171
X73.84436 Y32.18164
X74.28581 Y32.09379
X74.72721 Y32.18159
X75.03838 Y32.38952
X75.12007 Y32.42338
X76.04143 Y32.42729
X76.32261 Y32.36534
X77.47889 Y32.36534
X77.64978 Y32.39749
X77.78989 Y32.48764
X77.87523 Y32.58167
X77.99248 Y32.61809
X78.05143 Y32.61230
X78.12413 Y32.58088
X78.20033 Y32.49693
X78.33822 Y32.40270
X78.52260 Y32.36534
X79.67891 Y32.36534
X79.84978 Y32.39749
X79.98989 Y32.48764
X80.08308 Y32.62401
X80.12070 Y32.80984
X80.12717 Y32.92325
X80.18694 Y33.03000
X82.12925 Y34.97229
X82.20286 Y35.02152
X82.32432 Y35.03587
X82.38109 Y35.01954
X82.45026 Y34.97229
X83.68853 Y33.73402
X83.76839 Y33.62208
X84.82914 Y32.55515
X84.86298 Y32.47339
X84.94001 Y32.08596
X85.11919 Y31.81784
X85.15310 Y31.73600
X85.14738 Y31.62871
X85.11919 Y31.56559
X85.06054 Y31.50580
X84.93046 Y31.46475
X68.24454 Y31.46475
X68.14876 Y31.48622
X68.06824 Y31.55043
X68.02189 Y31.64738
X68.01996 Y31.71642
X68.05577 Y31.81784
X68.22153 Y32.06592
X68.30939 Y32.50735
X68.22158 Y32.94875
X67.95879 Y33.34204
X67.59054 Y33.71029
X67.19725 Y33.97308
X66.80030 Y34.05256
X66.69354 Y34.11232
X64.47384 Y36.33203
X64.37617 Y36.40229
X64.09949 Y36.67897
X64.05027 Y36.75260
X64.03302 Y36.83950
X64.03302 Y40.83479
X64.02047 Y40.91894
X64.02047 Y41.43436
X63.98809 Y41.60649
X63.92532 Y41.71157
X63.90970 Y41.79664
X63.92733 Y41.88218
X64.00803 Y42.07484
X64.00803 Y42.37598
X63.98222 Y42.40179
X63.70000 Y42.40179
X63.69807 Y42.13626
X63.65555 Y42.07263
X63.60000 Y42.05579
X62.81176 Y42.06339
X62.76688 Y42.10022
X62.75195 Y42.13626
X62.75004 Y42.40179
X62.46777 Y42.40179
X62.44202 Y42.37604
X62.44202 Y42.07459
X62.48786 Y41.95884
X62.49751 Y41.87126
X62.45535 Y41.75678
X62.35929 Y41.68104
X62.27247 Y41.66379
X61.34245 Y41.66379
X61.01255 Y41.59819
X60.73280 Y41.41127
X60.52452 Y41.20299
X60.45073 Y41.15371
X60.36381 Y41.13652
X59.74296 Y41.13710
X59.17260 Y40.90141
X58.73588 Y40.46545
X58.49928 Y39.89565
X58.49867 Y39.27873
X58.73433 Y38.70838
X59.18218 Y38.25903
X59.23765 Y38.15014
X59.24200 Y34.16051
X59.22594 Y34.07679
X59.10849 Y33.91669
X59.03504 Y33.86922
X58.95261 Y33.85312
X58.82582 Y33.89066
X58.74959 Y33.97468
X58.61182 Y34.06881
X58.42716 Y34.10623
X56.67241 Y34.09731
X56.55158 Y34.16025
X55.25163 Y35.46020
X55.18948 Y35.57646
X55.19915 Y35.69843
X55.27096 Y35.79708
X55.68196 Y35.97770
X56.03659 Y36.33170
X56.22867 Y36.79431
X56.22918 Y37.29497
X56.03789 Y37.75791
X55.68407 Y38.11237
X55.22146 Y38.30444
X54.72080 Y38.30495
X54.25786 Y38.11366
X53.90320 Y37.75964
X53.72093 Y37.34668
X53.65344 Y37.29002
X53.58890 Y37.26543
X53.51988 Y37.26355
X53.45336 Y37.28034
X53.38425 Y37.32758
X53.05059 Y37.66124
X53.00137 Y37.73487
X52.98412 Y37.82176
X52.98412 Y40.16669
X53.00137 Y40.25356
X53.07714 Y40.34960
X53.16690 Y40.38932
X53.25067 Y40.39014
X53.30259 Y40.37434
X53.37175 Y40.32704
X53.60764 Y40.09075
X54.49019 Y39.72430
X55.44553 Y39.72339
X56.32877 Y40.08833
X57.00502 Y40.76339
X57.37146 Y41.64596
X57.37238 Y42.60131
X57.00743 Y43.48452
X56.33238 Y44.16079
X55.44980 Y44.52724
X54.49446 Y44.52815
X53.61099 Y44.16310
X53.27711 Y43.84385
X53.19306 Y43.81736
X53.07696 Y43.83422
X53.00787 Y43.88144
X52.96794 Y43.93775
X52.91509 Y44.15340
X52.71697 Y44.44992
X49.63871 Y47.52817
X49.34275 Y47.72594
X48.99371 Y47.79538
X47.79833 Y47.79538
X47.71601 Y47.81087
X47.61238 Y47.89220
X47.57260 Y47.99723
X47.32152 Y48.37303
X46.94725 Y48.62309
X46.50580 Y48.71095
X46.06440 Y48.62314
X45.69013 Y48.37308
X45.44007 Y47.99881
X45.39061 Y47.75029
X45.35635 Y47.66790
X45.29298 Y47.60511
X45.21030 Y47.57155
X45.12112 Y47.57247
X45.03915 Y47.60770
X44.92310 Y47.75570
X44.78683 Y47.84882
X44.60217 Y47.88624
X43.74637 Y47.88624
X43.57520 Y47.85403
X43.37030 Y47.70630
X43.25371 Y47.67379
X39.41245 Y47.67379
X39.08255 Y47.60818
X38.95138 Y47.52053
X38.86922 Y47.48657
X38.15283 Y47.48705
X37.58085 Y47.25070
X37.48814 Y47.18436
X37.41080 Y47.16907
X37.29708 Y47.19802
X37.22004 Y47.26597
X37.19061 Y47.32799
X37.17918 Y47.45497
X36.98789 Y47.91791
X36.63407 Y48.27237
X36.17146 Y48.46444
X35.67080 Y48.46495
X35.20786 Y48.27366
X34.85340 Y47.91984
X34.66132 Y47.45720
X34.66082 Y46.95654
X34.85210 Y46.49360
X35.20593 Y46.13917
X35.66856 Y45.94710
X36.16920 Y45.94659
X36.62840 Y46.13318
X36.72645 Y46.13546
X36.80828 Y46.10145
X36.87082 Y46.03879
X36.90458 Y45.95728
X36.90854 Y45.62906
X37.14433 Y45.05838
X37.58027 Y44.62168
X38.15019 Y44.38505
X38.76703 Y44.38444
X39.33739 Y44.62010
X39.77409 Y45.05602
X40.01072 Y45.62597
X40.01095 Y45.83099
X40.02824 Y45.91774
X40.10396 Y46.01370
X40.19367 Y46.05342
X43.31447 Y46.04735
X43.37761 Y46.01870
X43.49199 Y45.92581
X43.53931 Y45.85319
X43.55590 Y45.77161
X43.51790 Y45.64192
X43.37939 Y45.49747
X43.31703 Y45.34700
X43.31703 Y45.04550
X43.34274 Y45.01979
X43.62504 Y45.01979
X43.62694 Y45.28530
X43.66946 Y45.34893
X43.72504 Y45.36579
X44.64452 Y45.36386
X44.69570 Y45.33648
X44.72308 Y45.28530
X44.72501 Y45.01979
X45.00728 Y45.01979
X45.03303 Y45.04555
X45.03303 Y45.34682
X44.97065 Y45.49747
X44.82384 Y45.65843
X44.79920 Y45.72365
X44.79989 Y45.81311
X44.83235 Y45.89119
X44.91381 Y45.96597
X45.00804 Y46.10394
X45.07195 Y46.44235
X45.13844 Y46.52109
X45.22336 Y46.55975
X45.34053 Y46.55360
X45.41779 Y46.51113
X45.68983 Y46.12188
X46.06435 Y45.87163
X46.50580 Y45.78378
X46.94720 Y45.87158
X47.20090 Y46.04110
X47.28264 Y46.07496
X48.56650 Y46.07936
X48.69673 Y46.03833
X49.63683 Y45.10323
X49.68619 Y45.02940
X49.70343 Y44.94248
X49.68614 Y44.85556
X49.61032 Y44.75957
X49.12053 Y44.55000
X48.73732 Y44.16745
X48.52975 Y43.66750
X48.52919 Y43.12643
X48.73623 Y42.62541
X48.84943 Y42.50606
X48.88705 Y42.37565
X48.86986 Y42.29374
X48.83308 Y42.23529
X48.70638 Y42.15417
X48.59165 Y42.03943
X48.52952 Y41.88947
X48.52952 Y41.23550
X48.55523 Y41.20979
X48.83752 Y41.20979
X48.83943 Y41.82780
X48.86681 Y41.87898
X48.91799 Y41.90636
X50.84252 Y41.90829
X50.91321 Y41.87898
X50.94252 Y41.80829
X50.94059 Y39.88376
X50.91321 Y39.83258
X50.86203 Y39.80520
X50.24402 Y39.80330
X50.24402 Y39.52100
X50.26973 Y39.49529
X50.92367 Y39.49529
X51.02159 Y39.52329
X51.07554 Y39.52232
X51.16718 Y39.48699
X51.22703 Y39.42837
X51.25258 Y39.38051
X51.26812 Y39.29824
X51.26812 Y37.39454
X51.33749 Y37.04574
X51.53523 Y36.74978
X55.64005 Y32.64497
X55.93603 Y32.44720
X56.28485 Y32.37778
X58.42889 Y32.36534
X58.59978 Y32.39749
X58.73989 Y32.48764
X58.82523 Y32.58167
X58.94248 Y32.61809
X59.00143 Y32.61230
X59.07413 Y32.58088
X59.15033 Y32.49693
X59.28822 Y32.40270
X59.47260 Y32.36534
X60.62891 Y32.36534
X60.79978 Y32.39749
X60.93989 Y32.48764
X61.03308 Y32.62401
X61.07070 Y32.80984
X61.07717 Y32.92325
X61.13694 Y33.03000
X63.15319 Y35.04626
X63.22680 Y35.09548
X63.31367 Y35.11273
X63.40054 Y35.09548
X63.47420 Y35.04626
X65.55085 Y32.96960
X65.61061 Y32.86285
X65.69002 Y32.46597
X65.95296 Y32.07247
X66.20652 Y31.80943
X66.23977 Y31.69175
X66.22245 Y31.60484
X66.14673 Y31.50882
X66.09502 Y31.48022
X66.01277 Y31.46475
X55.52745 Y31.46475
X55.19753 Y31.39915
X54.91780 Y31.21223
X49.23673 Y25.53116
X49.11565 Y25.46820
X33.07840 Y25.46472
X32.74845 Y25.39911
X32.46872 Y25.21219
X26.47429 Y19.21776
X26.26985 Y18.91967
X26.19644 Y18.87070
X26.10958 Y18.85345
X26.02731 Y18.86895
X25.95982 Y18.91180
X25.67501 Y18.91180
X25.67308 Y18.64626
X25.62502 Y18.57969
X25.62502 Y17.35579
X25.60000 Y17.20677
X25.60000 Y16.75579
X25.57069 Y16.68508
X25.50000 Y16.65579
X24.73051 Y16.65770
X24.67933 Y16.68508
X24.65195 Y16.73626
X24.65004 Y17.00179
X24.36777 Y17.00179
X24.34202 Y16.97604
X24.34202 Y16.67459
X24.38786 Y16.55884
X24.39751 Y16.47126
X24.35535 Y16.35678
X24.25929 Y16.28104
X24.17247 Y16.26379
X23.24245 Y16.26379
X22.91255 Y16.19819
X22.63280 Y16.01127
X22.42452 Y15.80299
X22.35073 Y15.75371
X22.26381 Y15.73652
X21.64296 Y15.73710
X21.07260 Y15.50141
X20.63588 Y15.06545
X20.39928 Y14.49565
X20.39867 Y13.87873
X20.63433 Y13.30838
X21.07565 Y12.86626
X21.12475 Y12.79268
X21.14202 Y12.70591
X21.14202 Y9.39546
X21.10768 Y9.27595
X21.00849 Y9.15169
X20.93504 Y9.10422
X20.83791 Y9.08868
X20.72582 Y9.12566
X20.64959 Y9.20968
X20.51182 Y9.30381
X20.32716 Y9.34123
X19.17131 Y9.34123
X18.88607 Y9.27879
X18.24736 Y9.28319
X18.16573 Y9.31702
X17.83702 Y9.53666
X17.36845 Y9.63424
X17.29504 Y9.68337
X17.14772 Y9.83071
X16.89667 Y10.00645
X16.86578 Y10.05088
X16.83921 Y10.13500
X16.84114 Y10.20401
X16.88755 Y10.30104
X16.93774 Y10.34849
X17.00083 Y10.37666
X17.11803 Y10.38611
X17.58214 Y10.57788
X17.93659 Y10.93170
X18.12867 Y11.39431
X18.12918 Y11.89497
X17.93789 Y12.35791
X17.58407 Y12.71237
X17.12146 Y12.90444
X16.62080 Y12.90495
X16.15786 Y12.71366
X15.80340 Y12.35984
X15.61120 Y11.89692
X15.60091 Y11.49863
X15.56022 Y11.42050
X15.46621 Y11.35034
X15.36449 Y11.33680
X15.25410 Y11.37579
X14.95100 Y11.67386
X14.89083 Y11.78105
X14.88412 Y14.76659
X14.89962 Y14.84899
X14.92522 Y14.89684
X15.02890 Y14.97820
X15.11120 Y14.99364
X15.19809 Y14.97634
X15.27175 Y14.92704
X15.50764 Y14.69075
X16.39019 Y14.32430
X17.34553 Y14.32339
X18.22877 Y14.68833
X18.90502 Y15.36339
X19.27146 Y16.24596
X19.27238 Y17.20131
X18.90743 Y18.08452
X18.23238 Y18.76079
X17.34980 Y19.12724
X16.39446 Y19.12815
X15.51125 Y18.76321
X15.27147 Y18.52386
X15.19776 Y18.47474
X15.11094 Y18.45754
X15.02413 Y18.47484
X14.95054 Y18.52406
X14.90137 Y18.59767
X14.88412 Y18.68454
X14.88412 Y30.34218
X14.80813 Y30.73415
X14.81001 Y30.80321
X14.84386 Y30.88502
X16.26383 Y32.31118
X16.38011 Y32.37339
X20.32889 Y32.36534
X20.49978 Y32.39749
X20.63989 Y32.48764
X20.72523 Y32.58167
X20.84248 Y32.61809
X20.90143 Y32.61230
X20.97413 Y32.58088
X21.05033 Y32.49693
X21.18822 Y32.40270
X21.37260 Y32.36534
X22.52891 Y32.36534
X22.69978 Y32.39749
X22.83989 Y32.48764
X22.93308 Y32.62401
X22.97070 Y32.80984
X22.97717 Y32.92325
X23.03694 Y33.03000
X25.03950 Y35.03254
X25.11311 Y35.08177
X25.19998 Y35.09901
X25.28684 Y35.08177
X25.36050 Y35.03254
X29.87345 Y30.51962
X29.93322 Y30.41286
X30.01262 Y30.01596
X30.27540 Y29.62267
X30.64025 Y29.25782
X31.03354 Y28.99504
X31.47500 Y28.90718
X31.91640 Y28.99499
X32.29067 Y29.24505
X32.54073 Y29.61932
X32.62859 Y30.06074
X32.54078 Y30.50215
X32.27799 Y30.89546
X31.91315 Y31.26031
X31.51985 Y31.52310
X31.12290 Y31.60255
X31.01612 Y31.66234
X25.96622 Y36.72177
X25.93302 Y36.83950
X25.93302 Y40.60441
X25.97869 Y40.85526
X25.92291 Y41.14467
X25.92055 Y41.43398
X25.88827 Y41.60548
X25.83691 Y41.68884
X25.81006 Y41.78698
X25.82733 Y41.88218
X25.90803 Y42.07484
X25.90803 Y42.37598
X25.88222 Y42.40179
X25.60000 Y42.40179
X25.59807 Y42.13626
X25.55555 Y42.07263
X25.50000 Y42.05579
X24.71176 Y42.06339
X24.66688 Y42.10022
X24.65195 Y42.13626
X24.65004 Y42.40179
X24.36777 Y42.40179
X24.34202 Y42.37604
X24.34202 Y42.07461
X24.37681 Y41.96024
X24.37333 Y41.89176
X24.34049 Y41.81464
X24.24745 Y41.73522
X24.15177 Y41.71378
X23.24245 Y41.71378
X22.89340 Y41.64439
X22.59752 Y41.44668
X22.35391 Y41.20304
X22.28009 Y41.15376
X22.19318 Y41.13657
X21.64296 Y41.13710
X21.07260 Y40.90141
X20.63588 Y40.46545
X20.39928 Y39.89565
X20.39867 Y39.27873
X20.63433 Y38.70838
X21.07565 Y38.26626
X21.12475 Y38.19268
X21.14202 Y38.10591
X21.14202 Y34.16046
X21.12594 Y34.07679
X21.10014 Y34.02914
X21.00849 Y33.91669
X20.93956 Y33.87115
X20.87260 Y33.85517
X20.78457 Y33.86406
X20.71388 Y33.89934
X20.64959 Y33.97468
X20.51182 Y34.06881
X20.32716 Y34.10623
X19.16986 Y34.10623
X19.08391 Y34.09378
X9.86755 Y34.09378
X9.73740 Y34.13485
X8.83702 Y35.03978
X8.80382 Y35.15751
X8.80382 Y35.39490
X8.71159 Y35.85873
X8.44944 Y36.25100
X8.05724 Y36.51308
X7.87070 Y36.55022
X7.78886 Y36.58410
X7.72622 Y36.64676
X7.69237 Y36.72855
X7.68805 Y46.29950
X5.72994 Y46.29950
X5.64304 Y46.31674
X5.58450 Y46.35357
X5.51444 Y46.45850
X5.50294 Y46.52660
X5.51452 Y46.59467
X5.56946 Y46.68705
X5.72963 Y46.77196
X6.37947 Y47.42065
X6.73159 Y48.26873
X6.73248 Y49.18672
X6.38180 Y50.03541
X6.09072 Y50.32700
X6.03829 Y50.40988
X6.02684 Y50.51227
X6.05343 Y50.59626
X6.09445 Y50.65130
X6.16451 Y50.69710
X6.25140 Y50.71437
X159.69478 Y50.71191
X159.76133 Y50.69512
X159.81535 Y50.66032
X159.87972 Y50.57427
X159.89702 Y50.48740
X159.89702 Y2.33578
X159.88111 Y2.25321
X159.85208 Y2.20025
X159.80339 Y2.15209
X159.74012 Y2.11986
X159.66999 Y2.10878
X5.08851 Y2.11229
X5.03659 Y2.12801
X4.96740 Y2.17528
X4.91488 Y2.25823
X4.90449 Y2.37530
X4.95508 Y2.48120
X5.04127 Y2.54556
X5.72963 Y2.82996
X6.37947 Y3.47865
X6.73159 Y4.32673
X6.73248 Y5.24472
X6.38180 Y6.09341
X5.73311 Y6.74321
X4.88503 Y7.09533
X3.96705 Y7.09622
X3.11836 Y6.74555
X2.50038 Y6.12866
X2.39365 Y6.06902
X2.29558 Y6.06671
X2.21382 Y6.10062
X2.15123 Y6.16326
X2.11349 Y6.27964
X2.11303 Y35.18507
X2.12850 Y35.26731
X2.15710 Y35.31903
X2.19464 Y35.35799
X2.27188 Y35.40046
X2.34003 Y35.41207
X6.26082 Y35.41207
X6.34769 Y35.39477
X6.42790 Y35.33828
X6.48333 Y35.22977
X6.48770 Y34.96015
X6.58002 Y34.49597
X6.83009 Y34.12170
X7.20436 Y33.87163
X7.44858 Y33.82007
X7.53151 Y33.76752
X9.31538 Y31.99127
X9.37514 Y31.88451
X9.37750 Y31.78650
X9.34362 Y31.70466
X9.28096 Y31.64200
X9.17994 Y31.60623
X8.32249 Y31.60379
X8.25411 Y31.61535
X8.01728 Y31.76148
X7.90895 Y31.79798
X7.72183 Y31.92881
X7.53717 Y31.96623
X5.88132 Y31.96623
X5.70936 Y31.93389
X5.60233 Y31.86968
X5.51879 Y31.85378
X4.70690 Y31.85378
X4.61983 Y31.87110
X4.42128 Y31.95353
X3.92100 Y31.95403
X3.45836 Y31.76287
X3.10416 Y31.40931
X2.91224 Y30.94703
X2.91171 Y30.44670
X3.10287 Y29.98411
X3.45806 Y29.62831
X3.54467 Y29.56750
X3.58127 Y29.51327
X3.60147 Y29.43664
X3.56334 Y29.26303
X3.80035 Y29.02597
X3.87642 Y29.05927
X4.08120 Y29.10113
X4.27962 Y29.09892
X4.46357 Y29.05927
X4.53962 Y29.02597
X4.77802 Y29.26435
X4.78046 Y29.37149
X4.82392 Y29.45493
X4.89748 Y29.51350
X4.99936 Y29.53776
X5.56349 Y29.53319
X5.69870 Y29.46240
X5.93184 Y29.41124
X6.01020 Y29.35790
X6.34050 Y29.02605
X6.41642 Y29.05927
X6.62120 Y29.10113
X6.81962 Y29.09892
X7.00357 Y29.05927
X7.07946 Y29.02605
X7.45665 Y29.39521
X7.53199 Y29.42404
X7.70979 Y29.45747
X7.89917 Y29.58957
X8.01718 Y29.62999
X8.19605 Y29.74952
X8.29729 Y29.78531
X10.45584 Y29.78777
X10.54425 Y29.76989
X10.61819 Y29.71952
X10.73262 Y29.55023
X10.76945 Y29.42402
X10.75355 Y29.34289
X10.69500 Y29.25894
X10.63204 Y29.10697
X10.63204 Y28.75579
X10.94004 Y28.75579
X10.94194 Y29.04528
X10.96932 Y29.09646
X11.02050 Y29.12384
X12.54001 Y29.12577
X12.59556 Y29.10890
X12.63808 Y29.04528
X12.63808 Y27.05628
X12.61070 Y27.00510
X12.55951 Y26.97772
X12.14402 Y26.97581
X12.14402 Y26.69349
X12.16973 Y26.66779
X12.62119 Y26.66779
X12.78730 Y26.73339
X12.88049 Y26.73665
X12.99802 Y26.67706
X13.03246 Y26.63515
X13.06373 Y26.55742
X13.06810 Y19.18990
X13.05080 Y19.10290
X13.01400 Y19.04443
X12.96299 Y18.99843
X12.90407 Y18.97288
X12.81618 Y18.96531
X12.74958 Y18.98218
X12.68044 Y19.02947
X12.56170 Y19.14845
X12.06175 Y19.35602
X11.52068 Y19.35657
X11.02038 Y19.14984
X10.75538 Y18.88530
X10.68616 Y18.83816
X10.55058 Y18.82335
X10.46882 Y18.85726
X10.40623 Y18.91990
X10.36803 Y19.04598
X10.36803 Y23.94539
X10.30245 Y24.27531
X10.11553 Y24.55504
X8.49874 Y26.17180
X8.36376 Y26.26708
X8.21213 Y26.41871
X7.81886 Y26.68150
X7.48498 Y26.74792
X7.38030 Y26.79959
X7.32379 Y26.87403
X7.30568 Y26.93736
X7.31607 Y27.04909
X7.07964 Y27.28557
X7.00357 Y27.25229
X6.79885 Y27.21046
X6.60040 Y27.21264
X6.41642 Y27.25229
X6.34040 Y27.28557
X6.10195 Y27.04711
X6.09948 Y26.93990
X6.05605 Y26.85656
X5.98254 Y26.79801
X5.88114 Y26.77378
X4.94175 Y26.78138
X4.87452 Y26.81120
X4.82397 Y26.85656
X4.78046 Y26.94000
X4.77802 Y27.04711
X4.53964 Y27.28557
X4.46357 Y27.25229
X4.25885 Y27.21046
X4.06040 Y27.21264
X3.87642 Y27.25229
X3.80040 Y27.28557
X3.56337 Y27.04856
X3.60104 Y26.90340
X3.59517 Y26.83817
X3.55979 Y26.76207
X3.46007 Y26.68458
X3.10416 Y26.32931
X2.91224 Y25.86703
X2.91171 Y25.36670
X3.10287 Y24.90411
X3.51960 Y24.50282
X3.56532 Y24.43274
X3.58252 Y24.34590
X3.56522 Y24.25905
X3.51938 Y24.18900
X3.10416 Y23.78931
X2.91224 Y23.32703
X2.91171 Y22.82670
X3.10287 Y22.36411
X3.51960 Y21.96282
X3.56532 Y21.89274
X3.58252 Y21.80590
X3.56522 Y21.71905
X3.51938 Y21.64900
X3.10416 Y21.24931
X2.91224 Y20.78703
X2.91171 Y20.28670
X3.10287 Y19.82411
X3.45643 Y19.46993
X3.91874 Y19.27799
X4.41899 Y19.27748
X4.62003 Y19.36056
X4.70718 Y19.37776
X5.24810 Y19.37529
X5.31422 Y19.35850
X5.38338 Y19.31126
X5.83550 Y18.85914
X5.88274 Y18.78998
X5.89847 Y18.73806
X5.90197 Y7.92891
X5.96758 Y7.59909
X6.15450 Y7.31934
X10.56854 Y2.90530
X10.84829 Y2.71838
X11.17798 Y2.65277
G04 P0 ( dwell for no time -- G64 should not smooth over this point )
G00 Z5.00000 ( retract )

G00 X12.84196 Y17.98533 ( rapid move to begin. )
F300.00000
G01 Z-0.05000
G04 P0 ( dwell for no time -- G64 should not smooth over this point )
F600.00000
X12.84196 Y17.98533
X12.81679 Y17.76686
X12.75149 Y17.56770
X12.64148 Y17.37715
X12.48613 Y17.20705
X12.30694 Y17.07957
X12.11524 Y16.99481
X11.91034 Y16.95071
X11.69048 Y16.94853
X11.45500 Y16.99857
X11.25502 Y17.09001
X11.07836 Y17.22104
X10.93854 Y17.37715
X10.82853 Y17.56770
X10.75888 Y17.78731
X10.73806 Y18.00623
X10.76323 Y18.22470
X10.82853 Y18.42384
X10.93851 Y18.61439
X11.09388 Y18.78452
X11.27308 Y18.91200
X11.46475 Y18.99676
X11.68001 Y19.04250
X11.88956 Y19.04306
X12.11524 Y18.99676
X12.30691 Y18.91200
X12.49424 Y18.77794
X12.63490 Y18.62254
X12.75149 Y18.42386
X12.81679 Y18.22470
X12.84196 Y17.98533
G04 P0 ( dwell for no time -- G64 should not smooth over this point )
G00 Z5.00000 ( retract )

G00 X20.56920 Y20.96579 ( rapid move to begin. )
F300.00000
G01 Z-0.05000
G04 P0 ( dwell for no time -- G64 should not smooth over this point )
F600.00000
X20.56920 Y20.96579
X20.62574 Y20.79462
X20.65300 Y20.53577
X20.62313 Y20.26724
X20.54553 Y20.03021
X20.41558 Y19.80516
X20.24911 Y19.61946
X20.03151 Y19.45932
X19.80387 Y19.35739
X19.52948 Y19.29907
X19.28010 Y19.29960
X19.01614 Y19.35739
X18.77975 Y19.46501
X18.57091 Y19.61946
X18.40444 Y19.80516
X18.27449 Y20.03021
X18.19689 Y20.26724
X18.16756 Y20.52533
X18.19255 Y20.78388
X18.27449 Y21.04133
X18.40441 Y21.26638
X18.57091 Y21.45210
X18.78848 Y21.61222
X19.02590 Y21.71794
X19.28010 Y21.77196
X19.52948 Y21.77252
X19.78399 Y21.72063
X19.85742 Y21.69033
X20.07060 Y21.88652
X20.15790 Y21.93102
X20.33019 Y21.96531
X24.57504 Y21.96579
X24.58263 Y22.10404
X24.61946 Y22.14892
X24.67504 Y22.16579
X25.57501 Y22.16579
X25.63056 Y22.14892
X25.67308 Y22.08530
X25.67501 Y20.86579
X25.65814 Y20.81022
X25.59452 Y20.76770
X24.65550 Y20.76770
X24.61946 Y20.78263
X24.58263 Y20.82751
X24.57504 Y20.96579
X20.56920 Y20.96579
G04 P0 ( dwell for no time -- G64 should not smooth over this point )
G00 Z5.00000 ( retract )

G00 X20.36245 Y22.27379 ( rapid move to begin. )
F300.00000
G01 Z-0.05000
G04 P0 ( dwell for no time -- G64 should not smooth over this point )
F600.00000
X20.36245 Y22.27379
X20.03255 Y22.20818
X19.90138 Y22.12053
X19.81922 Y22.08657
X19.10283 Y22.08705
X18.53085 Y21.85070
X18.43814 Y21.78436
X18.30685 Y21.77440
X18.22979 Y21.80729
X18.15049 Y21.90033
X18.12918 Y22.05497
X17.93789 Y22.51791
X17.58407 Y22.87237
X17.12146 Y23.06444
X16.62080 Y23.06495
X16.15786 Y22.87366
X15.80340 Y22.51984
X15.61132 Y22.05720
X15.61082 Y21.55654
X15.80210 Y21.09360
X16.15593 Y20.73917
X16.61856 Y20.54710
X17.11920 Y20.54659
X17.57840 Y20.73318
X17.67645 Y20.73546
X17.75828 Y20.70145
X17.82082 Y20.63879
X17.85458 Y20.55728
X17.85854 Y20.22906
X18.09433 Y19.65838
X18.53027 Y19.22168
X19.10019 Y18.98505
X19.71703 Y18.98444
X20.28739 Y19.22010
X20.72409 Y19.65602
X20.96072 Y20.22597
X20.96095 Y20.43099
X20.97824 Y20.51774
X21.05396 Y20.61370
X21.16318 Y20.65533
X24.24539 Y20.65324
X24.32761 Y20.61870
X24.44199 Y20.52581
X24.48931 Y20.45319
X24.50590 Y20.37161
X24.46790 Y20.24192
X24.32939 Y20.09747
X24.26703 Y19.94700
X24.26703 Y19.64550
X24.29274 Y19.61979
X24.57504 Y19.61979
X24.57694 Y19.88530
X24.61946 Y19.94893
X24.67504 Y19.96579
X25.59452 Y19.96386
X25.64570 Y19.93648
X25.67308 Y19.88530
X25.67501 Y19.61979
X25.95728 Y19.61979
X25.98303 Y19.64555
X25.98303 Y19.94682
X25.92065 Y20.09747
X25.78278 Y20.24149
X25.75024 Y20.31885
X25.74526 Y20.37339
X25.77988 Y20.48695
X25.86381 Y20.56597
X25.95804 Y20.70394
X25.99545 Y20.88860
X25.99545 Y22.04445
X25.96327 Y22.21555
X25.87310 Y22.35570
X25.73683 Y22.44882
X25.55217 Y22.48624
X24.69637 Y22.48624
X24.52520 Y22.45403
X24.32030 Y22.30630
X24.20371 Y22.27379
X20.36245 Y22.27379
G04 P0 ( dwell for no time -- G64 should not smooth over this point )
G00 Z5.00000 ( retract )

G00 X24.26703 Y18.58459 ( rapid move to begin. )
F300.00000
G01 Z-0.05000
G04 P0 ( dwell for no time -- G64 should not smooth over this point )
F600.00000
X24.26703 Y18.58459
X24.32980 Y18.43298
X24.39246 Y18.35155
X24.41392 Y18.25576
X24.39668 Y18.16892
X24.34202 Y18.03699
X24.34202 Y17.73550
X24.36772 Y17.70979
X24.62502 Y17.70979
X24.62502 Y18.57964
X24.57694 Y18.64626
X24.57504 Y18.91180
X24.29279 Y18.91180
X24.26703 Y18.88604
X24.26703 Y18.58459
G04 P0 ( dwell for no time -- G64 should not smooth over this point )
G00 Z5.00000 ( retract )

G00 X29.65636 Y14.15742 ( rapid move to begin. )
F300.00000
G01 Z-0.05000
G04 P0 ( dwell for no time -- G64 should not smooth over this point )
F600.00000
X29.65636 Y14.15742
X29.80627 Y14.09529
X30.46027 Y14.09529
X30.48602 Y14.12105
X30.48602 Y14.40330
X29.88752 Y14.40330
X29.83195 Y14.42014
X29.79512 Y14.46502
X29.78752 Y14.50329
X29.78752 Y15.10180
X29.50528 Y15.10180
X29.47952 Y15.07604
X29.47952 Y14.42209
X29.54160 Y14.27215
X29.65636 Y14.15742
G04 P0 ( dwell for no time -- G64 should not smooth over this point )
G00 Z5.00000 ( retract )

G00 X31.19402 Y14.12100 ( rapid move to begin. )
F300.00000
G01 Z-0.05000
G04 P0 ( dwell for no time -- G64 should not smooth over this point )
F600.00000
X31.19402 Y14.12100
X31.21973 Y14.09529
X31.87367 Y14.09529
X32.02366 Y14.15740
X32.13834 Y14.27208
X32.20052 Y14.42217
X32.20052 Y15.07599
X32.17472 Y15.10180
X31.89252 Y15.10180
X31.89252 Y14.50329
X31.86321 Y14.43258
X31.79252 Y14.40330
X31.19402 Y14.40330
X31.19402 Y14.12100
G04 P0 ( dwell for no time -- G64 should not smooth over this point )
G00 Z5.00000 ( retract )

G00 X35.20593 Y10.57917 ( rapid move to begin. )
F300.00000
G01 Z-0.05000
G04 P0 ( dwell for no time -- G64 should not smooth over this point )
F600.00000
X35.20593 Y10.57917
X35.66856 Y10.38710
X36.16920 Y10.38659
X36.63214 Y10.57788
X36.98659 Y10.93170
X37.17867 Y11.39431
X37.17918 Y11.89497
X36.98789 Y12.35791
X36.63407 Y12.71237
X36.17146 Y12.90444
X35.67080 Y12.90495
X35.20786 Y12.71366
X34.85340 Y12.35984
X34.66132 Y11.89720
X34.66082 Y11.39654
X34.85210 Y10.93360
X35.20593 Y10.57917
G04 P0 ( dwell for no time -- G64 should not smooth over this point )
G00 Z5.00000 ( retract )

G00 X37.95502 Y15.36339 ( rapid move to begin. )
F300.00000
G01 Z-0.05000
G04 P0 ( dwell for no time -- G64 should not smooth over this point )
F600.00000
X37.95502 Y15.36339
X38.32146 Y16.24596
X38.32238 Y17.20131
X37.95743 Y18.08452
X37.28238 Y18.76079
X36.39980 Y19.12724
X35.44446 Y19.12815
X34.56125 Y18.76321
X33.88497 Y18.08812
X33.51853 Y17.20555
X33.51761 Y16.25023
X33.88256 Y15.36700
X34.55764 Y14.69075
X35.44019 Y14.32430
X36.39553 Y14.32339
X37.27877 Y14.68833
X37.95502 Y15.36339
G04 P0 ( dwell for no time -- G64 should not smooth over this point )
G00 Z5.00000 ( retract )

G00 X39.61920 Y20.96579 ( rapid move to begin. )
F300.00000
G01 Z-0.05000
G04 P0 ( dwell for no time -- G64 should not smooth over this point )
F600.00000
X39.61920 Y20.96579
X39.67574 Y20.79462
X39.70300 Y20.53577
X39.67313 Y20.26724
X39.59553 Y20.03021
X39.46558 Y19.80516
X39.29911 Y19.61946
X39.08151 Y19.45932
X38.85387 Y19.35739
X38.57948 Y19.29907
X38.33010 Y19.29960
X38.06614 Y19.35739
X37.82975 Y19.46501
X37.62091 Y19.61946
X37.45444 Y19.80516
X37.32449 Y20.03021
X37.24689 Y20.26724
X37.21756 Y20.52533
X37.24255 Y20.78388
X37.32449 Y21.04133
X37.45441 Y21.26638
X37.62091 Y21.45210
X37.83848 Y21.61222
X38.07590 Y21.71794
X38.33010 Y21.77196
X38.57948 Y21.77252
X38.83399 Y21.72063
X38.90742 Y21.69033
X39.12060 Y21.88652
X39.20790 Y21.93102
X39.38019 Y21.96531
X43.62504 Y21.96579
X43.63263 Y22.10404
X43.66946 Y22.14892
X43.72504 Y22.16579
X44.62501 Y22.16579
X44.68056 Y22.14892
X44.72308 Y22.08530
X44.72501 Y20.86579
X44.70814 Y20.81022
X44.64452 Y20.76770
X43.70550 Y20.76770
X43.66946 Y20.78263
X43.63263 Y20.82751
X43.62504 Y20.96579
X39.61920 Y20.96579
G04 P0 ( dwell for no time -- G64 should not smooth over this point )
G00 Z5.00000 ( retract )

G00 X43.67502 Y17.70979 ( rapid move to begin. )
F300.00000
G01 Z-0.05000
G04 P0 ( dwell for no time -- G64 should not smooth over this point )
F600.00000
X43.67502 Y17.70979
X43.67502 Y18.57964
X43.62694 Y18.64626
X43.62504 Y18.91180
X43.34279 Y18.91180
X43.31703 Y18.88604
X43.31703 Y18.58459
X43.37980 Y18.43298
X43.44246 Y18.35155
X43.46392 Y18.25576
X43.44668 Y18.16892
X43.39202 Y18.03699
X43.39202 Y17.73550
X43.41772 Y17.70979
X43.67502 Y17.70979
G04 P0 ( dwell for no time -- G64 should not smooth over this point )
G00 Z5.00000 ( retract )

G00 X44.67502 Y17.70979 ( rapid move to begin. )
F300.00000
G01 Z-0.05000
G04 P0 ( dwell for no time -- G64 should not smooth over this point )
F600.00000
X44.67502 Y17.70979
X44.93227 Y17.70979
X44.95803 Y17.73555
X44.95803 Y18.03682
X44.90332 Y18.16892
X44.88607 Y18.25581
X44.90751 Y18.35150
X44.97019 Y18.43301
X45.03303 Y18.58467
X45.03303 Y18.88599
X45.00723 Y18.91180
X44.72501 Y18.91180
X44.72308 Y18.64626
X44.67502 Y18.57969
X44.67502 Y17.70979
G04 P0 ( dwell for no time -- G64 should not smooth over this point )
G00 Z5.00000 ( retract )

G00 X48.70636 Y14.15742 ( rapid move to begin. )
F300.00000
G01 Z-0.05000
G04 P0 ( dwell for no time -- G64 should not smooth over this point )
F600.00000
X48.70636 Y14.15742
X48.85627 Y14.09529
X49.51027 Y14.09529
X49.53602 Y14.12105
X49.53602 Y14.40330
X48.93752 Y14.40330
X48.88195 Y14.42014
X48.84512 Y14.46502
X48.83752 Y14.50329
X48.83752 Y15.10180
X48.55528 Y15.10180
X48.52952 Y15.07604
X48.52952 Y14.42209
X48.59160 Y14.27215
X48.70636 Y14.15742
G04 P0 ( dwell for no time -- G64 should not smooth over this point )
G00 Z5.00000 ( retract )

G00 X50.24402 Y14.12100 ( rapid move to begin. )
F300.00000
G01 Z-0.05000
G04 P0 ( dwell for no time -- G64 should not smooth over this point )
F600.00000
X50.24402 Y14.12100
X50.26973 Y14.09529
X50.92367 Y14.09529
X51.07366 Y14.15740
X51.18834 Y14.27208
X51.25052 Y14.42217
X51.25052 Y15.07599
X51.22472 Y15.10180
X50.94252 Y15.10180
X50.94252 Y14.50329
X50.91321 Y14.43258
X50.84252 Y14.40330
X50.24402 Y14.40330
X50.24402 Y14.12100
G04 P0 ( dwell for no time -- G64 should not smooth over this point )
G00 Z5.00000 ( retract )

G00 X55.68407 Y12.71237 ( rapid move to begin. )
F300.00000
G01 Z-0.05000
G04 P0 ( dwell for no time -- G64 should not smooth over this point )
F600.00000
X55.68407 Y12.71237
X55.22146 Y12.90444
X54.72080 Y12.90495
X54.25786 Y12.71366
X53.90340 Y12.35984
X53.71132 Y11.89720
X53.71082 Y11.39654
X53.90210 Y10.93360
X54.25593 Y10.57917
X54.71856 Y10.38710
X55.21920 Y10.38659
X55.68214 Y10.57788
X56.03659 Y10.93170
X56.22867 Y11.39431
X56.22918 Y11.89497
X56.03789 Y12.35791
X55.68407 Y12.71237
G04 P0 ( dwell for no time -- G64 should not smooth over this point )
G00 Z5.00000 ( retract )

G00 X57.00502 Y15.36339 ( rapid move to begin. )
F300.00000
G01 Z-0.05000
G04 P0 ( dwell for no time -- G64 should not smooth over this point )
F600.00000
X57.00502 Y15.36339
X57.37146 Y16.24596
X57.37238 Y17.20131
X57.00743 Y18.08452
X56.33238 Y18.76079
X55.44980 Y19.12724
X54.49446 Y19.12815
X53.61125 Y18.76321
X52.93497 Y18.08812
X52.56853 Y17.20555
X52.56761 Y16.25023
X52.93256 Y15.36700
X53.60764 Y14.69075
X54.49019 Y14.32430
X55.44553 Y14.32339
X56.32877 Y14.68833
X57.00502 Y15.36339
G04 P0 ( dwell for no time -- G64 should not smooth over this point )
G00 Z5.00000 ( retract )

G00 X58.66920 Y20.96579 ( rapid move to begin. )
F300.00000
G01 Z-0.05000
G04 P0 ( dwell for no time -- G64 should not smooth over this point )
F600.00000
X58.66920 Y20.96579
X58.72574 Y20.79462
X58.75300 Y20.53577
X58.72313 Y20.26724
X58.64553 Y20.03021
X58.51558 Y19.80516
X58.34911 Y19.61946
X58.13151 Y19.45932
X57.90387 Y19.35739
X57.62948 Y19.29907
X57.38010 Y19.29960
X57.11614 Y19.35739
X56.87975 Y19.46501
X56.67091 Y19.61946
X56.50444 Y19.80516
X56.37449 Y20.03021
X56.29689 Y20.26724
X56.26756 Y20.52533
X56.29255 Y20.78388
X56.37449 Y21.04133
X56.50441 Y21.26638
X56.67091 Y21.45210
X56.88848 Y21.61222
X57.12590 Y21.71794
X57.38010 Y21.77196
X57.62948 Y21.77252
X57.88399 Y21.72063
X57.95742 Y21.69033
X58.17060 Y21.88652
X58.25790 Y21.93102
X58.43019 Y21.96531
X62.67504 Y21.96579
X62.68263 Y22.10404
X62.71946 Y22.14892
X62.77504 Y22.16579
X63.67501 Y22.16579
X63.73056 Y22.14892
X63.77308 Y22.08530
X63.77501 Y20.86579
X63.75814 Y20.81022
X63.69452 Y20.76770
X62.75550 Y20.76770
X62.71946 Y20.78263
X62.68263 Y20.82751
X62.67504 Y20.96579
X58.66920 Y20.96579
G04 P0 ( dwell for no time -- G64 should not smooth over this point )
G00 Z5.00000 ( retract )

G00 X58.46245 Y22.27379 ( rapid move to begin. )
F300.00000
G01 Z-0.05000
G04 P0 ( dwell for no time -- G64 should not smooth over this point )
F600.00000
X58.46245 Y22.27379
X58.13255 Y22.20818
X58.00138 Y22.12053
X57.91922 Y22.08657
X57.20283 Y22.08705
X56.63085 Y21.85070
X56.53347 Y21.78281
X56.41160 Y21.77333
X56.32189 Y21.81319
X56.25800 Y21.88725
X56.23365 Y21.95065
X56.22963 Y22.05383
X56.03789 Y22.51791
X55.68389 Y22.87254
X55.16545 Y23.09248
X55.09804 Y23.16342
X55.06685 Y23.26160
X55.08219 Y23.36784
X55.13144 Y23.44155
X57.89135 Y26.19804
X57.95031 Y26.23317
X58.03263 Y26.24871
X70.93479 Y26.24871
X71.01708 Y26.23317
X71.06874 Y26.20459
X71.10771 Y26.16705
X71.15500 Y26.07553
X71.15503 Y25.96794
X71.09526 Y25.86118
X65.20955 Y19.97550
X65.02263 Y19.69574
X64.95700 Y19.36587
X64.95260 Y17.20512
X64.89050 Y17.08896
X64.38824 Y16.58736
X64.29802 Y16.53750
X64.21016 Y16.52994
X64.10887 Y16.56572
X64.05867 Y16.61325
X64.02352 Y16.67218
X64.00993 Y16.73502
X64.00803 Y16.97598
X63.98222 Y17.00179
X63.70000 Y17.00179
X63.69807 Y16.73626
X63.65555 Y16.67263
X63.60000 Y16.65579
X62.81176 Y16.66339
X62.76688 Y16.70022
X62.75195 Y16.73626
X62.75004 Y17.00179
X62.46777 Y17.00179
X62.44202 Y16.97604
X62.44202 Y16.67459
X62.48786 Y16.55884
X62.49751 Y16.47126
X62.45535 Y16.35678
X62.35929 Y16.28104
X62.27247 Y16.26379
X61.34245 Y16.26379
X61.01255 Y16.19819
X60.73280 Y16.01127
X60.52452 Y15.80299
X60.45073 Y15.75371
X60.36381 Y15.73652
X59.74296 Y15.73710
X59.17260 Y15.50141
X58.73588 Y15.06545
X58.49928 Y14.49565
X58.49867 Y13.87873
X58.73433 Y13.30838
X59.17565 Y12.86626
X59.22475 Y12.79268
X59.24202 Y12.70591
X59.24202 Y9.39546
X59.20768 Y9.27595
X59.07047 Y9.12220
X58.99219 Y9.09182
X58.86996 Y9.10323
X58.78901 Y9.15591
X58.74959 Y9.20968
X58.61182 Y9.30381
X58.42716 Y9.34123
X57.26986 Y9.34123
X57.18386 Y9.32878
X47.80237 Y9.33229
X47.75048 Y9.34801
X47.68106 Y9.39548
X47.14034 Y9.94577
X47.10905 Y10.04397
X47.11967 Y10.14585
X47.01256 Y10.68443
X46.69557 Y11.15883
X46.45731 Y11.39708
X45.98292 Y11.71407
X45.44581 Y11.82095
X44.90873 Y11.71412
X44.45335 Y11.40985
X44.14909 Y10.95448
X44.04223 Y10.41737
X44.14904 Y9.88029
X44.46603 Y9.40590
X44.70428 Y9.16764
X45.17868 Y8.85065
X45.71728 Y8.74349
X45.84870 Y8.75063
X45.92572 Y8.71784
X46.76978 Y7.87997
X47.06577 Y7.68220
X47.41459 Y7.61278
X57.18858 Y7.61278
X57.27091 Y7.60034
X58.42889 Y7.60034
X58.59978 Y7.63249
X58.73989 Y7.72264
X58.82523 Y7.81667
X58.94248 Y7.85309
X59.00143 Y7.84730
X59.07413 Y7.81588
X59.15033 Y7.73193
X59.28822 Y7.63770
X59.47260 Y7.60034
X60.62891 Y7.60034
X60.79978 Y7.63249
X60.93989 Y7.72264
X61.03308 Y7.85901
X61.07047 Y8.04359
X61.07047 Y8.89945
X61.03831 Y9.07054
X60.89053 Y9.27547
X60.85802 Y9.39215
X60.86153 Y12.74617
X60.87730 Y12.79812
X60.92462 Y12.86733
X61.36409 Y13.30602
X61.60072 Y13.87597
X61.60122 Y14.42097
X61.63452 Y14.53865
X61.70211 Y14.60954
X61.79366 Y14.64487
X62.37537 Y14.64780
X62.49503 Y14.61333
X62.68817 Y14.47271
X62.87260 Y14.43535
X63.57895 Y14.43535
X63.74979 Y14.46748
X63.95047 Y14.61285
X64.02715 Y14.64343
X64.37732 Y14.64769
X64.70747 Y14.71333
X64.98720 Y14.90025
X66.32044 Y16.23352
X66.50736 Y16.51325
X66.57302 Y16.84319
X66.57302 Y18.95955
X66.59951 Y19.06369
X66.63949 Y19.12002
X67.74449 Y20.22503
X67.81810 Y20.27425
X67.91467 Y20.29104
X67.96807 Y20.28146
X68.04625 Y20.24082
X68.09374 Y20.19061
X68.12763 Y20.10880
X68.12847 Y19.16618
X68.11269 Y19.11421
X68.06537 Y19.04502
X67.78732 Y18.76745
X67.57975 Y18.26750
X67.57919 Y17.72643
X67.78623 Y17.22541
X67.89943 Y17.10606
X67.93705 Y16.97565
X67.91986 Y16.89374
X67.88308 Y16.83529
X67.75638 Y16.75417
X67.64165 Y16.63943
X67.57952 Y16.48947
X67.57952 Y15.83550
X67.60523 Y15.80979
X67.88752 Y15.80979
X67.88943 Y16.42780
X67.91681 Y16.47898
X67.96799 Y16.50636
X69.89252 Y16.50829
X69.96321 Y16.47898
X69.99252 Y16.40829
X69.99059 Y14.48376
X69.96321 Y14.43258
X69.91203 Y14.40520
X69.29402 Y14.40330
X69.29402 Y14.12100
X69.31973 Y14.09529
X69.97367 Y14.09529
X70.12366 Y14.15740
X70.21111 Y14.24485
X70.28472 Y14.29408
X70.37159 Y14.31132
X70.45846 Y14.29408
X70.53212 Y14.24485
X71.78165 Y12.99530
X72.06138 Y12.80838
X72.39145 Y12.74272
X72.82797 Y12.73921
X72.94885 Y12.67625
X73.00138 Y12.59327
X73.01174 Y12.47610
X72.76132 Y11.89720
X72.76082 Y11.39654
X72.95210 Y10.93360
X73.30593 Y10.57917
X73.76856 Y10.38710
X74.26920 Y10.38659
X74.73214 Y10.57788
X75.08659 Y10.93170
X75.27867 Y11.39431
X75.27918 Y11.89497
X75.02840 Y12.47160
X75.02759 Y12.55532
X75.04557 Y12.61158
X75.13338 Y12.70955
X75.25108 Y12.74280
X77.40132 Y12.74280
X77.51900 Y12.70955
X78.05527 Y12.18280
X78.10274 Y12.11338
X78.11846 Y12.06149
X78.12199 Y9.39553
X78.10594 Y9.31179
X77.98849 Y9.15169
X77.91504 Y9.10422
X77.83261 Y9.08812
X77.70582 Y9.12566
X77.62959 Y9.20968
X77.49182 Y9.30381
X77.30716 Y9.34123
X76.14986 Y9.34123
X76.06386 Y9.32878
X66.71237 Y9.33229
X66.59128 Y9.39525
X66.30363 Y9.69932
X66.27714 Y9.80203
X66.28966 Y9.88585
X66.18255 Y10.42444
X65.86558 Y10.89883
X65.40731 Y11.35707
X64.93292 Y11.67407
X64.39581 Y11.78095
X63.85873 Y11.67412
X63.40335 Y11.36985
X63.09909 Y10.91448
X62.99223 Y10.37740
X63.09904 Y9.84029
X63.41603 Y9.36589
X63.87427 Y8.90765
X64.34869 Y8.59066
X64.88727 Y8.48349
X64.97109 Y8.49602
X65.05654 Y8.47877
X65.13020 Y8.42955
X65.67978 Y7.87997
X65.97577 Y7.68220
X66.32458 Y7.61278
X76.06858 Y7.61278
X76.15090 Y7.60034
X77.30892 Y7.60034
X77.47978 Y7.63249
X77.61989 Y7.72264
X77.70523 Y7.81667
X77.82248 Y7.85309
X77.88143 Y7.84730
X77.95413 Y7.81588
X78.03033 Y7.73193
X78.16822 Y7.63770
X78.35260 Y7.60034
X79.50891 Y7.60034
X79.67980 Y7.63249
X79.81996 Y7.72266
X79.91305 Y7.85893
X79.95046 Y8.04359
X79.95046 Y8.89945
X79.91828 Y9.07057
X79.77294 Y9.27120
X79.73848 Y9.38240
X79.73802 Y11.68207
X79.75527 Y11.76888
X79.80449 Y11.84254
X82.33799 Y14.37538
X82.44629 Y14.43080
X82.62816 Y14.43520
X82.79979 Y14.46748
X82.93989 Y14.55763
X83.03306 Y14.69400
X83.07047 Y14.87861
X83.07047 Y16.03436
X83.03809 Y16.20649
X82.97532 Y16.31157
X82.95970 Y16.39664
X82.97733 Y16.48218
X83.05803 Y16.67484
X83.05803 Y16.97598
X83.03222 Y17.00179
X82.75000 Y17.00179
X82.74807 Y16.73626
X82.72069 Y16.68508
X82.66951 Y16.65770
X81.90004 Y16.65579
X81.84447 Y16.67263
X81.80195 Y16.73626
X81.80004 Y17.00179
X81.51777 Y17.00179
X81.49202 Y16.97604
X81.49202 Y16.67477
X81.57246 Y16.48231
X81.59001 Y16.39425
X81.57253 Y16.30736
X81.51721 Y16.21879
X81.47960 Y16.03319
X81.47960 Y15.89707
X81.46227 Y15.81015
X81.41307 Y15.73654
X80.73819 Y15.06166
X80.65521 Y15.00909
X80.53327 Y14.99956
X80.45158 Y15.03342
X79.97993 Y15.49976
X79.40980 Y15.73649
X78.79296 Y15.73710
X78.22260 Y15.50141
X77.78588 Y15.06545
X77.55052 Y14.49872
X77.50132 Y14.42516
X77.42766 Y14.37599
X77.34092 Y14.35879
X75.59736 Y14.35879
X75.51047 Y14.37604
X75.43678 Y14.42529
X75.38426 Y14.50825
X75.37280 Y14.61069
X75.39942 Y14.69473
X76.05494 Y15.36321
X76.42146 Y16.24596
X76.42238 Y17.20131
X76.05743 Y18.08452
X75.38238 Y18.76079
X74.49980 Y19.12724
X73.54446 Y19.12815
X72.66112 Y18.76315
X72.00583 Y18.11515
X71.92886 Y18.08246
X71.87011 Y18.07756
X71.75381 Y18.11538
X71.68198 Y18.19529
X71.65302 Y18.30420
X71.65973 Y20.69914
X71.71949 Y20.80590
X72.43539 Y21.52180
X72.52782 Y21.57671
X72.59595 Y21.58827
X72.67827 Y21.57275
X72.78457 Y21.48751
X72.95190 Y21.09383
X73.30593 Y20.73917
X73.76856 Y20.54710
X74.26920 Y20.54659
X74.69528 Y20.72266
X74.76272 Y20.73795
X74.86899 Y20.72251
X74.92746 Y20.68568
X74.98253 Y20.61687
X75.00544 Y20.55241
X75.00854 Y20.22906
X75.24433 Y19.65838
X75.68027 Y19.22168
X76.25019 Y18.98505
X76.86703 Y18.98444
X77.43739 Y19.22010
X77.87409 Y19.65602
X78.11072 Y20.22597
X78.11095 Y20.43099
X78.12824 Y20.51774
X78.21597 Y20.62215
X78.32814 Y20.65731
X81.39544 Y20.65324
X81.47761 Y20.61870
X81.59199 Y20.52581
X81.63931 Y20.45319
X81.65590 Y20.37161
X81.61790 Y20.24192
X81.47939 Y20.09747
X81.41703 Y19.94700
X81.41703 Y19.64550
X81.44274 Y19.61979
X81.72504 Y19.61979
X81.72694 Y19.88530
X81.76946 Y19.94893
X81.82504 Y19.96579
X82.74452 Y19.96386
X82.79570 Y19.93648
X82.82308 Y19.88530
X82.82501 Y19.61979
X83.10728 Y19.61979
X83.13303 Y19.64555
X83.13303 Y19.94682
X83.07065 Y20.09747
X82.93278 Y20.24149
X82.90024 Y20.31885
X82.89526 Y20.37339
X82.92988 Y20.48695
X83.01381 Y20.56597
X83.10804 Y20.70394
X83.14545 Y20.88860
X83.14545 Y22.04445
X83.11312 Y22.21636
X83.03921 Y22.33886
X83.02572 Y22.44382
X83.04164 Y22.51047
X83.09105 Y22.58316
X83.16435 Y22.63165
X83.25058 Y22.64869
X102.10041 Y22.64869
X102.18728 Y22.63140
X102.26088 Y22.58217
X103.24275 Y21.60031
X103.52250 Y21.41339
X103.85217 Y21.34778
X106.59722 Y21.34778
X106.68445 Y21.38634
X106.79697 Y21.41082
X106.92227 Y21.41303
X107.05554 Y21.38634
X107.14274 Y21.34778
X108.59003 Y21.33579
X108.73992 Y21.31077
X109.22828 Y21.30315
X109.27316 Y21.26632
X109.29003 Y21.21077
X109.29003 Y20.57283
X109.80131 Y20.06155
X109.85968 Y20.04085
X109.92239 Y19.99358
X109.97199 Y19.90356
X110.01477 Y19.70621
X110.01185 Y13.34084
X109.97773 Y13.22847
X109.87354 Y13.07515
X107.49349 Y10.69510
X107.48000 Y10.63023
X107.47779 Y8.72383
X107.43878 Y8.56721
X107.38003 Y8.46945
X107.38003 Y7.76579
X107.36316 Y7.71022
X107.33403 Y7.68182
X107.33403 Y7.38238
X107.40431 Y7.30679
X107.43954 Y7.20753
X107.44200 Y7.00946
X107.41548 Y6.90405
X107.37550 Y6.84768
X107.30172 Y6.79843
X107.05963 Y6.74908
X106.95437 Y6.68617
X106.88899 Y6.67217
X106.78419 Y6.68784
X106.59092 Y6.76879
X106.41003 Y6.76879
X106.41003 Y6.46077
X106.54828 Y6.45315
X106.59316 Y6.41632
X106.60809 Y6.38027
X106.61002 Y5.61081
X106.59316 Y5.55523
X106.54828 Y5.51840
X106.05785 Y5.51081
X105.95183 Y5.48797
X105.85628 Y5.48866
X105.76217 Y5.51081
X105.31003 Y5.51081
X105.23931 Y5.54009
X105.21762 Y5.57253
X105.21003 Y5.63179
X104.92778 Y5.63179
X104.90203 Y5.60603
X104.90203 Y5.52958
X104.96410 Y5.37964
X105.07965 Y5.26410
X105.21475 Y5.18779
X105.27439 Y5.07024
X105.27358 Y4.98652
X105.23967 Y4.90466
X105.17703 Y4.84202
X105.07571 Y4.80624
X93.62925 Y4.80380
X93.45669 Y4.83379
X84.77375 Y4.83379
X84.67796 Y4.85526
X84.59745 Y4.91947
X84.55109 Y5.01645
X84.54916 Y5.08546
X84.57573 Y5.16958
X84.61322 Y5.22127
X91.64348 Y12.25153
X91.71709 Y12.30073
X91.80403 Y12.31803
X97.47083 Y12.31130
X97.57784 Y12.25128
X98.06704 Y11.75588
X98.10082 Y11.67422
X98.18002 Y11.27597
X98.43008 Y10.90170
X98.80435 Y10.65164
X99.24580 Y10.56378
X99.68720 Y10.65159
X100.06147 Y10.90168
X100.31154 Y11.27589
X100.36828 Y11.56116
X100.40206 Y11.64285
X101.04410 Y12.29108
X101.11791 Y12.34046
X101.20483 Y12.35778
X104.33779 Y12.35778
X104.66746 Y12.42334
X104.94721 Y12.61026
X107.53545 Y15.19852
X107.72237 Y15.47825
X107.78803 Y15.80819
X107.78993 Y16.53783
X107.80527 Y16.60517
X107.85447 Y16.67883
X107.92811 Y16.72803
X108.01503 Y16.74535
X108.52894 Y16.74535
X108.70088 Y16.77769
X108.79303 Y16.83225
X108.85838 Y16.84622
X108.94441 Y16.83628
X109.02003 Y16.80710
X109.02003 Y19.42866
X108.95066 Y19.49803
X108.83118 Y19.48860
X108.71177 Y19.54880
X108.52717 Y19.58622
X107.97131 Y19.58622
X107.79918 Y19.55386
X107.69798 Y19.49363
X107.61233 Y19.47811
X107.52732 Y19.49589
X107.44304 Y19.54855
X107.25717 Y19.58622
X106.70131 Y19.58622
X106.52918 Y19.55386
X106.42798 Y19.49363
X106.34233 Y19.47811
X106.25732 Y19.49589
X106.17304 Y19.54855
X105.98717 Y19.58622
X105.43131 Y19.58622
X105.25918 Y19.55386
X105.15798 Y19.49363
X105.07233 Y19.47811
X104.98732 Y19.49589
X104.90304 Y19.54855
X104.71717 Y19.58622
X104.16131 Y19.58622
X103.99022 Y19.55406
X103.85011 Y19.46389
X103.75692 Y19.32752
X103.71958 Y19.14319
X103.71958 Y17.18683
X103.75169 Y17.01599
X103.84188 Y16.87583
X103.97818 Y16.78272
X104.16314 Y16.74525
X104.44356 Y16.74088
X104.52494 Y16.70708
X104.59682 Y16.62717
X104.62573 Y16.51335
X104.60858 Y16.43143
X104.55936 Y16.35783
X103.85179 Y15.65026
X103.73076 Y15.58729
X101.53465 Y15.58379
X101.44765 Y15.60103
X101.37376 Y15.65049
X100.87529 Y16.15518
X100.84151 Y16.23684
X100.76157 Y16.63875
X100.51151 Y17.01302
X100.13724 Y17.26308
X99.69581 Y17.35094
X99.25441 Y17.26313
X98.88014 Y17.01307
X98.63008 Y16.63880
X98.55259 Y16.24932
X98.51875 Y16.16760
X98.00783 Y15.65049
X97.93839 Y15.60301
X97.88650 Y15.58729
X90.50749 Y15.58381
X90.17755 Y15.51818
X89.89779 Y15.33126
X81.37180 Y6.80527
X81.29814 Y6.75604
X81.23080 Y6.74070
X12.82893 Y6.74123
X12.76238 Y6.75802
X12.69322 Y6.80527
X10.43450 Y9.06396
X10.37958 Y9.15639
X10.36803 Y9.22449
X10.36803 Y13.91640
X10.37958 Y13.98447
X10.40907 Y14.04648
X10.45370 Y14.09265
X10.55065 Y14.13901
X10.63826 Y14.13921
X10.75517 Y14.09529
X11.41027 Y14.09529
X11.43602 Y14.12105
X11.43602 Y14.40330
X10.81799 Y14.40520
X10.76681 Y14.43258
X10.73943 Y14.48376
X10.73752 Y16.40829
X10.75436 Y16.46384
X10.79924 Y16.50067
X12.74252 Y16.50829
X12.79807 Y16.49143
X12.82566 Y16.46384
X12.84252 Y16.40829
X12.84059 Y14.48376
X12.81321 Y14.43258
X12.76203 Y14.40520
X12.14402 Y14.40330
X12.14402 Y14.12100
X12.16973 Y14.09529
X12.86066 Y14.09336
X12.97508 Y14.05117
X13.05083 Y13.95516
X13.06812 Y13.86829
X13.06812 Y11.38687
X13.14128 Y11.01895
X13.34989 Y10.70676
X15.14356 Y8.91309
X15.19611 Y8.83015
X15.24762 Y8.58596
X15.51041 Y8.19266
X16.03525 Y7.66782
X16.42854 Y7.40504
X16.89217 Y7.31278
X17.37360 Y7.31278
X17.83720 Y7.40499
X18.17413 Y7.62955
X18.29186 Y7.66280
X18.89143 Y7.66229
X19.17261 Y7.60034
X20.32889 Y7.60034
X20.49978 Y7.63249
X20.63989 Y7.72264
X20.72523 Y7.81667
X20.84248 Y7.85309
X20.90143 Y7.84730
X20.97413 Y7.81588
X21.05033 Y7.73193
X21.18822 Y7.63770
X21.37260 Y7.60034
X22.52891 Y7.60034
X22.69978 Y7.63249
X22.83989 Y7.72264
X22.93308 Y7.85901
X22.97047 Y8.04359
X22.97047 Y8.89945
X22.93831 Y9.07054
X22.79053 Y9.27547
X22.75802 Y9.39215
X22.76153 Y12.74617
X22.77730 Y12.79812
X22.82462 Y12.86733
X23.26409 Y13.30602
X23.50072 Y13.87597
X23.50122 Y14.42097
X23.54237 Y14.55100
X23.60211 Y14.60954
X23.69366 Y14.64487
X24.27537 Y14.64780
X24.39503 Y14.61333
X24.58817 Y14.47271
X24.77260 Y14.43535
X25.47895 Y14.43535
X25.64979 Y14.46748
X25.85047 Y14.61285
X25.92715 Y14.64343
X26.27732 Y14.64769
X26.60747 Y14.71333
X26.88720 Y14.90025
X27.58544 Y15.59852
X27.77236 Y15.87825
X27.83802 Y16.20819
X27.83802 Y18.20207
X27.87907 Y18.33217
X33.36694 Y23.81547
X33.46511 Y23.84676
X33.65518 Y23.84869
X33.74205 Y23.83139
X33.80052 Y23.79461
X33.86488 Y23.70851
X33.88213 Y23.62164
X33.86488 Y23.53477
X33.82810 Y23.47630
X30.28455 Y19.93006
X30.09763 Y19.65030
X30.03202 Y19.32063
X30.01467 Y19.11870
X29.96537 Y19.04502
X29.68732 Y18.76745
X29.47975 Y18.26750
X29.47919 Y17.72643
X29.68623 Y17.22541
X29.79943 Y17.10606
X29.83705 Y16.97565
X29.81986 Y16.89374
X29.78308 Y16.83529
X29.65638 Y16.75417
X29.54165 Y16.63943
X29.47952 Y16.48947
X29.47952 Y15.83550
X29.50523 Y15.80979
X29.78752 Y15.80979
X29.78943 Y16.42780
X29.83195 Y16.49143
X29.88752 Y16.50829
X31.81203 Y16.50636
X31.86321 Y16.47898
X31.89059 Y16.42780
X31.89252 Y15.80979
X32.17477 Y15.80979
X32.20052 Y15.83555
X32.20052 Y16.48932
X32.13839 Y16.63936
X32.02364 Y16.75412
X31.89712 Y16.83529
X31.86031 Y16.89384
X31.84312 Y16.98071
X31.87639 Y17.09846
X31.99237 Y17.22336
X32.20024 Y17.72401
X32.20080 Y18.26509
X31.99407 Y18.76539
X31.86016 Y18.89953
X31.81104 Y18.97316
X31.79384 Y19.05995
X31.81109 Y19.14675
X31.86031 Y19.22041
X34.28462 Y21.64471
X34.36747 Y21.69724
X34.48949 Y21.70681
X34.57136 Y21.67288
X34.62152 Y21.62533
X34.85198 Y21.09373
X35.20593 Y20.73917
X35.66856 Y20.54710
X36.16920 Y20.54659
X36.62840 Y20.73318
X36.72645 Y20.73546
X36.80828 Y20.70145
X36.87082 Y20.63879
X36.90458 Y20.55728
X36.90854 Y20.22906
X37.14433 Y19.65838
X37.58027 Y19.22168
X38.15019 Y18.98505
X38.76703 Y18.98444
X39.33739 Y19.22010
X39.77409 Y19.65602
X40.01072 Y20.22597
X40.01095 Y20.43099
X40.02824 Y20.51774
X40.10396 Y20.61370
X40.19367 Y20.65342
X43.29539 Y20.65324
X43.37761 Y20.61870
X43.49199 Y20.52581
X43.53931 Y20.45319
X43.55590 Y20.37161
X43.51790 Y20.24192
X43.37939 Y20.09747
X43.31703 Y19.94700
X43.31703 Y19.64550
X43.34274 Y19.61979
X43.62504 Y19.61979
X43.62694 Y19.88530
X43.66946 Y19.94893
X43.72504 Y19.96579
X44.64452 Y19.96386
X44.69570 Y19.93648
X44.72308 Y19.88530
X44.72501 Y19.61979
X45.00728 Y19.61979
X45.03303 Y19.64555
X45.03303 Y19.94682
X44.97065 Y20.09747
X44.83278 Y20.24149
X44.80024 Y20.31885
X44.79526 Y20.37339
X44.82988 Y20.48695
X44.91381 Y20.56597
X45.00804 Y20.70394
X45.04545 Y20.88860
X45.04545 Y22.04445
X45.01312 Y22.21636
X44.93921 Y22.33886
X44.92358 Y22.42446
X44.96562 Y22.55322
X45.06890 Y22.63340
X45.15058 Y22.64869
X49.67722 Y22.64869
X49.76409 Y22.63140
X49.86010 Y22.55565
X49.89985 Y22.46594
X49.89025 Y22.34410
X49.83770 Y22.26117
X46.15955 Y18.58302
X45.97263 Y18.30326
X45.90702 Y17.97360
X45.90702 Y17.24949
X45.88970 Y17.16257
X45.84027 Y17.08871
X45.31096 Y16.56562
X45.22922 Y16.53182
X45.14068 Y16.53184
X45.05887 Y16.56572
X45.00867 Y16.61325
X44.97352 Y16.67218
X44.95993 Y16.73502
X44.95803 Y16.97598
X44.93222 Y17.00179
X44.65000 Y17.00179
X44.64807 Y16.73626
X44.60555 Y16.67263
X44.55000 Y16.65579
X43.76176 Y16.66339
X43.71688 Y16.70022
X43.70195 Y16.73626
X43.70004 Y17.00179
X43.41777 Y17.00179
X43.39202 Y16.97604
X43.39202 Y16.67459
X43.43786 Y16.55884
X43.44751 Y16.47126
X43.40535 Y16.35678
X43.30929 Y16.28104
X43.22247 Y16.26379
X42.29245 Y16.26379
X41.96255 Y16.19819
X41.68280 Y16.01127
X41.47452 Y15.80299
X41.40073 Y15.75371
X41.31381 Y15.73652
X40.69296 Y15.73710
X40.12260 Y15.50141
X39.68588 Y15.06545
X39.44928 Y14.49565
X39.44867 Y13.87873
X39.68433 Y13.30838
X40.12565 Y12.86626
X40.17475 Y12.79268
X40.19202 Y12.70591
X40.19202 Y9.39546
X40.17594 Y9.31179
X40.15014 Y9.26414
X40.05849 Y9.15169
X39.98956 Y9.10615
X39.92260 Y9.09017
X39.83457 Y9.09906
X39.76388 Y9.13434
X39.69959 Y9.20968
X39.56182 Y9.30381
X39.37716 Y9.34123
X38.21986 Y9.34123
X38.13386 Y9.32878
X28.70238 Y9.33229
X28.65049 Y9.34801
X28.58107 Y9.39551
X28.09034 Y9.89576
X28.05905 Y9.99396
X28.06967 Y10.09584
X27.96256 Y10.63442
X27.64564 Y11.10874
X27.42723 Y11.32713
X26.95291 Y11.64407
X26.41580 Y11.75095
X25.87874 Y11.64412
X25.42337 Y11.33985
X25.11910 Y10.88448
X25.01222 Y10.34737
X25.11905 Y9.81029
X25.43604 Y9.33589
X25.65428 Y9.11766
X26.12868 Y8.80066
X26.66728 Y8.69350
X26.79870 Y8.70064
X26.87569 Y8.66785
X27.66977 Y7.87997
X27.96576 Y7.68220
X28.31458 Y7.61278
X38.13858 Y7.61278
X38.22091 Y7.60034
X39.37889 Y7.60034
X39.54978 Y7.63249
X39.68989 Y7.72264
X39.77523 Y7.81667
X39.89248 Y7.85309
X39.95143 Y7.84730
X40.02413 Y7.81588
X40.10033 Y7.73193
X40.23822 Y7.63770
X40.42260 Y7.60034
X41.57891 Y7.60034
X41.74978 Y7.63249
X41.88989 Y7.72264
X41.98308 Y7.85901
X42.02047 Y8.04359
X42.02047 Y8.89945
X41.98831 Y9.07054
X41.84053 Y9.27547
X41.80802 Y9.39215
X41.81153 Y12.74617
X41.82730 Y12.79812
X41.87462 Y12.86733
X42.31409 Y13.30602
X42.55072 Y13.87597
X42.55122 Y14.42097
X42.56852 Y14.50774
X42.61772 Y14.58132
X42.69133 Y14.63050
X42.77822 Y14.64780
X43.32537 Y14.64780
X43.44503 Y14.61333
X43.63817 Y14.47271
X43.82260 Y14.43535
X44.52895 Y14.43535
X44.69979 Y14.46748
X44.90047 Y14.61285
X44.97715 Y14.64343
X45.32732 Y14.64769
X45.65747 Y14.71333
X45.93720 Y14.90025
X47.27044 Y16.23352
X47.45736 Y16.51325
X47.52302 Y16.84319
X47.52302 Y17.56707
X47.54027 Y17.65389
X47.58949 Y17.72755
X48.14210 Y18.28015
X48.25835 Y18.34230
X48.34697 Y18.34225
X48.41154 Y18.31756
X48.47900 Y18.26077
X48.50821 Y18.21517
X48.52957 Y18.11944
X48.52919 Y17.72645
X48.73623 Y17.22541
X48.84943 Y17.10606
X48.88428 Y17.01510
X48.87557 Y16.91251
X48.83308 Y16.83529
X48.70638 Y16.75417
X48.59165 Y16.63943
X48.52952 Y16.48947
X48.52952 Y15.83550
X48.55523 Y15.80979
X48.83752 Y15.80979
X48.83943 Y16.42780
X48.88195 Y16.49143
X48.93752 Y16.50829
X50.88077 Y16.50067
X50.92566 Y16.46384
X50.94252 Y16.40829
X50.94252 Y15.80979
X51.22477 Y15.80979
X51.25052 Y15.83555
X51.25052 Y16.48932
X51.18839 Y16.63936
X51.07364 Y16.75412
X50.94712 Y16.83529
X50.91031 Y16.89384
X50.89312 Y16.98071
X50.92639 Y17.09846
X51.04237 Y17.22336
X51.25024 Y17.72401
X51.25080 Y18.26509
X51.04407 Y18.76539
X50.91016 Y18.89953
X50.86104 Y18.97316
X50.84384 Y19.05995
X50.86109 Y19.14675
X50.91036 Y19.22046
X53.36903 Y21.67295
X53.45087 Y21.70686
X53.52001 Y21.70874
X53.60406 Y21.68212
X53.64848 Y21.65119
X53.70492 Y21.57090
X53.90210 Y21.09360
X54.25593 Y20.73917
X54.71856 Y20.54710
X55.21920 Y20.54659
X55.67840 Y20.73318
X55.77645 Y20.73546
X55.85828 Y20.70145
X55.92082 Y20.63879
X55.95458 Y20.55728
X55.95854 Y20.22906
X56.19433 Y19.65838
X56.63027 Y19.22168
X57.20019 Y18.98505
X57.81703 Y18.98444
X58.38739 Y19.22010
X58.82409 Y19.65602
X59.06072 Y20.22597
X59.06095 Y20.43099
X59.07824 Y20.51774
X59.15396 Y20.61370
X59.26318 Y20.65533
X62.34539 Y20.65324
X62.42761 Y20.61870
X62.54199 Y20.52581
X62.58931 Y20.45319
X62.60590 Y20.37161
X62.56790 Y20.24192
X62.42939 Y20.09747
X62.36703 Y19.94700
X62.36703 Y19.64550
X62.39274 Y19.61979
X62.67504 Y19.61979
X62.67694 Y19.88530
X62.71946 Y19.94893
X62.77504 Y19.96579
X63.69452 Y19.96386
X63.74570 Y19.93648
X63.77308 Y19.88530
X63.77501 Y19.61979
X64.05728 Y19.61979
X64.08303 Y19.64555
X64.08303 Y19.94682
X64.02065 Y20.09747
X63.88278 Y20.24149
X63.85024 Y20.31885
X63.84526 Y20.37339
X63.87988 Y20.48695
X63.96381 Y20.56597
X64.05804 Y20.70394
X64.09545 Y20.88860
X64.09545 Y22.04445
X64.06327 Y22.21555
X63.97310 Y22.35570
X63.83683 Y22.44882
X63.65217 Y22.48624
X62.79637 Y22.48624
X62.62520 Y22.45403
X62.42030 Y22.30630
X62.30371 Y22.27379
X58.46245 Y22.27379
G04 P0 ( dwell for no time -- G64 should not smooth over this point )
G00 Z5.00000 ( retract )

G00 X57.81101 Y26.55671 ( rapid move to begin. )
F300.00000
G01 Z-0.05000
G04 P0 ( dwell for no time -- G64 should not smooth over this point )
F600.00000
X57.81101 Y26.55671
X50.39002 Y19.13575
X50.39002 Y18.91954
X50.59424 Y18.77794
X50.74151 Y18.61441
X50.85149 Y18.42386
X50.92113 Y18.20425
X50.94250 Y17.99577
X50.91679 Y17.76686
X50.85149 Y17.56770
X50.74720 Y17.38594
X50.60165 Y17.22104
X50.42505 Y17.09001
X50.22502 Y16.99857
X49.98956 Y16.94853
X49.78001 Y16.94906
X49.56475 Y16.99481
X49.35502 Y17.09001
X49.18576 Y17.21363
X49.03854 Y17.37715
X48.92477 Y17.57748
X48.86323 Y17.76686
X48.83806 Y17.98533
X48.85888 Y18.20425
X48.92853 Y18.42384
X49.03851 Y18.61439
X49.19388 Y18.78452
X49.39002 Y18.91952
X49.39815 Y19.43064
X49.43224 Y19.54301
X49.48009 Y19.62846
X57.25036 Y27.41023
X57.40367 Y27.51442
X57.59410 Y27.55623
X104.09073 Y27.55145
X104.20904 Y27.51922
X104.36606 Y27.41724
X105.52824 Y26.25582
X114.40000 Y26.25582
X114.50704 Y26.24381
X114.60020 Y26.21353
X114.75352 Y26.10934
X116.18354 Y24.67930
X116.28773 Y24.52598
X116.31801 Y24.43282
X116.33002 Y24.32578
X116.33002 Y23.61189
X116.36314 Y23.58133
X116.38001 Y23.52578
X116.38001 Y22.32578
X116.35070 Y22.25507
X116.28001 Y22.22578
X115.38004 Y22.22578
X115.34176 Y22.23338
X115.29688 Y22.27021
X115.28004 Y22.32578
X115.28004 Y23.52578
X115.29688 Y23.58133
X115.33002 Y23.61189
X115.33002 Y24.11864
X114.19286 Y25.25583
X105.23334 Y25.26395
X105.12095 Y25.29807
X104.96764 Y25.40226
X103.81318 Y26.55671
X57.81101 Y26.55671
G04 P0 ( dwell for no time -- G64 should not smooth over this point )
G00 Z5.00000 ( retract )

G00 X57.18305 Y27.75674 ( rapid move to begin. )
F300.00000
G01 Z-0.05000
G04 P0 ( dwell for no time -- G64 should not smooth over this point )
F600.00000
X57.18305 Y27.75674
X47.21502 Y17.78871
X47.21454 Y16.81096
X47.18025 Y16.63867
X47.13575 Y16.55137
X47.06854 Y16.46722
X45.69628 Y15.09562
X45.55020 Y14.99801
X45.43783 Y14.96392
X44.65000 Y14.95580
X44.64238 Y14.81752
X44.60555 Y14.77264
X44.55000 Y14.75580
X43.78051 Y14.75770
X43.74447 Y14.77264
X43.70764 Y14.81752
X43.70004 Y14.95580
X42.47711 Y14.95580
X42.15366 Y14.63238
X42.21574 Y14.44462
X42.24300 Y14.18577
X42.21313 Y13.91724
X42.13553 Y13.68021
X42.00558 Y13.45516
X41.83911 Y13.26946
X41.62148 Y13.10932
X41.50002 Y13.05468
X41.50002 Y9.02078
X41.63827 Y9.01316
X41.68315 Y8.97633
X41.69809 Y8.94029
X41.69809 Y8.00128
X41.65557 Y7.93765
X41.60002 Y7.92081
X40.40002 Y7.92081
X40.32931 Y7.95009
X40.30002 Y8.02081
X40.30193 Y8.94029
X40.31686 Y8.97633
X40.36174 Y9.01316
X40.50002 Y9.02078
X40.50002 Y13.05461
X40.36975 Y13.11501
X40.17643 Y13.25547
X40.00101 Y13.44704
X39.86449 Y13.68021
X39.78689 Y13.91724
X39.75756 Y14.17533
X39.78255 Y14.43388
X39.86449 Y14.69133
X39.99441 Y14.91638
X40.16091 Y15.10210
X40.36972 Y15.25653
X40.61590 Y15.36794
X40.87010 Y15.42196
X41.11948 Y15.42252
X41.37399 Y15.37063
X41.44742 Y15.34030
X41.96992 Y15.85541
X42.06662 Y15.91254
X42.17635 Y15.94647
X43.70004 Y15.95579
X43.70764 Y16.09405
X43.74447 Y16.13893
X43.80004 Y16.15579
X44.56951 Y16.15386
X44.60555 Y16.13893
X44.64238 Y16.09405
X44.65000 Y15.95579
X45.14294 Y15.95579
X46.21502 Y17.02788
X46.22315 Y18.08360
X46.25724 Y18.19597
X46.36145 Y18.34931
X56.62239 Y28.61025
X56.77375 Y28.71399
X56.90550 Y28.75148
X104.51737 Y28.75673
X104.69944 Y28.72196
X104.86362 Y28.61686
X106.02529 Y27.45582
X115.27775 Y27.44650
X115.39680 Y27.40782
X115.53764 Y27.30934
X117.49354 Y25.35344
X117.56075 Y25.26929
X117.62801 Y25.10696
X117.64003 Y24.99992
X117.64003 Y18.16580
X117.60053 Y17.97217
X117.54003 Y17.86636
X117.53810 Y17.14627
X117.49558 Y17.08264
X117.44003 Y17.06580
X116.82049 Y17.06770
X116.76931 Y17.09509
X116.74193 Y17.14627
X116.74003 Y17.86653
X116.67947 Y17.97217
X116.64003 Y18.16580
X116.64003 Y24.79278
X114.97699 Y26.45582
X105.73040 Y26.46395
X105.61800 Y26.49806
X105.46469 Y26.60225
X104.31023 Y27.75674
X57.18305 Y27.75674
G04 P0 ( dwell for no time -- G64 should not smooth over this point )
G00 Z5.00000 ( retract )

G00 X56.20916 Y28.95673 ( rapid move to begin. )
F300.00000
G01 Z-0.05000
G04 P0 ( dwell for no time -- G64 should not smooth over this point )
F600.00000
X56.20916 Y28.95673
X50.35555 Y23.10313
X50.20221 Y22.99891
X50.10907 Y22.96866
X50.00204 Y22.95669
X35.16097 Y22.95669
X31.34002 Y19.13575
X31.34002 Y18.91954
X31.54424 Y18.77794
X31.69151 Y18.61441
X31.80149 Y18.42386
X31.87113 Y18.20425
X31.89250 Y17.99577
X31.86679 Y17.76686
X31.80149 Y17.56770
X31.69720 Y17.38594
X31.55165 Y17.22104
X31.37505 Y17.09001
X31.16524 Y16.99481
X30.93956 Y16.94853
X30.71968 Y16.95071
X30.50500 Y16.99857
X30.30502 Y17.09001
X30.14391 Y17.20705
X29.98854 Y17.37715
X29.87853 Y17.56770
X29.81323 Y17.76686
X29.78806 Y17.98533
X29.81323 Y18.22470
X29.87853 Y18.42384
X29.98851 Y18.61439
X30.14388 Y18.78452
X30.34002 Y18.91952
X30.34815 Y19.43064
X30.38224 Y19.54301
X30.43009 Y19.62846
X34.60031 Y23.81021
X34.75363 Y23.91440
X34.84680 Y23.94468
X34.95388 Y23.95669
X49.79495 Y23.95669
X55.64851 Y29.81025
X55.80182 Y29.91444
X55.99224 Y29.95625
X105.08483 Y29.95147
X105.20314 Y29.91924
X105.36017 Y29.81726
X106.52234 Y28.65584
X115.68118 Y28.65584
X115.78821 Y28.64383
X115.95054 Y28.57657
X116.03469 Y28.50936
X118.79354 Y25.75052
X118.89773 Y25.59720
X118.92801 Y25.50403
X118.94002 Y25.39700
X118.94002 Y23.65189
X118.97314 Y23.62134
X118.99001 Y23.56579
X118.98808 Y22.34626
X118.94556 Y22.28263
X118.89001 Y22.26579
X117.99004 Y22.26579
X117.95176 Y22.27338
X117.90688 Y22.31021
X117.89004 Y22.36579
X117.89004 Y23.56579
X117.90688 Y23.62134
X117.94003 Y23.65189
X117.94003 Y25.18986
X115.47404 Y27.65585
X106.22748 Y27.66397
X106.11508 Y27.69809
X105.96177 Y27.80228
X104.80731 Y28.95673
X56.20916 Y28.95673
G04 P0 ( dwell for no time -- G64 should not smooth over this point )
G00 Z5.00000 ( retract )

G00 X55.71211 Y30.15676 ( rapid move to begin. )
F300.00000
G01 Z-0.05000
G04 P0 ( dwell for no time -- G64 should not smooth over this point )
F600.00000
X55.71211 Y30.15676
X49.85847 Y24.30312
X49.77427 Y24.23586
X49.61199 Y24.16866
X49.50496 Y24.15669
X33.26303 Y24.15669
X27.53002 Y18.42371
X27.53002 Y16.18579
X27.51801 Y16.07870
X27.48773 Y15.98554
X27.39014 Y15.83949
X26.65354 Y15.10223
X26.50020 Y14.99801
X26.38783 Y14.96392
X25.60000 Y14.95580
X25.59238 Y14.81752
X25.55555 Y14.77264
X25.50000 Y14.75580
X24.73051 Y14.75770
X24.69447 Y14.77264
X24.65764 Y14.81752
X24.65004 Y14.95580
X23.42711 Y14.95580
X23.10366 Y14.63238
X23.16574 Y14.44462
X23.19300 Y14.18577
X23.16313 Y13.91724
X23.08553 Y13.68021
X22.95558 Y13.45516
X22.78911 Y13.26946
X22.57148 Y13.10932
X22.45002 Y13.05468
X22.45002 Y9.02078
X22.58827 Y9.01316
X22.63315 Y8.97633
X22.64809 Y8.94029
X22.64809 Y8.00128
X22.60557 Y7.93765
X22.55002 Y7.92081
X21.35002 Y7.92081
X21.31174 Y7.92840
X21.26686 Y7.96523
X21.25002 Y8.02081
X21.25193 Y8.94029
X21.26686 Y8.97633
X21.31174 Y9.01316
X21.45002 Y9.02078
X21.45002 Y13.05461
X21.31975 Y13.11501
X21.12643 Y13.25547
X20.95101 Y13.44704
X20.81449 Y13.68021
X20.73689 Y13.91724
X20.70756 Y14.17533
X20.73255 Y14.43388
X20.81449 Y14.69133
X20.94441 Y14.91638
X21.11091 Y15.10210
X21.31972 Y15.25653
X21.56590 Y15.36794
X21.82010 Y15.42196
X22.06948 Y15.42252
X22.32399 Y15.37063
X22.39742 Y15.34030
X22.91992 Y15.85541
X23.01662 Y15.91254
X23.12635 Y15.94647
X24.65004 Y15.95579
X24.65764 Y16.09405
X24.69447 Y16.13893
X24.75004 Y16.15579
X25.51951 Y16.15386
X25.55555 Y16.13893
X25.59238 Y16.09405
X25.60000 Y15.95579
X26.09294 Y15.95579
X26.53002 Y16.39288
X26.53002 Y18.63079
X26.55999 Y18.80004
X26.62398 Y18.92251
X32.77024 Y25.06655
X32.87382 Y25.12192
X33.05594 Y25.15669
X49.29787 Y25.15669
X55.15145 Y31.01027
X55.30281 Y31.11401
X55.43456 Y31.15150
X105.51147 Y31.15675
X105.69354 Y31.12198
X105.85773 Y31.01688
X107.01942 Y29.85584
X116.26667 Y29.84749
X116.44148 Y29.78038
X116.53177 Y29.70936
X120.50355 Y25.73759
X120.57075 Y25.65344
X120.63801 Y25.49111
X120.65003 Y25.38407
X120.64970 Y20.42792
X120.61129 Y20.24466
X120.56021 Y20.15065
X120.18003 Y19.75871
X120.18003 Y18.16580
X120.14053 Y17.97217
X120.08003 Y17.86636
X120.07810 Y17.14627
X120.03558 Y17.08264
X119.98003 Y17.06580
X119.38003 Y17.06580
X119.30931 Y17.09509
X119.28003 Y17.16580
X119.28003 Y17.86653
X119.21947 Y17.97217
X119.18056 Y18.15533
X119.18816 Y20.05360
X119.22224 Y20.16597
X119.27010 Y20.25142
X119.65003 Y20.64288
X119.65003 Y25.17693
X115.97112 Y28.85584
X106.72453 Y28.86397
X106.61213 Y28.89808
X106.45882 Y29.00228
X105.30434 Y30.15676
X55.71211 Y30.15676
G04 P0 ( dwell for no time -- G64 should not smooth over this point )
G00 Z5.00000 ( retract )

G00 X63.30000 Y35.62868 ( rapid move to begin. )
F300.00000
G01 Z-0.05000
G04 P0 ( dwell for no time -- G64 should not smooth over this point )
F600.00000
X63.30000 Y35.62868
X60.75002 Y33.07870
X60.74809 Y32.76628
X60.70557 Y32.70265
X60.65002 Y32.68581
X59.45002 Y32.68581
X59.37931 Y32.71509
X59.35002 Y32.78581
X59.35193 Y33.70529
X59.36686 Y33.74133
X59.41174 Y33.77816
X59.55002 Y33.78578
X59.55002 Y38.45461
X59.41975 Y38.51501
X59.22643 Y38.65547
X59.04444 Y38.85516
X58.91073 Y39.08999
X58.83689 Y39.31724
X58.80756 Y39.57533
X58.83255 Y39.83388
X58.91449 Y40.09133
X59.04441 Y40.31638
X59.22643 Y40.51607
X59.43783 Y40.66700
X59.66590 Y40.76794
X59.90976 Y40.82031
X60.19025 Y40.82031
X60.42399 Y40.77063
X60.49742 Y40.74030
X61.01992 Y41.25541
X61.11662 Y41.31254
X61.20592 Y41.34213
X61.32002 Y41.35579
X62.75004 Y41.35579
X62.75764 Y41.49405
X62.79447 Y41.53893
X62.83051 Y41.55386
X63.60000 Y41.55579
X63.67069 Y41.52648
X63.70000 Y41.45579
X63.70000 Y41.00573
X63.72502 Y40.85579
X63.72502 Y36.61783
X64.13424 Y36.20861
X64.24095 Y36.12931
X66.62684 Y33.74336
X66.71127 Y33.75619
X66.88877 Y33.74689
X67.05046 Y33.70412
X67.20967 Y33.62546
X67.35681 Y33.50839
X67.76382 Y33.10062
X67.86250 Y32.97877
X67.94505 Y32.82155
X67.99641 Y32.62993
X68.00462 Y32.46285
X67.97899 Y32.29760
X67.91312 Y32.12150
X67.82250 Y31.98093
X67.69847 Y31.85383
X67.54165 Y31.75002
X67.38574 Y31.68960
X67.21071 Y31.65965
X67.01257 Y31.67004
X66.84163 Y31.71812
X66.68440 Y31.80067
X66.55478 Y31.90636
X66.15478 Y32.30636
X66.03772 Y32.45350
X65.95905 Y32.61271
X65.91628 Y32.77438
X65.90698 Y32.94141
X65.91981 Y33.03628
X63.61316 Y35.34293
X63.50643 Y35.42223
X63.30000 Y35.62868
G04 P0 ( dwell for no time -- G64 should not smooth over this point )
G00 Z5.00000 ( retract )

G00 X62.72502 Y37.61783 ( rapid move to begin. )
F300.00000
G01 Z-0.05000
G04 P0 ( dwell for no time -- G64 should not smooth over this point )
F600.00000
X62.72502 Y37.61783
X62.72502 Y40.35580
X61.52711 Y40.35580
X61.20366 Y40.03238
X61.26574 Y39.84462
X61.29300 Y39.58577
X61.26574 Y39.32694
X61.20364 Y39.13924
X62.72502 Y37.61783
G04 P0 ( dwell for no time -- G64 should not smooth over this point )
G00 Z5.00000 ( retract )

G00 X60.55002 Y38.37869 ( rapid move to begin. )
F300.00000
G01 Z-0.05000
G04 P0 ( dwell for no time -- G64 should not smooth over this point )
F600.00000
X60.55002 Y38.37869
X60.55002 Y34.29284
X62.59294 Y36.33574
X60.55002 Y38.37869
G04 P0 ( dwell for no time -- G64 should not smooth over this point )
G00 Z5.00000 ( retract )

G00 X62.44202 Y43.13550 ( rapid move to begin. )
F300.00000
G01 Z-0.05000
G04 P0 ( dwell for no time -- G64 should not smooth over this point )
F600.00000
X62.44202 Y43.13550
X62.46772 Y43.10979
X62.72502 Y43.10979
X62.72502 Y43.97964
X62.67694 Y44.04626
X62.67504 Y44.31180
X62.39279 Y44.31180
X62.36703 Y44.28604
X62.36703 Y43.98459
X62.42980 Y43.83298
X62.49246 Y43.75155
X62.51392 Y43.65576
X62.49668 Y43.56892
X62.44202 Y43.43699
X62.44202 Y43.13550
G04 P0 ( dwell for no time -- G64 should not smooth over this point )
G00 Z5.00000 ( retract )

G00 X64.00803 Y43.13555 ( rapid move to begin. )
F300.00000
G01 Z-0.05000
G04 P0 ( dwell for no time -- G64 should not smooth over this point )
F600.00000
X64.00803 Y43.13555
X64.00803 Y43.43682
X63.95332 Y43.56892
X63.93607 Y43.65581
X63.95751 Y43.75150
X64.02019 Y43.83301
X64.08303 Y43.98467
X64.08303 Y44.28599
X64.05723 Y44.31180
X63.77501 Y44.31180
X63.77308 Y44.04626
X63.72502 Y43.97969
X63.72502 Y43.10979
X63.98227 Y43.10979
X64.00803 Y43.13555
G04 P0 ( dwell for no time -- G64 should not smooth over this point )
G00 Z5.00000 ( retract )

G00 X67.57952 Y39.82209 ( rapid move to begin. )
F300.00000
G01 Z-0.05000
G04 P0 ( dwell for no time -- G64 should not smooth over this point )
F600.00000
X67.57952 Y39.82209
X67.64160 Y39.67215
X67.75636 Y39.55742
X67.90627 Y39.49529
X68.56027 Y39.49529
X68.58602 Y39.52105
X68.58602 Y39.80330
X67.98752 Y39.80330
X67.94924 Y39.81089
X67.90436 Y39.84772
X67.88752 Y39.90329
X67.88752 Y40.50180
X67.60528 Y40.50180
X67.57952 Y40.47604
X67.57952 Y39.82209
G04 P0 ( dwell for no time -- G64 should not smooth over this point )
G00 Z5.00000 ( retract )

G00 X70.30052 Y39.82217 ( rapid move to begin. )
F300.00000
G01 Z-0.05000
G04 P0 ( dwell for no time -- G64 should not smooth over this point )
F600.00000
X70.30052 Y39.82217
X70.30052 Y40.47599
X70.27472 Y40.50180
X69.99252 Y40.50180
X69.99252 Y39.90329
X69.97566 Y39.84772
X69.93077 Y39.81089
X69.89252 Y39.80330
X69.29402 Y39.80330
X69.29402 Y39.52100
X69.31973 Y39.49529
X69.97367 Y39.49529
X70.12366 Y39.55740
X70.23834 Y39.67208
X70.30052 Y39.82217
G04 P0 ( dwell for no time -- G64 should not smooth over this point )
G00 Z5.00000 ( retract )

G00 X71.98256 Y40.76700 ( rapid move to begin. )
F300.00000
G01 Z-0.05000
G04 P0 ( dwell for no time -- G64 should not smooth over this point )
F600.00000
X71.98256 Y40.76700
X72.65764 Y40.09075
X73.54019 Y39.72430
X74.49553 Y39.72339
X75.37877 Y40.08833
X76.05502 Y40.76339
X76.42146 Y41.64596
X76.42238 Y42.60131
X76.05743 Y43.48452
X75.38238 Y44.16079
X74.49980 Y44.52724
X73.54446 Y44.52815
X72.66125 Y44.16321
X71.98497 Y43.48812
X71.61853 Y42.60555
X71.61761 Y41.65023
X71.98256 Y40.76700
G04 P0 ( dwell for no time -- G64 should not smooth over this point )
G00 Z5.00000 ( retract )

G00 X69.99196 Y43.38533 ( rapid move to begin. )
F300.00000
G01 Z-0.05000
G04 P0 ( dwell for no time -- G64 should not smooth over this point )
F600.00000
X69.99196 Y43.38533
X69.96679 Y43.16686
X69.90149 Y42.96770
X69.79148 Y42.77715
X69.63613 Y42.60705
X69.45694 Y42.47957
X69.26524 Y42.39481
X69.06034 Y42.35071
X68.84048 Y42.34853
X68.60500 Y42.39857
X68.40502 Y42.49001
X68.22836 Y42.62104
X68.08854 Y42.77715
X67.97853 Y42.96770
X67.90888 Y43.18731
X67.88806 Y43.40623
X67.91323 Y43.62470
X67.97853 Y43.82384
X68.08851 Y44.01439
X68.24388 Y44.18452
X68.42308 Y44.31200
X68.61475 Y44.39676
X68.83001 Y44.44250
X69.03956 Y44.44306
X69.26524 Y44.39676
X69.45691 Y44.31200
X69.64424 Y44.17794
X69.78490 Y44.02254
X69.90149 Y43.82386
X69.96679 Y43.62470
X69.99196 Y43.38533
G04 P0 ( dwell for no time -- G64 should not smooth over this point )
G00 Z5.00000 ( retract )

G00 X69.71170 Y44.54845 ( rapid move to begin. )
F300.00000
G01 Z-0.05000
G04 P0 ( dwell for no time -- G64 should not smooth over this point )
F600.00000
X69.71170 Y44.54845
X69.21175 Y44.75602
X68.67068 Y44.75657
X68.17038 Y44.54984
X67.78732 Y44.16745
X67.57975 Y43.66750
X67.57919 Y43.12643
X67.78623 Y42.62541
X67.89943 Y42.50606
X67.93705 Y42.37565
X67.91986 Y42.29374
X67.88308 Y42.23529
X67.75638 Y42.15417
X67.64165 Y42.03943
X67.57952 Y41.88947
X67.57952 Y41.23550
X67.60523 Y41.20979
X67.88752 Y41.20979
X67.88943 Y41.82780
X67.93195 Y41.89143
X67.98752 Y41.90829
X69.91203 Y41.90636
X69.96321 Y41.87898
X69.99059 Y41.82780
X69.99252 Y41.20979
X70.27477 Y41.20979
X70.30052 Y41.23555
X70.30052 Y41.88932
X70.23839 Y42.03936
X70.12364 Y42.15412
X69.99712 Y42.23529
X69.96031 Y42.29384
X69.94312 Y42.38071
X69.97639 Y42.49846
X70.09237 Y42.62336
X70.30024 Y43.12401
X70.30080 Y43.66509
X70.09407 Y44.16539
X69.71170 Y44.54845
G04 P0 ( dwell for no time -- G64 should not smooth over this point )
G00 Z5.00000 ( retract )

G00 X77.71920 Y46.36579 ( rapid move to begin. )
F300.00000
G01 Z-0.05000
G04 P0 ( dwell for no time -- G64 should not smooth over this point )
F600.00000
X77.71920 Y46.36579
X77.77574 Y46.19462
X77.80300 Y45.93577
X77.77313 Y45.66724
X77.69553 Y45.43021
X77.56558 Y45.20516
X77.39911 Y45.01946
X77.18151 Y44.85932
X76.95387 Y44.75739
X76.67948 Y44.69907
X76.43010 Y44.69960
X76.16614 Y44.75739
X75.92975 Y44.86501
X75.72091 Y45.01946
X75.55444 Y45.20516
X75.42449 Y45.43021
X75.34689 Y45.66724
X75.31756 Y45.92533
X75.34255 Y46.18388
X75.42449 Y46.44133
X75.55441 Y46.66638
X75.72091 Y46.85210
X75.93848 Y47.01222
X76.17590 Y47.11794
X76.43010 Y47.17196
X76.67948 Y47.17252
X76.93399 Y47.12063
X77.00742 Y47.09033
X77.22060 Y47.28652
X77.30790 Y47.33102
X77.48019 Y47.36531
X81.72504 Y47.36579
X81.73263 Y47.50404
X81.76946 Y47.54892
X81.82504 Y47.56579
X82.72501 Y47.56579
X82.78056 Y47.54892
X82.82308 Y47.48530
X82.82501 Y46.26579
X82.80814 Y46.21022
X82.74452 Y46.16770
X81.80550 Y46.16770
X81.76946 Y46.18263
X81.73263 Y46.22751
X81.72504 Y46.36579
X77.71920 Y46.36579
G04 P0 ( dwell for no time -- G64 should not smooth over this point )
G00 Z5.00000 ( retract )

G00 X77.51245 Y47.67379 ( rapid move to begin. )
F300.00000
G01 Z-0.05000
G04 P0 ( dwell for no time -- G64 should not smooth over this point )
F600.00000
X77.51245 Y47.67379
X77.18255 Y47.60818
X77.05138 Y47.52053
X76.96922 Y47.48657
X76.25283 Y47.48705
X75.68085 Y47.25070
X75.58814 Y47.18436
X75.45685 Y47.17440
X75.37979 Y47.20729
X75.30049 Y47.30033
X75.27918 Y47.45497
X75.08789 Y47.91791
X74.73407 Y48.27237
X74.27146 Y48.46444
X73.77080 Y48.46495
X73.30786 Y48.27366
X72.95340 Y47.91984
X72.76132 Y47.45720
X72.76082 Y46.95654
X72.95210 Y46.49360
X73.30593 Y46.13917
X73.76856 Y45.94710
X74.26920 Y45.94659
X74.72840 Y46.13318
X74.82645 Y46.13546
X74.90828 Y46.10145
X74.97082 Y46.03879
X75.00458 Y45.95728
X75.00854 Y45.62906
X75.24433 Y45.05838
X75.68027 Y44.62168
X76.25019 Y44.38505
X76.86703 Y44.38444
X77.43739 Y44.62010
X77.87409 Y45.05602
X78.11072 Y45.62597
X78.11095 Y45.83099
X78.12824 Y45.91774
X78.20396 Y46.01370
X78.31318 Y46.05533
X81.39539 Y46.05324
X81.47761 Y46.01870
X81.59199 Y45.92581
X81.63931 Y45.85319
X81.65590 Y45.77161
X81.61790 Y45.64192
X81.47939 Y45.49747
X81.41703 Y45.34700
X81.41703 Y45.04550
X81.44274 Y45.01979
X81.72504 Y45.01979
X81.72694 Y45.28530
X81.76946 Y45.34893
X81.82504 Y45.36579
X82.74452 Y45.36386
X82.79570 Y45.33648
X82.82308 Y45.28530
X82.82501 Y45.01979
X83.10728 Y45.01979
X83.13303 Y45.04555
X83.13303 Y45.34682
X83.07065 Y45.49747
X82.93278 Y45.64149
X82.90024 Y45.71885
X82.89526 Y45.77339
X82.92988 Y45.88695
X83.01381 Y45.96597
X83.10804 Y46.10394
X83.14545 Y46.28860
X83.14545 Y47.44445
X83.11327 Y47.61555
X83.02310 Y47.75570
X82.88683 Y47.84882
X82.70217 Y47.88624
X81.84637 Y47.88624
X81.67520 Y47.85403
X81.47030 Y47.70630
X81.35371 Y47.67379
X77.51245 Y47.67379
G04 P0 ( dwell for no time -- G64 should not smooth over this point )
G00 Z5.00000 ( retract )

G00 X81.49202 Y43.13550 ( rapid move to begin. )
F300.00000
G01 Z-0.05000
G04 P0 ( dwell for no time -- G64 should not smooth over this point )
F600.00000
X81.49202 Y43.13550
X81.51772 Y43.10979
X81.77502 Y43.10979
X81.77502 Y43.97964
X81.72694 Y44.04626
X81.72504 Y44.31180
X81.44279 Y44.31180
X81.41703 Y44.28604
X81.41703 Y43.98459
X81.47980 Y43.83298
X81.54246 Y43.75155
X81.56392 Y43.65576
X81.54668 Y43.56892
X81.49202 Y43.43699
X81.49202 Y43.13550
G04 P0 ( dwell for no time -- G64 should not smooth over this point )
G00 Z5.00000 ( retract )

