( pcb2gcode 1.3.2 )
( Software-independent Gcode )

G94 ( Millimeters per minute feed rate. )
G21 ( Units == Millimeters. )

G90 ( Absolute coordinates. )
S10000 ( RPM spindle speed. )
G64 P0.01000 ( set maximum deviation from commanded toolpath )
F600.00000 ( Feedrate. )

F600.00000 ( Feedrate. )
M3 ( Spindle on clockwise. )
G04 P0 ( dwell for no time -- G64 should not smooth over this point )
G00 Z5.00000 ( retract )

G00 X0.15507 Y1.65125 ( rapid move to begin. )
G01 Z-2.50000 F300.00000 ( plunge. )
G04 P0 ( dwell for no time -- G64 should not smooth over this point )
F600.00000
X0.15507 Y1.65125
X0.15507 Y51.17073
X0.18390 Y51.46334
X0.26927 Y51.74475
X0.40788 Y52.00406
X0.59441 Y52.23136
X0.82172 Y52.41793
X1.08103 Y52.55653
X1.36243 Y52.64190
X1.65504 Y52.67071
X79.25501 Y52.67150
Z-0.60000
X82.75501 Y52.67154
Z-2.50000 F300.00000
F600.00000X160.35498 Y52.67233
X160.64761 Y52.64353
X160.92899 Y52.55816
X161.18833 Y52.41955
X161.41563 Y52.23301
X161.60219 Y52.00571
X161.74080 Y51.74638
X161.82617 Y51.46499
X161.85497 Y51.17236
X161.85581 Y1.65244
X161.82701 Y1.35981
X161.74164 Y1.07843
X161.60303 Y0.81910
X161.41649 Y0.59179
X161.18919 Y0.40525
X160.92986 Y0.26665
X160.64847 Y0.18128
X160.35584 Y0.15247
X82.75545 Y0.15189
Z-0.60000
X79.25545 Y0.15186
Z-2.50000 F300.00000
F600.00000X1.65507 Y0.15128
X1.36243 Y0.18008
X1.08105 Y0.26545
X0.82172 Y0.40406
X0.59441 Y0.59060
X0.40788 Y0.81790
X0.26927 Y1.07724
X0.18390 Y1.35862
X0.15507 Y1.65125

G04 P0 ( dwell for no time -- G64 should not smooth over this point )
G00 Z10.000 ( retract )

M5 ( Spindle off. )
M9 ( Coolant off. )
M2 ( Program end. )

